asset_packs/artwork_gold_straw/mood/grade_33.cube
TITLE "artwork_gold_straw mood grade"
# Generated by construction_code_v2/gen_asset_packs.py. Domain: display-referred sRGB in, sRGB out.
LUT_3D_SIZE 33
DOMAIN_MIN 0.0 0.0 0.0
DOMAIN_MAX 1.0 1.0 1.0
0.009213 0.000000 0.000000
0.040177 0.000000 0.000000
0.071473 0.000000 0.000000
0.103009 0.000000 0.000000
0.134747 0.000000 0.000000
0.166666 0.000000 0.000000
0.198752 0.000000 0.000000
0.230993 0.000000 0.000000
0.263380 0.000000 0.000000
0.295906 0.000000 0.000000
0.328565 0.000000 0.000000
0.361351 0.000000 0.000000
0.394261 0.000000 0.000000
0.427290 0.000000 0.000000
0.460435 0.000000 0.000000
0.493692 0.000000 0.000000
0.527059 0.000000 0.000000
0.560533 0.000000 0.000000
0.594111 0.000000 0.000000
0.627792 0.000000 0.000000
0.661574 0.000000 0.000000
0.695454 0.000000 0.000000
0.729431 0.000000 0.000000
0.763503 0.000000 0.000000
0.797668 0.000000 0.000000
0.831926 0.000000 0.000000
0.866274 0.000000 0.000000
0.900712 0.000000 0.000000
0.935239 0.000000 0.000000
0.969852 0.000000 0.000000
1.000000 0.000000 0.000000
1.000000 0.000000 0.000000
1.000000 0.000000 0.000000
0.000000 0.012266 0.000000
0.014939 0.005117 0.000000
0.046920 0.000000 0.000000
0.079064 0.000000 0.000000
0.111359 0.000000 0.000000
0.143797 0.000000 0.000000
0.176372 0.000000 0.000000
0.209078 0.000000 0.000000
0.241910 0.000000 0.000000
0.274863 0.000000 0.000000
0.307935 0.000000 0.000000
0.341121 0.000000 0.000000
0.374418 0.000000 0.000000
0.407824 0.000000 0.000000
0.441337 0.000000 0.000000
0.474953 0.000000 0.000000
0.508671 0.000000 0.000000
0.542488 0.000000 0.000000
0.576404 0.000000 0.000000
0.610415 0.000000 0.000000
0.644522 0.000000 0.000000
0.678721 0.000000 0.000000
0.713012 0.000000 0.000000
0.747393 0.000000 0.000000
0.781863 0.000000 0.000000
0.816421 0.000000 0.000000
0.851066 0.000000 0.000000
0.885797 0.000000 0.000000
0.920612 0.000000 0.000000
0.955510 0.000000 0.000000
0.990491 0.000000 0.000000
1.000000 0.000000 0.000000
1.000000 0.000000 0.000000
0.000000 0.027922 0.000000
0.000000 0.021289 0.000000
0.024232 0.014789 0.000000
0.056856 0.008415 0.000000
0.089608 0.002163 0.000000
0.122484 0.000000 0.000000
0.155481 0.000000 0.000000
0.188595 0.000000 0.000000
0.221822 0.000000 0.000000
0.255159 0.000000 0.000000
0.288604 0.000000 0.000000
0.322154 0.000000 0.000000
0.355808 0.000000 0.000000
0.389562 0.000000 0.000000
0.423416 0.000000 0.000000
0.457366 0.000000 0.000000
0.491413 0.000000 0.000000
0.525553 0.000000 0.000000
0.559786 0.000000 0.000000
0.594110 0.000000 0.000000
0.628523 0.000000 0.000000
0.663026 0.000000 0.000000
0.697616 0.000000 0.000000
0.732292 0.000000 0.000000
0.767053 0.000000 0.000000
0.801898 0.000000 0.000000
0.836827 0.000000 0.000000
0.871838 0.000000 0.000000
0.906930 0.000000 0.000000
0.942103 0.000000 0.000000
0.977356 0.000000 0.000000
1.000000 0.000000 0.000000
1.000000 0.000000 0.000000
0.000000 0.045188 0.000000
0.000000 0.038979 0.000000
0.003075 0.032885 0.000000
0.036115 0.026902 0.000000
0.069270 0.021026 0.000000
0.102537 0.015255 0.000000
0.135914 0.009586 0.000000
0.169398 0.004016 0.000000
0.202986 0.000000 0.000000
0.236676 0.000000 0.000000
0.270467 0.000000 0.000000
0.304356 0.000000 0.000000
0.338342 0.000000 0.000000
0.372422 0.000000 0.000000
0.406596 0.000000 0.000000
0.440863 0.000000 0.000000
0.475219 0.000000 0.000000
0.509666 0.000000 0.000000
0.544200 0.000000 0.000000
0.578821 0.000000 0.000000
0.613528 0.000000 0.000000
0.648321 0.000000 0.000000
0.683196 0.000000 0.000000
0.718155 0.000000 0.000000
0.753196 0.000000 0.000000
0.788318 0.000000 0.000000
0.823519 0.000000 0.000000
0.858801 0.000000 0.000000
0.894161 0.000000 0.000000
0.929599 0.000000 0.000000
0.965114 0.000000 0.000000
1.000000 0.000000 0.000000
1.000000 0.000000 0.000000
0.000000 0.063813 0.000000
0.000000 0.057976 0.000000
0.000000 0.052242 0.000000
0.016683 0.046609 0.000000
0.050205 0.041075 0.000000
0.083831 0.035636 0.000000
0.117558 0.030291 0.000000
0.151385 0.025038 0.000000
0.185309 0.019875 0.000000
0.219329 0.014800 0.000000
0.253444 0.009811 0.000000
0.287652 0.004908 0.000000
0.321951 0.000089 0.000000
0.356341 0.000000 0.000000
0.390819 0.000000 0.000000
0.425386 0.000000 0.000000
0.460038 0.000000 0.000000
0.494777 0.000000 0.000000
0.529599 0.000000 0.000000
0.564505 0.000000 0.000000
0.599494 0.000000 0.000000
0.634564 0.000000 0.000000
0.669715 0.000000 0.000000
0.704946 0.000000 0.000000
0.740256 0.000000 0.000000
0.775645 0.000000 0.000000
0.811111 0.000000 0.000000
0.846654 0.000000 0.000000
0.882273 0.000000 0.000000
0.917967 0.000000 0.000000
0.953737 0.000000 0.000000
0.989581 0.000000 0.000000
1.000000 0.000000 0.000000
0.000000 0.083646 0.000000
0.000000 0.078146 0.000000
0.000000 0.072742 0.000000
0.000000 0.067430 0.000000
0.032315 0.062210 0.000000
0.066275 0.057079 0.000000
0.100330 0.052036 0.000000
0.134479 0.047079 0.000000
0.168720 0.042207 0.000000
0.203052 0.037417 0.000000
0.237474 0.032710 0.000000
0.271985 0.028084 0.000000
0.306583 0.023536 0.000000
0.341267 0.019068 0.000000
0.376036 0.014677 0.000000
0.410889 0.010362 0.000000
0.445825 0.006122 0.000000
0.480844 0.001957 0.000000
0.515943 0.000000 0.000000
0.551124 0.000000 0.000000
0.586383 0.000000 0.000000
0.621722 0.000000 0.000000
0.657139 0.000000 0.000000
0.692633 0.000000 0.000000
0.728204 0.000000 0.000000
0.763850 0.000000 0.000000
0.799572 0.000000 0.000000
0.835369 0.000000 0.000000
0.871240 0.000000 0.000000
0.907184 0.000000 0.000000
0.943201 0.000000 0.000000
0.979290 0.000000 0.000000
1.000000 0.000000 0.000000
0.000000 0.104582 0.000000
0.000000 0.099395 0.000000
0.000000 0.094296 0.000000
0.000000 0.089284 0.000000
0.015525 0.084358 0.000000
0.049800 0.079516 0.000000
0.084165 0.074757 0.000000
0.118619 0.070079 0.000000
0.153162 0.065481 0.000000
0.187791 0.060963 0.000000
0.222506 0.056523 0.000000
0.257306 0.052159 0.000000
0.292190 0.047872 0.000000
0.327156 0.043660 0.000000
0.362204 0.039521 0.000000
0.397333 0.035456 0.000000
0.432543 0.031464 0.000000
0.467831 0.027543 0.000000
0.503198 0.023692 0.000000
0.538643 0.019912 0.000000
0.574165 0.016201 0.000000
0.609764 0.012559 0.000000
0.645438 0.008984 0.000000
0.681187 0.005477 0.000000
0.717011 0.002037 0.000000
0.752908 0.000000 0.000000
0.788879 0.000000 0.000000
0.824922 0.000000 0.000000
0.861038 0.000000 0.000000
0.897225 0.000000 0.000000
0.933483 0.000000 0.000000
0.969811 0.000000 0.000000
1.000000 0.000000 0.000000
0.000000 0.126543 0.000000
0.000000 0.121648 0.000000
0.000000 0.116836 0.000000
0.000000 0.112107 0.000000
0.000000 0.107458 0.000000
0.034350 0.102890 0.000000
0.069011 0.098400 0.000000
0.103757 0.093988 0.000000
0.138588 0.089652 0.000000
0.173501 0.085392 0.000000
0.208498 0.081207 0.000000
0.243575 0.077096 0.000000
0.278734 0.073057 0.000000
0.313972 0.069090 0.000000
0.349289 0.065195 0.000000
0.384685 0.061370 0.000000
0.420158 0.057616 0.000000
0.455708 0.053930 0.000000
0.491334 0.050312 0.000000
0.527036 0.046762 0.000000
0.562812 0.043280 0.000000
0.598663 0.039863 0.000000
0.634587 0.036513 0.000000
0.670584 0.033228 0.000000
0.706654 0.030007 0.000000
0.742795 0.026851 0.000000
0.779008 0.023758 0.000000
0.815292 0.020728 0.000000
0.851646 0.017761 0.000000
0.888070 0.014856 0.000000
0.924563 0.012012 0.000000
0.961125 0.009230 0.000000
0.997756 0.006509 0.000000
0.000000 0.149468 0.000000
0.000000 0.144848 0.000000
0.000000 0.140309 0.000000
0.000000 0.135847 0.000000
0.000000 0.131463 0.000000
0.019880 0.127155 0.000000
0.054824 0.122923 0.000000
0.089850 0.118764 0.000000
0.124957 0.114679 0.000000
0.160145 0.110667 0.000000
0.195412 0.106727 0.000000
0.230758 0.102857 0.000000
0.266182 0.099058 0.000000
0.301683 0.095328 0.000000
0.337261 0.091667 0.000000
0.372914 0.088074 0.000000
0.408643 0.084549 0.000000
0.444447 0.081091 0.000000
0.480324 0.077698 0.000000
0.516275 0.074372 0.000000
0.552298 0.071110 0.000000
0.588394 0.067913 0.000000
0.624562 0.064780 0.000000
0.660801 0.061710 0.000000
0.697110 0.058703 0.000000
0.733490 0.055759 0.000000
0.769939 0.052876 0.000000
0.806457 0.050055 0.000000
0.843045 0.047295 0.000000
0.879700 0.044595 0.000000
0.916423 0.041956 0.000000
0.953214 0.039376 0.000000
0.990072 0.036855 0.000000
0.000000 0.173305 0.000000
0.000000 0.168949 0.000000
0.000000 0.164668 0.000000
0.000000 0.160463 0.000000
0.000000 0.156331 0.000000
0.006350 0.152273 0.000000
0.041566 0.148287 0.000000
0.076862 0.144372 0.000000
0.112237 0.140528 0.000000
0.147689 0.136755 0.000000
0.183218 0.133050 0.000000
0.218823 0.129414 0.000000
0.254504 0.125846 0.000000
0.290261 0.122345 0.000000
0.326091 0.118910 0.000000
0.361995 0.115542 0.000000
0.397973 0.112239 0.000000
0.434023 0.109001 0.000000
0.470145 0.105827 0.000000
0.506338 0.102717 0.000000
0.542603 0.099671 0.000000
0.578938 0.096686 0.000000
0.615343 0.093765 0.000000
0.651817 0.090904 0.000000
0.688361 0.088106 0.000000
0.724973 0.085368 0.000000
0.761653 0.082690 0.000000
0.798401 0.080072 0.000000
0.835216 0.077514 0.000000
0.872098 0.075015 0.000000
0.909047 0.072574 0.000000
0.946062 0.070192 0.000000
0.983142 0.067868 0.000000
0.000000 0.198012 0.000000
0.000000 0.193908 0.000000
0.000000 0.189876 0.000000
0.000000 0.185916 0.000000
0.000000 0.182027 0.000000
0.000000 0.178209 0.000000
0.029206 0.174460 0.000000
0.064763 0.170781 0.000000
0.100396 0.167170 0.000000
0.136105 0.163626 0.000000
0.171888 0.160149 0.000000
0.207745 0.156739 0.000000
0.243676 0.153395 0.000000
0.279680 0.150115 0.000000
0.315756 0.146901 0.000000
0.351904 0.143750 0.000000
0.388124 0.140663 0.000000
0.424414 0.137639 0.000000
0.460775 0.134678 0.000000
0.497205 0.131779 0.000000
0.533705 0.128941 0.000000
0.570273 0.126164 0.000000
0.606910 0.123448 0.000000
0.643615 0.120792 0.000000
0.680388 0.118196 0.000000
0.717227 0.115660 0.000000
0.754134 0.113182 0.000000
0.791106 0.110763 0.000000
0.828145 0.108402 0.000000
0.865249 0.106099 0.000000
0.902418 0.103853 0.000000
0.939652 0.101664 0.000000
0.976951 0.099532 0.000000
0.000000 0.223554 0.000000
0.000000 0.219691 0.000000
0.000000 0.215899 0.000000
0.000000 0.212175 0.000000
0.000000 0.208521 0.000000
0.000000 0.204934 0.000000
0.017715 0.201415 0.000000
0.053525 0.197963 0.000000
0.089409 0.194576 0.000000
0.125367 0.191256 0.000000
0.161397 0.188000 0.000000
0.197499 0.184809 0.000000
0.233674 0.181682 0.000000
0.269919 0.178618 0.000000
0.306235 0.175617 0.000000
0.342621 0.172678 0.000000
0.379076 0.169801 0.000000
0.415601 0.166985 0.000000
0.452195 0.164231 0.000000
0.488857 0.161537 0.000000
0.525586 0.158903 0.000000
0.562383 0.156329 0.000000
0.599247 0.153813 0.000000
0.636178 0.151357 0.000000
0.673174 0.148959 0.000000
0.710237 0.146619 0.000000
0.747365 0.144337 0.000000
0.784558 0.142112 0.000000
0.821815 0.139944 0.000000
0.859137 0.137833 0.000000
0.896523 0.135777 0.000000
0.933973 0.133778 0.000000
0.971486 0.131834 0.000000
0.000000 0.249899 0.000000
0.000000 0.246270 0.000000
0.000000 0.242708 0.000000
0.000000 0.239213 0.000000
0.000000 0.235785 0.000000
0.000000 0.232422 0.000000
0.007067 0.229126 0.000000
0.043124 0.225893 0.000000
0.079252 0.222726 0.000000
0.115452 0.219621 0.000000
0.151723 0.216580 0.000000
0.188065 0.213602 0.000000
0.224476 0.210686 0.000000
0.260957 0.207831 0.000000
0.297507 0.205038 0.000000
0.334125 0.202306 0.000000
0.370812 0.199634 0.000000
0.407566 0.197021 0.000000
0.444387 0.194469 0.000000
0.481276 0.191975 0.000000
0.518230 0.189540 0.000000
0.555251 0.187163 0.000000
0.592337 0.184844 0.000000
0.629489 0.182583 0.000000
0.666706 0.180379 0.000000
0.703987 0.178231 0.000000
0.741332 0.176140 0.000000
0.778741 0.174105 0.000000
0.816214 0.172126 0.000000
0.853750 0.170203 0.000000
0.891348 0.168334 0.000000
0.929010 0.166520 0.000000
0.966733 0.164761 0.000000
0.000000 0.277020 0.000000
0.000000 0.273616 0.000000
0.000000 0.270277 0.000000
0.000000 0.267004 0.000000
0.000000 0.263795 0.000000
0.000000 0.260651 0.000000
0.000000 0.257569 0.000000
0.033537 0.254551 0.000000
0.069904 0.251596 0.000000
0.106341 0.248702 0.000000
0.142847 0.245870 0.000000
0.179422 0.243099 0.000000
0.216065 0.240388 0.000000
0.252776 0.237738 0.000000
0.289555 0.235148 0.000000
0.326401 0.232616 0.000000
0.363313 0.230144 0.000000
0.400292 0.227730 0.000000
0.437337 0.225375 0.000000
0.474447 0.223077 0.000000
0.511622 0.220836 0.000000
0.548862 0.218653 0.000000
0.586167 0.216526 0.000000
0.623535 0.214456 0.000000
0.660967 0.212441 0.000000
0.698463 0.210482 0.000000
0.736022 0.208579 0.000000
0.773643 0.206730 0.000000
0.811327 0.204936 0.000000
0.849074 0.203196 0.000000
0.886881 0.201511 0.000000
0.924751 0.199879 0.000000
0.962682 0.198301 0.000000
0.000000 0.304891 0.000000
0.000000 0.301705 0.000000
0.000000 0.298584 0.000000
0.000000 0.295526 0.000000
0.000000 0.292531 0.000000
0.000000 0.289598 0.000000
0.000000 0.286726 0.000000
0.024746 0.283916 0.000000
0.061346 0.281168 0.000000
0.098014 0.278479 0.000000
0.134749 0.275851 0.000000
0.171553 0.273282 0.000000
0.208423 0.270772 0.000000
0.245359 0.268321 0.000000
0.282362 0.265928 0.000000
0.319431 0.263594 0.000000
0.356565 0.261317 0.000000
0.393764 0.259097 0.000000
0.431027 0.256934 0.000000
0.468355 0.254828 0.000000
0.505747 0.252778 0.000000
0.543202 0.250784 0.000000
0.580721 0.248845 0.000000
0.618303 0.246962 0.000000
0.655947 0.245133 0.000000
0.693654 0.243359 0.000000
0.731422 0.241639 0.000000
0.769253 0.239973 0.000000
0.807144 0.238361 0.000000
0.845097 0.236802 0.000000
0.883111 0.235297 0.000000
0.921186 0.233844 0.000000
0.959320 0.232443 0.000000
0.000000 0.333491 0.000000
0.000000 0.330518 0.000000
0.000000 0.327608 0.000000
0.000000 0.324759 0.000000
0.000000 0.321971 0.000000
0.000000 0.319244 0.000000
0.000000 0.316578 0.000000
0.016732 0.313971 0.000000
0.053559 0.311424 0.000000
0.090454 0.308935 0.000000
0.127414 0.306506 0.000000
0.164441 0.304134 0.000000
0.201534 0.301821 0.000000
0.238691 0.299565 0.000000
0.275914 0.297366 0.000000
0.313201 0.295224 0.000000
0.350552 0.293138 0.000000
0.387967 0.291108 0.000000
0.425445 0.289134 0.000000
0.462987 0.287216 0.000000
0.500592 0.285352 0.000000
0.538259 0.283543 0.000000
0.575988 0.281789 0.000000
0.613779 0.280089 0.000000
0.651632 0.278443 0.000000
0.689546 0.276850 0.000000
0.727521 0.275310 0.000000
0.765557 0.273824 0.000000
0.803653 0.272390 0.000000
0.841810 0.271009 0.000000
0.880026 0.269680 0.000000
0.918303 0.268403 0.000000
0.956638 0.267177 0.000000
0.000000 0.362799 0.000000
0.000000 0.360034 0.000000
0.000000 0.357329 0.000000
0.000000 0.354684 0.000000
0.000000 0.352099 0.000000
0.000000 0.349573 0.000000
0.000000 0.347107 0.000000
0.009478 0.344698 0.000000
0.046529 0.342348 0.000000
0.083645 0.340055 0.000000
0.120826 0.337820 0.000000
0.158072 0.335642 0.000000
0.195383 0.333520 0.000000
0.232757 0.331455 0.000000
0.270195 0.329446 0.000000
0.307697 0.327492 0.000000
0.345261 0.325593 0.000000
0.382889 0.323750 0.000000
0.420578 0.321961 0.000000
0.458330 0.320226 0.000000
0.496144 0.318546 0.000000
0.534019 0.316919 0.000000
0.571955 0.315346 0.000000
0.609953 0.313826 0.000000
0.648011 0.312358 0.000000
0.686129 0.310944 0.000000
0.724307 0.309582 0.000000
0.762546 0.308271 0.000000
0.800844 0.307013 0.000000
0.839201 0.305806 0.000000
0.877617 0.304651 0.000000
0.916092 0.303547 0.000000
0.954626 0.302493 0.000000
0.000000 0.392799 0.000000
0.000000 0.390235 0.000000
0.000000 0.387731 0.000000
0.000000 0.385286 0.000000
0.000000 0.382898 0.000000
0.000000 0.380569 0.000000
0.000000 0.378297 0.000000
0.002970 0.376083 0.000000
0.040239 0.373925 0.000000
0.077573 0.371824 0.000000
0.114971 0.369779 0.000000
0.152432 0.367790 0.000000
0.189957 0.365857 0.000000
0.227544 0.363978 0.000000
0.265194 0.362155 0.000000
0.302907 0.360386 0.000000
0.340681 0.358671 0.000000
0.378517 0.357010 0.000000
0.416415 0.355403 0.000000
0.454373 0.353849 0.000000
0.492393 0.352348 0.000000
0.530472 0.350900 0.000000
0.568613 0.349504 0.000000
0.606813 0.348161 0.000000
0.645073 0.346870 0.000000
0.683393 0.345630 0.000000
0.721771 0.344442 0.000000
0.760209 0.343305 0.000000
0.798705 0.342220 0.000000
0.837260 0.341185 0.000000
0.875874 0.340200 0.000000
0.914545 0.339266 0.000000
0.953274 0.338381 0.000000
0.000000 0.423472 0.000000
0.000000 0.421106 0.000000
0.000000 0.418798 0.000000
0.000000 0.416547 0.000000
0.000000 0.414353 0.000000
0.000000 0.412216 0.000000
0.000000 0.410136 0.000000
0.000000 0.408111 0.000000
0.034677 0.406142 0.000000
0.072225 0.404229 0.000000
0.109835 0.402371 0.000000
0.147508 0.400567 0.000000
0.185243 0.398818 0.000000
0.223040 0.397122 0.000000
0.260898 0.395481 0.000000
0.298818 0.393893 0.000000
0.336799 0.392359 0.000000
0.374840 0.390877 0.000000
0.412942 0.389448 0.000000
0.451104 0.388072 0.000000
0.489326 0.386748 0.000000
0.527608 0.385475 0.000000
0.565949 0.384254 0.000000
0.604349 0.383085 0.000000
0.642809 0.381967 0.000000
0.681326 0.380899 0.000000
0.719903 0.379883 0.000000
0.758537 0.378916 0.000000
0.797229 0.378000 0.000000
0.835980 0.377134 0.000000
0.874787 0.376318 0.000000
0.913652 0.375551 0.000000
0.952574 0.374833 0.000000
0.000000 0.454804 0.000000
0.000000 0.452631 0.000000
0.000000 0.450515 0.000000
0.000000 0.448455 0.000000
0.000000 0.446451 0.000000
0.000000 0.444502 0.000000
0.000000 0.442609 0.000000
0.000000 0.440770 0.000000
0.029830 0.438986 0.000000
0.067588 0.437257 0.000000
0.105407 0.435581 0.000000
0.143288 0.433959 0.000000
0.181230 0.432391 0.000000
0.219233 0.430876 0.000000
0.257296 0.429413 0.000000
0.295420 0.428004 0.000000
0.333604 0.426646 0.000000
0.371848 0.425341 0.000000
0.410151 0.424087 0.000000
0.448514 0.422885 0.000000
0.486936 0.421734 0.000000
0.525416 0.420635 0.000000
0.563955 0.419586 0.000000
0.602553 0.418588 0.000000
0.641208 0.417640 0.000000
0.679922 0.416742 0.000000
0.718693 0.415894 0.000000
0.757521 0.415096 0.000000
0.796407 0.414347 0.000000
0.835349 0.413647 0.000000
0.874349 0.412996 0.000000
0.913405 0.412394 0.000000
0.952517 0.411841 0.000000
0.000000 0.486781 0.000000
0.000000 0.484797 0.000000
0.000000 0.482869 0.000000
0.000000 0.480995 0.000000
0.000000 0.479177 0.000000
0.000000 0.477413 0.000000
0.000000 0.475703 0.000000
0.000000 0.474047 0.000000
0.025685 0.472445 0.000000
0.063649 0.470896 0.000000
0.101674 0.469400 0.000000
0.139760 0.467957 0.000000
0.177906 0.466566 0.000000
0.216111 0.465227 0.000000
0.254377 0.463941 0.000000
0.292702 0.462706 0.000000
0.331086 0.461523 0.000000
0.369529 0.460391 0.000000
0.408031 0.459310 0.000000
0.446592 0.458279 0.000000
0.485210 0.457299 0.000000
0.523887 0.456370 0.000000
0.562621 0.455490 0.000000
0.601413 0.454660 0.000000
0.640263 0.453880 0.000000
0.679169 0.453149 0.000000
0.718132 0.452467 0.000000
0.757152 0.451834 0.000000
0.796229 0.451250 0.000000
0.835361 0.450714 0.000000
0.874550 0.450227 0.000000
0.913795 0.449788 0.000000
0.953095 0.449396 0.000000
0.000000 0.519389 0.000000
0.000000 0.517591 0.000000
0.000000 0.515847 0.000000
0.000000 0.514156 0.000000
0.000000 0.512520 0.000000
0.000000 0.510937 0.000000
0.000000 0.509407 0.000000
0.000000 0.507931 0.000000
0.022232 0.506507 0.000000
0.060399 0.505135 0.000000
0.098627 0.503816 0.000000
0.136914 0.502548 0.000000
0.175261 0.501332 0.000000
0.213666 0.500167 0.000000
0.252131 0.499054 0.000000
0.290654 0.497991 0.000000
0.329236 0.496979 0.000000
0.367876 0.496017 0.000000
0.406573 0.495106 0.000000
0.445329 0.494244 0.000000
0.484141 0.493433 0.000000
0.523012 0.492670 0.000000
0.561939 0.491957 0.000000
0.600923 0.491293 0.000000
0.639963 0.490678 0.000000
0.679060 0.490112 0.000000
0.718214 0.489594 0.000000
0.757423 0.489124 0.000000
0.796688 0.488702 0.000000
0.836008 0.488328 0.000000
0.875384 0.488002 0.000000
0.914815 0.487723 0.000000
0.954302 0.487491 0.000000
0.000000 0.552617 0.000000
0.000000 0.551000 0.000000
0.000000 0.549437 0.000000
0.000000 0.547926 0.000000
0.000000 0.546469 0.000000
0.000000 0.545064 0.000000
0.000000 0.543711 0.000000
0.000000 0.542411 0.000000
0.019459 0.541162 0.000000
0.057827 0.539964 0.000000
0.096254 0.538818 0.000000
0.134740 0.537723 0.000000
0.173285 0.536679 0.000000
0.211888 0.535686 0.000000
0.250549 0.534742 0.000000
0.289267 0.533849 0.000000
0.328044 0.533006 0.000000
0.366877 0.532212 0.000000
0.405768 0.531468 0.000000
0.444716 0.530772 0.000000
0.483721 0.530126 0.000000
0.522782 0.529529 0.000000
0.561899 0.528980 0.000000
0.601073 0.528479 0.000000
0.640302 0.528027 0.000000
0.679588 0.527623 0.000000
0.718928 0.527266 0.000000
0.758325 0.526957 0.000000
0.797776 0.526696 0.000000
0.837282 0.526481 0.000000
0.876843 0.526314 0.000000
0.916459 0.526193 0.000000
0.956129 0.526119 0.000000
0.000000 0.586452 0.000000
0.000000 0.585014 0.000000
0.000000 0.583628 0.000000
0.000000 0.582294 0.000000
0.000000 0.581012 0.000000
0.000000 0.579782 0.000000
0.000000 0.578604 0.000000
0.000000 0.577476 0.000000
0.017358 0.576400 0.000000
0.055923 0.575374 0.000000
0.094547 0.574399 0.000000
0.133229 0.573474 0.000000
0.171969 0.572599 0.000000
0.210766 0.571773 0.000000
0.249621 0.570998 0.000000
0.288532 0.570271 0.000000
0.327501 0.569594 0.000000
0.366526 0.568966 0.000000
0.405608 0.568386 0.000000
0.444746 0.567855 0.000000
0.483940 0.567372 0.000000
0.523190 0.566937 0.000000
0.562495 0.566550 0.000000
0.601856 0.566211 0.000000
0.641272 0.565919 0.000000
0.680743 0.565675 0.000000
0.720270 0.565477 0.000000
0.759851 0.565327 0.000000
0.799486 0.565223 0.000000
0.839176 0.565166 0.000000
0.878920 0.565156 0.000000
0.918718 0.565191 0.000000
0.958569 0.565273 0.000000
0.000000 0.620884 0.000000
0.000000 0.619621 0.000000
0.000000 0.618410 0.000000
0.000000 0.617250 0.000000
0.000000 0.616141 0.000000
0.000000 0.615083 0.000000
0.000000 0.614076 0.000000
0.000000 0.613119 0.000000
0.015918 0.612212 0.000000
0.054678 0.611355 0.000000
0.093496 0.610548 0.000000
0.132372 0.609790 0.000000
0.171304 0.609082 0.000000
0.210293 0.608422 0.000000
0.249339 0.607811 0.000000
0.288441 0.607249 0.000000
0.327600 0.606736 0.000000
0.366814 0.606270 0.000000
0.406084 0.605853 0.000000
0.445410 0.605483 0.000000
0.484791 0.605162 0.000000
0.524227 0.604887 0.000000
0.563718 0.604660 0.000000
0.603265 0.604480 0.000000
0.642865 0.604346 0.000000
0.682521 0.604260 0.000000
0.722230 0.604220 0.000000
0.761994 0.604226 0.000000
0.801811 0.604278 0.000000
0.841682 0.604377 0.000000
0.881607 0.604521 0.000000
0.921586 0.604711 0.000000
0.961617 0.604946 0.000000
0.000000 0.655903 0.000000
0.000000 0.654813 0.000000
0.000000 0.653773 0.000000
0.000000 0.652784 0.000000
0.000000 0.651845 0.000000
0.000000 0.650957 0.000000
0.000000 0.650118 0.000000
0.000000 0.649329 0.000000
0.015130 0.648589 0.000000
0.054083 0.647898 0.000000
0.093093 0.647257 0.000000
0.132160 0.646664 0.000000
0.171282 0.646119 0.000000
0.210461 0.645623 0.000000
0.249696 0.645175 0.000000
0.288986 0.644775 0.000000
0.328332 0.644423 0.000000
0.367733 0.644119 0.000000
0.407189 0.643861 0.000000
0.446701 0.643651 0.000000
0.486267 0.643488 0.000000
0.525887 0.643372 0.000000
0.565562 0.643302 0.000000
0.605292 0.643279 0.000000
0.645075 0.643302 0.000000
0.684912 0.643371 0.000000
0.724803 0.643486 0.000000
0.764747 0.643647 0.000000
0.804745 0.643854 0.000000
0.844796 0.644106 0.000000
0.884900 0.644403 0.000000
0.925057 0.644745 0.000000
0.965266 0.645133 0.000000
0.000000 0.691499 0.000000
0.000000 0.690579 0.000000
0.000000 0.689708 0.000000
0.000000 0.688887 0.000000
0.000000 0.688116 0.000000
0.000000 0.687394 0.000000
0.000000 0.686721 0.000000
0.000000 0.686098 0.000000
0.014987 0.685522 0.000000
0.054131 0.684996 0.000000
0.093330 0.684517 0.000000
0.132585 0.684087 0.000000
0.171895 0.683704 0.000000
0.211261 0.683369 0.000000
0.250683 0.683082 0.000000
0.290159 0.682842 0.000000
0.329690 0.682649 0.000000
0.369276 0.682503 0.000000
0.408917 0.682404 0.000000
0.448611 0.682351 0.000000
0.488360 0.682345 0.000000
0.528163 0.682384 0.000000
0.568020 0.682470 0.000000
