asset_packs/artwork_gold_straw/mood/grade_33.cube
TITLE "artwork_gold_straw mood grade"
# Generated by construction_code_v2/gen_asset_packs.py. Domain: display-referred sRGB in, sRGB out.
LUT_3D_SIZE 9
DOMAIN_MIN 0.0 0.0 0.0
DOMAIN_MAX 1.0 1.0 1.0
0.009213 0.000000 0.000000
0.134747 0.000000 0.000000
0.263380 0.000000 0.000000
0.394261 0.000000 0.000000
0.527059 0.000000 0.000000
0.661574 0.000000 0.000000
0.797668 0.000000 0.000000
0.935239 0.000000 0.000000
1.000000 0.000000 0.000000
0.000000 0.063813 0.000000
0.050205 0.041075 0.000000
0.185309 0.019875 0.000000
0.321951 0.000089 0.000000
0.460038 0.000000 0.000000
0.599494 0.000000 0.000000
0.740256 0.000000 0.000000
0.882273 0.000000 0.000000
1.000000 0.000000 0.000000
0.000000 0.149468 0.000000
0.000000 0.131463 0.000000
0.124957 0.114679 0.000000
0.266182 0.099058 0.000000
0.408643 0.084549 0.000000
0.552298 0.071110 0.000000
0.697110 0.058703 0.000000
0.843045 0.047295 0.000000
0.990072 0.036855 0.000000
0.000000 0.249899 0.000000
0.000000 0.235785 0.000000
0.079252 0.222726 0.000000
0.224476 0.210686 0.000000
0.370812 0.199634 0.000000
0.518230 0.189540 0.000000
0.666706 0.180379 0.000000
0.816214 0.172126 0.000000
0.966733 0.164761 0.000000
0.000000 0.362799 0.000000
0.000000 0.352099 0.000000
0.046529 0.342348 0.000000
0.195383 0.333520 0.000000
0.345261 0.325593 0.000000
0.496144 0.318546 0.000000
0.648011 0.312358 0.000000
0.800844 0.307013 0.000000
0.954626 0.302493 0.000000
0.000000 0.486781 0.000000
0.000000 0.479177 0.000000
0.025685 0.472445 0.000000
0.177906 0.466566 0.000000
0.331086 0.461523 0.000000
0.485210 0.457299 0.000000
0.640263 0.453880 0.000000
0.796229 0.451250 0.000000
0.953095 0.449396 0.000000
0.000000 0.620884 0.000000
0.000000 0.616141 0.000000
0.015918 0.612212 0.000000
0.171304 0.609082 0.000000
0.327600 0.606736 0.000000
0.484791 0.605162 0.000000
0.642865 0.604346 0.000000
0.801811 0.604278 0.000000
0.961617 0.604946 0.000000
0.000000 0.764387 0.000000
0.000000 0.762324 0.000000
0.016603 0.761028 0.000000
0.174996 0.760486 0.000000
0.334257 0.760687 0.000000
0.494373 0.761620 0.000000
0.655336 0.763275 0.000000
0.817134 0.765642 0.000000
0.979759 0.768711 0.000000
0.000000 0.916723 0.000000
0.000000 0.917192 0.000000
0.027242 0.918390 0.000000
0.188510 0.920305 0.000000
0.350610 0.922929 0.000000
0.513533 0.926251 0.000000
0.677271 0.930264 0.000000
0.841815 0.934958 0.000000
1.000000 0.940326 0.000000
0.000000 0.000000 0.141219
0.125085 0.000000 0.112107
0.254533 0.000000 0.085222
0.386093 0.000000 0.060012
0.519493 0.000000 0.036205
0.654557 0.000000 0.013627
0.791163 0.000000 0.000000
0.929216 0.000000 0.000000
1.000000 0.000000 0.000000
0.000000 0.055909 0.051193
0.042844 0.033710 0.027850
0.178483 0.013002 0.005687
0.315625 0.000000 0.000000
0.454185 0.000000 0.000000
0.594091 0.000000 0.000000
0.735284 0.000000 0.000000
0.877716 0.000000 0.000000
1.000000 0.000000 0.000000
0.000000 0.143212 0.000000
0.000000 0.125630 0.000000
0.119713 0.109247 0.000000
0.261363 0.094008 0.000000
0.404234 0.079867 0.000000
0.548286 0.066783 0.000000
0.693483 0.054718 0.000000
0.839791 0.043642 0.000000
0.987184 0.033525 0.000000
0.000000 0.244985 0.000000
0.000000 0.231233 0.000000
0.075381 0.218524 0.000000
0.220986 0.206823 0.000000
0.367693 0.196100 0.000000
0.515473 0.186325 0.000000
0.664301 0.177475 0.000000
0.814155 0.169527 0.000000
0.965013 0.162458 0.000000
0.000000 0.359057 0.000000
0.000000 0.348683 0.000000
0.043901 0.339248 0.000000
0.193105 0.330728 0.000000
0.343327 0.323102 0.000000
0.494546 0.316349 0.000000
0.646743 0.310450 0.000000
0.799900 0.305386 0.000000
0.954001 0.301143 0.000000
0.000000 0.484100 0.000000
0.000000 0.476794 0.000000
0.024208 0.470353 0.000000
0.176756 0.464760 0.000000
0.330259 0.459997 0.000000
0.484700 0.456048 0.000000
0.640064 0.452899 0.000000
0.796338 0.450534 0.000000
0.953507 0.448941 0.000000
0.000000 0.619181 0.000000
0.000000 0.614716 0.000000
0.015522 0.611060 0.000000
0.171218 0.608198 0.000000
0.327820 0.606115 0.000000
0.485312 0.604800 0.000000
0.643684 0.604240 0.000000
0.802923 0.604423 0.000000
0.963019 0.605339 0.000000
0.000000 0.763600 0.000000
0.000000 0.761798 0.000000
0.017233 0.760759 0.000000
0.175922 0.760471 0.000000
0.335474 0.760922 0.000000
0.495879 0.762102 0.000000
0.657127 0.764000 0.000000
0.819207 0.766606 0.000000
0.982110 0.769912 0.000000
0.000000 0.916800 0.000000
0.000000 0.917518 0.000000
0.028852 0.918960 0.000000
0.190403 0.921117 0.000000
0.352784 0.923979 0.000000
0.515985 0.927537 0.000000
0.679998 0.931782 0.000000
0.844813 0.936706 0.000000
1.000000 0.942300 0.000000
0.000000 0.000000 0.287268
0.115722 0.000000 0.259015
0.245928 0.000000 0.232740
0.378137 0.000000 0.208030
0.512118 0.000000 0.184657
0.647719 0.000000 0.162466
0.784825 0.000000 0.141344
0.923351 0.000000 0.121205
1.000000 0.000000 0.101977
0.000000 0.048194 0.199375
0.035670 0.026516 0.176447
0.171830 0.006288 0.154657
0.309462 0.000000 0.133903
0.448486 0.000000 0.114103
0.588836 0.000000 0.095191
0.730455 0.000000 0.077114
0.873297 0.000000 0.059822
1.000000 0.000000 0.043275
0.000000 0.137103 0.126587
0.000000 0.119934 0.107118
0.114615 0.103946 0.088516
0.256684 0.089085 0.070729
0.399961 0.075307 0.053713
0.544406 0.062573 0.037428
0.689983 0.050848 0.021840
0.836663 0.040100 0.006916
0.984417 0.030303 0.000000
0.000000 0.240196 0.064447
0.000000 0.226802 0.047702
0.071641 0.214439 0.031674
0.217623 0.203073 0.016331
0.364697 0.192675 0.001643
0.512836 0.183217 0.000000
0.662015 0.174676 0.000000
0.812213 0.167028 0.000000
0.963407 0.160254 0.000000
0.000000 0.355427 0.010909
0.000000 0.345374 0.000000
0.041393 0.336253 0.000000
0.190945 0.328039 0.000000
0.341508 0.320712 0.000000
0.493061 0.314251 0.000000
0.645586 0.308637 0.000000
0.799065 0.303854 0.000000
0.953483 0.299885 0.000000
0.000000 0.481520 0.000000
0.000000 0.474510 0.000000
0.022843 0.468360 0.000000
0.175717 0.463051 0.000000
0.329540 0.458566 0.000000
0.484297 0.454890 0.000000
0.639971 0.452008 0.000000
0.796550 0.449907 0.000000
0.954021 0.448573 0.000000
0.000000 0.617573 0.000000
0.000000 0.613385 0.000000
0.015231 0.610000 0.000000
0.171237 0.607404 0.000000
0.328142 0.605583 0.000000
0.485935 0.604526 0.000000
0.644602 0.604219 0.000000
0.804133 0.604653 0.000000
0.964518 0.605814 0.000000
0.000000 0.762902 0.000000
0.000000 0.761361 0.000000
0.017964 0.760578 0.000000
0.176947 0.760542 0.000000
0.336790 0.761242 0.000000
0.497483 0.762666 0.000000
0.659014 0.764806 0.000000
0.821375 0.767651 0.000000
0.984556 0.771192 0.000000
0.000000 0.916962 0.000000
0.000000 0.917927 0.000000
0.030559 0.919613 0.000000
0.192393 0.922010 0.000000
0.355054 0.925110 0.000000
0.518531 0.928902 0.000000
0.682817 0.933378 0.000000
0.847903 0.938531 0.000000
1.000000 0.944351 0.000000
0.000000 0.000000 0.433659
0.106633 0.000000 0.406146
0.237553 0.000000 0.380436
0.370384 0.000000 0.356201
0.504930 0.000000 0.333244
0.641053 0.000000 0.311428
0.778651 0.000000 0.290649
0.917642 0.000000 0.270826
1.000000 0.000000 0.251894
0.000000 0.040662 0.347704
0.028676 0.019490 0.325175
0.165347 0.000000 0.303747
0.303460 0.000000 0.283325
0.442941 0.000000 0.263834
0.583727 0.000000 0.245211
0.725767 0.000000 0.227405
0.869014 0.000000 0.210371
1.000000 0.000000 0.194068
0.000000 0.131136 0.276125
0.000000 0.114375 0.256956
0.109661 0.098775 0.238637
0.252145 0.084287 0.221116
0.395823 0.070867 0.204353
0.540656 0.058479 0.188308
0.686611 0.047090 0.172948
0.833659 0.036668 0.158245
0.981772 0.027188 0.144170
0.000000 0.235529 0.214928
0.000000 0.222490 0.198430
0.068030 0.210469 0.182638
0.214386 0.199435 0.167521
0.361824 0.189359 0.153049
0.510319 0.180215 0.139197
0.659847 0.171980 0.125941
0.810385 0.164631 0.113259
0.961914 0.158149 0.101131
0.000000 0.351907 0.162179
0.000000 0.342173 0.147936
0.039003 0.333363 0.134303
0.188901 0.325453 0.121258
0.339802 0.318422 0.108780
0.491688 0.312250 0.096849
0.644538 0.306921 0.085447
0.798339 0.302416 0.074558
0.953072 0.298720 0.064166
0.000000 0.479042 0.116651
0.000000 0.472326 0.104374
0.021589 0.466463 0.092638
0.174788 0.461436 0.081425
0.328929 0.457228 0.070718
0.483999 0.453823 0.060502
0.639982 0.451208 0.050764
0.796866 0.449369 0.041489
0.954636 0.448293 0.032665
0.000000 0.616060 0.077469
0.000000 0.612146 0.066943
0.015047 0.609030 0.056902
0.171359 0.606699 0.047334
0.328567 0.605139 0.038225
0.486658 0.604338 0.029561
0.645620 0.604284 0.021333
0.805442 0.604966 0.013527
0.966114 0.606373 0.006135
0.000000 0.762293 0.043965
0.000000 0.761010 0.035020
0.018795 0.760483 0.026516
0.178072 0.760698 0.018443
0.338204 0.761645 0.010789
0.499183 0.763313 0.003544
0.660997 0.765693 0.000000
0.823637 0.768776 0.000000
0.987095 0.772551 0.000000
0.000000 0.917208 0.015608
0.000000 0.918419 0.008104
0.032362 0.920348 0.001006
0.194478 0.922985 0.000000
0.357417 0.926320 0.000000
0.521170 0.930346 0.000000
0.685728 0.935053 0.000000
0.851085 0.940433 0.000000
1.000000 0.946478 0.000000
0.000000 0.000000 0.580333
0.097800 0.000000 0.553484
0.229397 0.000000 0.528302
0.362829 0.000000 0.504520
0.497924 0.000000 0.481963
0.634558 0.000000 0.460509
0.772637 0.000000 0.440063
0.912085 0.000000 0.420550
1.000000 0.000000 0.401907
0.000000 0.033307 0.496173
0.021860 0.012626 0.474030
0.159030 0.000000 0.452953
0.297615 0.000000 0.432855
0.437546 0.000000 0.413665
0.578763 0.000000 0.395325
0.721218 0.000000 0.377786
0.864866 0.000000 0.361004
1.000000 0.000000 0.344942
0.000000 0.125310 0.425766
0.000000 0.108949 0.406892
0.104850 0.093732 0.388849
0.247744 0.079611 0.371590
0.391818 0.066546 0.355075
0.537035 0.054501 0.339266
0.683365 0.043443 0.324133
0.830777 0.033344 0.309646
0.979247 0.024178 0.295779
0.000000 0.230985 0.365494
0.000000 0.218295 0.349239
0.064547 0.206612 0.333680
0.211273 0.195907 0.318785
0.359073 0.186150 0.304527
0.507922 0.177318 0.290879
0.657795 0.169386 0.277821
0.808671 0.162333 0.265329
0.960533 0.156141 0.253385
0.000000 0.348496 0.313522
0.000000 0.339079 0.299489
0.036732 0.330577 0.286058
0.186973 0.322967 0.273208
0.338211 0.316230 0.260918
0.490426 0.310347 0.249169
0.643601 0.305299 0.237943
0.797720 0.301071 0.227224
0.952767 0.297647 0.216997
0.000000 0.476665 0.268670
0.000000 0.470240 0.256579
0.020446 0.464663 0.245022
0.173967 0.459916 0.233983
0.328425 0.455982 0.223444
0.483806 0.452847 0.213392
0.640097 0.450497 0.203813
0.797283 0.448918 0.194692
0.955353 0.448099 0.186018
0.000000 0.614640 0.230089
0.000000 0.610999 0.219729
0.014967 0.608151 0.209851
0.171585 0.606083 0.200440
0.329094 0.604783 0.191483
0.487482 0.604237 0.182969
0.646737 0.604434 0.174885
0.806849 0.605363 0.167221
0.967807 0.607014 0.159966
0.000000 0.761772 0.197127
0.000000 0.760747 0.188333
0.019726 0.760473 0.179977
0.179295 0.760938 0.172047
0.339716 0.762131 0.164533
0.500979 0.764042 0.157425
0.663075 0.766662 0.150712
0.825993 0.769980 0.144386
0.989727 0.773989 0.138438
0.000000 0.917538 0.169264
0.000000 0.918994 0.161899
0.034261 0.921164 0.154936
0.196658 0.924040 0.148365
0.359874 0.927610 0.142177
0.523902 0.931868 0.136364
0.688732 0.936805 0.130917
0.854357 0.942412 0.125828
1.000000 0.948682 0.121090
0.000000 0.000000 0.727254
0.089208 0.000000 0.701011
0.221452 0.000000 0.676329
0.355465 0.000000 0.652979
0.491095 0.000000 0.630809
0.628229 0.000000 0.609706
0.766781 0.000000 0.589585
0.906679 0.000000 0.570374
1.000000 0.000000 0.552014
0.000000 0.026122 0.644777
0.015216 0.005921 0.623008
0.152876 0.000000 0.602271
0.291925 0.000000 0.582489
0.432299 0.000000 0.563594
0.573942 0.000000 0.545531
0.716806 0.000000 0.528254
0.860852 0.000000 0.511720
1.000000 0.000000 0.495895
0.000000 0.119623 0.575510
0.000000 0.103656 0.556924
0.100179 0.088816 0.539152
0.243478 0.075058 0.522150
0.387944 0.062343 0.505879
0.533543 0.050636 0.490303
0.680243 0.039907 0.475392
0.828018 0.030128 0.461118
0.976840 0.021273 0.447456
0.000000 0.226560 0.516144
0.000000 0.214216 0.500129
0.061190 0.202869 0.484799
0.208285 0.192488 0.470123
0.356443 0.183048 0.456075
0.505642 0.174524 0.442630
0.655858 0.166893 0.429766
0.807072 0.160135 0.417462
0.959263 0.154231 0.405700
0.000000 0.345194 0.464937
0.000000 0.336090 0.451111
0.034579 0.327893 0.437880
0.185160 0.320583 0.425223
0.336732 0.314137 0.413118
0.489275 0.308540 0.401548
0.642772 0.303772 0.390496
0.797208 0.299819 0.379946
0.952567 0.296664 0.369883
0.000000 0.474387 0.420753
0.000000 0.468252 0.408845
0.019413 0.462959 0.397466
0.173254 0.458489 0.386598
0.328027 0.454828 0.376227
0.483719 0.451962 0.366337
0.640315 0.449875 0.356914
0.797803 0.448555 0.347947
0.956169 0.447991 0.339422
0.000000 0.613314 0.382766
0.000000 0.609944 0.372571
0.014991 0.607362 0.362853
0.171913 0.605556 0.353598
0.329722 0.604513 0.344793
0.488406 0.604221 0.336426
0.647953 0.604668 0.328486
0.808354 0.605843 0.320962
0.969596 0.607737 0.313844
0.000000 0.761339 0.350341
0.000000 0.760570 0.341696
0.020757 0.760548 0.333486
0.180616 0.761262 0.325699
0.341324 0.762700 0.318324
0.502871 0.764853 0.311351
0.665248 0.767711 0.304771
0.828444 0.771265 0.298574
0.992452 0.775506 0.292752
0.000000 0.917952 0.322967
0.000000 0.919652 0.315739
0.036256 0.922062 0.308911
0.198932 0.925175 0.302471
0.362425 0.928980 0.296412
0.526726 0.933469 0.290724
0.691827 0.938634 0.285399
0.857720 0.944467 0.280430
1.000000 0.950960 0.275809
0.000000 0.000000 0.874397
0.080845 0.000000 0.848718
0.213711 0.000000 0.824508
0.348287 0.000000 0.801574
0.484439 0.000000 0.779777
0.622064 0.000000 0.759017
0.761080 0.000000 0.739212
0.901422 0.000000 0.720296
1.000000 0.000000 0.702213
0.000000 0.019105 0.793512
0.008742 0.000000 0.772104
0.146882 0.000000 0.751700
0.286388 0.000000 0.732225
0.427198 0.000000 0.713619
0.569261 0.000000 0.695828
0.712531 0.000000 0.678807
0.856969 0.000000 0.662518
1.000000 0.000000 0.646926
0.000000 0.114071 0.725354
0.000000 0.098492 0.707050
0.095648 0.084024 0.689544
0.239347 0.070625 0.672794
0.384202 0.058256 0.656762
0.530178 0.046885 0.641416
0.677246 0.036481 0.626724
0.825379 0.027018 0.612661
0.974552 0.018472 0.599202
0.000000 0.222254 0.666876
0.000000 0.210252 0.651098
0.057960 0.199237 0.635993
0.205419 0.189178 0.621533
0.353933 0.180052 0.607692
0.503480 0.171833 0.594447
0.654037 0.164501 0.581775
0.805584 0.158035 0.569658
0.958104 0.152417 0.558075
0.000000 0.341999 0.616424
0.000000 0.333206 0.602802
0.032541 0.325312 0.589768
0.183461 0.318298 0.577301
0.335365 0.312142 0.565380
0.488234 0.306828 0.553988
0.642051 0.302339 0.543108
0.796802 0.298658 0.532725
0.952472 0.295772 0.522823
0.000000 0.472208 0.572898
0.000000 0.466361 0.561172
0.018489 0.461349 0.549969
0.172648 0.457156 0.539271
0.327735 0.453766 0.529065
0.483736 0.451166 0.519335
0.640636 0.449341 0.510069
0.798423 0.448280 0.501253
0.957086 0.447969 0.492875
0.000000 0.612080 0.535499
0.000000 0.608979 0.525468
0.015119 0.606663 0.515909
0.172344 0.605117 0.506808
0.330451 0.604330 0.498153
0.489429 0.604290 0.489932
0.649268 0.604986 0.482134
0.809955 0.606406 0.474750
0.971482 0.608542 0.467767
0.000000 0.760994 0.503606
0.000000 0.760480 0.495110
0.021887 0.760709 0.487045
0.182035 0.761670 0.479399
0.343030 0.763352 0.472161
0.504859 0.765745 0.465323
0.667515 0.768840 0.458874
0.830988 0.772629 0.452805
0.995269 0.777101 0.447109
0.000000 0.918449 0.476717
0.000000 0.920391 0.469626
0.038346 0.923041 0.462930
0.201301 0.926390 0.456621
0.365069 0.930428 0.450689
0.529642 0.935148 0.445125
0.695013 0.940541 0.439922
0.861174 0.946599 0.435072
1.000000 0.953314 0.430567
0.000000 0.000000 1.000000
0.072701 0.000000 0.996593
0.206166 0.000000 0.972834
0.341291 0.000000 0.950299
0.477953 0.000000 0.928865
0.616058 0.000000 0.908438
0.755532 0.000000 0.888941
0.896311 0.000000 0.870314
1.000000 0.000000 0.852503
0.000000 0.012250 0.942374
0.002434 0.000000 0.921316
0.141046 0.000000 0.901235
0.281001 0.000000 0.882062
0.422242 0.000000 0.863738
0.564720 0.000000 0.846213
0.708390 0.000000 0.829445
0.853217 0.000000 0.813396
0.999166 0.000000 0.798033
0.000000 0.108653 0.875295
0.000000 0.093456 0.857267
0.091254 0.079356 0.840023
0.235350 0.066310 0.823521
0.380589 0.054284 0.807725
0.526939 0.043244 0.792604
0.674371 0.033163 0.778129
0.822860 0.024014 0.764274
0.972382 0.015774 0.751014
0.000000 0.218066 0.817690
0.000000 0.206402 0.802144
0.054855 0.195715 0.787261
0.202675 0.185976 0.773014
0.351542 0.177160 0.759378
0.501434 0.169245 0.746330
0.652330 0.162209 0.733849
0.804209 0.156033 0.721915
0.957055 0.150698 0.710510
0.000000 0.338911 0.767981
0.000000 0.330425 0.754561
0.030620 0.322833 0.741722
0.181876 0.316112 0.729442
0.334109 0.310244 0.717703
0.487302 0.305212 0.706486
0.641438 0.300999 0.695777
0.796503 0.297590 0.685559
0.952481 0.294970 0.675818
0.000000 0.470128 0.725106
0.000000 0.464566 0.713560
0.017674 0.459834 0.702530
0.172150 0.455916 0.692001
0.327549 0.452796 0.681958
0.483856 0.450460 0.672387
0.641059 0.448896 0.663275
0.799145 0.448091 0.654609
0.958102 0.448032 0.646378
0.000000 0.610938 0.688289
0.000000 0.608105 0.678419
0.015350 0.606052 0.669017
0.172876 0.604765 0.660069
0.331281 0.604233 0.651563
0.490552 0.604444 0.643487
0.650680 0.605387 0.635831
0.811653 0.607052 0.628584
0.973463 0.609428 0.621735
0.000000 0.760735 0.656922
0.000000 0.760475 0.648573
0.023115 0.760954 0.640652
0.183552 0.762160 0.633145
0.344831 0.764085 0.626045
0.506942 0.766718 0.619340
0.669877 0.770050 0.613021
0.833625 0.774071 0.607079
0.998179 0.778774 0.601507
0.000000 0.919028 0.630514
0.000000 0.921212 0.623558
0.040531 0.924100 0.616995
0.203763 0.927684 0.610815
0.367806 0.931955 0.605008
0.532651 0.936904 0.599568
0.698291 0.942524 0.594486
0.864718 0.948806 0.589754
1.000000 0.955743 0.585365
0.000000 0.000000 1.000000
0.064768 0.000000 1.000000
0.198813 0.000000 1.000000
0.334472 0.000000 1.000000
0.471633 0.000000 1.000000
0.610211 0.000000 1.000000
0.750134 0.000000 1.000000
0.891344 0.000000 1.000000
1.000000 0.000000 1.000000
0.000000 0.005554 1.000000
0.000000 0.000000 1.000000
0.135364 0.000000 1.000000
0.275762 0.000000 1.000000
0.417429 0.000000 1.000000
0.560316 0.000000 0.996686
0.704383 0.000000 0.980166
0.849594 0.000000 0.964354
0.995918 0.000000 0.949216
0.000000 0.103366 1.000000
0.000000 0.088547 1.000000
0.086996 0.074809 0.990587
0.231484 0.062114 0.974329
0.377103 0.050426 0.958766
0.523824 0.039715 0.943867
0.671618 0.029953 0.929605
0.820460 0.021115 0.915955
0.970328 0.013178 0.902893
0.000000 0.213993 0.968584
0.000000 0.202665 0.953267
0.051873 0.192302 0.938603
0.200051 0.182880 0.924566
0.349269 0.174372 0.911132
0.499504 0.166758 0.898279
0.650736 0.160016 0.885986
0.802946 0.154128 0.874234
0.956116 0.149075 0.863005
0.000000 0.335928 0.919607
0.000000 0.327748 0.906387
0.028813 0.320453 0.893740
0.180403 0.314024 0.881646
0.332964 0.308442 0.870086
0.486479 0.303690 0.859043
0.640933 0.299752 0.848502
0.796309 0.296612 0.838448
0.952594 0.294258 0.828865
0.000000 0.468145 0.877376
0.000000 0.462867 0.866007
0.016967 0.458413 0.855149
0.171758 0.454767 0.844786
0.327467 0.451915 0.834905
0.484080 0.449843 0.825492
0.641584 0.448538 0.816532
0.799967 0.447988 0.808016
0.959218 0.448181 0.799930
0.000000 0.609888 0.841134
0.000000 0.607321 0.831425
0.015684 0.605530 0.822178
0.173510 0.604501 0.813381
0.332210 0.604222 0.805022
0.491774 0.604683 0.797090
0.652190 0.605872 0.789574
0.813448 0.607779 0.782464
0.975539 0.610395 0.775749
0.000000 0.760563 0.810288
0.000000 0.760555 0.802086
0.024442 0.761282 0.794306
0.185166 0.762734 0.786939
0.346729 0.764900 0.779974
0.509121 0.767771 0.773401
0.672332 0.771338 0.767211
0.836355 0.775592 0.761396
1.000000 0.780525 0.755947
0.000000 0.919690 0.784357
0.000000 0.922114 0.777536
0.042811 0.925240 0.771104
0.206319 0.929058 0.765051
0.370635 0.933560 0.759370
0.535751 0.938738 0.754053
0.701659 0.944583 0.749090
0.868352 0.951089 0.744475
1.000000 0.958247 0.740201
