asset_packs/artwork_gold_straw/mood/grade_33.cube
TITLE "artwork_gold_straw mood grade"
# Generated by construction_code_v2/gen_asset_packs.py. Domain: display-referred sRGB in, sRGB out.
LUT_3D_SIZE 5
DOMAIN_MIN 0.0 0.0 0.0
DOMAIN_MAX 1.0 1.0 1.0
0.009213 0.000000 0.000000
0.263380 0.000000 0.000000
0.527059 0.000000 0.000000
0.797668 0.000000 0.000000
1.000000 0.000000 0.000000
0.000000 0.149468 0.000000
0.124957 0.114679 0.000000
0.408643 0.084549 0.000000
0.697110 0.058703 0.000000
0.990072 0.036855 0.000000
0.000000 0.362799 0.000000
0.046529 0.342348 0.000000
0.345261 0.325593 0.000000
0.648011 0.312358 0.000000
0.954626 0.302493 0.000000
0.000000 0.620884 0.000000
0.015918 0.612212 0.000000
0.327600 0.606736 0.000000
0.642865 0.604346 0.000000
0.961617 0.604946 0.000000
0.000000 0.916723 0.000000
0.027242 0.918390 0.000000
0.350610 0.922929 0.000000
0.677271 0.930264 0.000000
1.000000 0.940326 0.000000
0.000000 0.000000 0.287268
0.245928 0.000000 0.232740
0.512118 0.000000 0.184657
0.784825 0.000000 0.141344
1.000000 0.000000 0.101977
0.000000 0.137103 0.126587
0.114615 0.103946 0.088516
0.399961 0.075307 0.053713
0.689983 0.050848 0.021840
0.984417 0.030303 0.000000
0.000000 0.355427 0.010909
0.041393 0.336253 0.000000
0.341508 0.320712 0.000000
0.645586 0.308637 0.000000
0.953483 0.299885 0.000000
0.000000 0.617573 0.000000
0.015231 0.610000 0.000000
0.328142 0.605583 0.000000
0.644602 0.604219 0.000000
0.964518 0.605814 0.000000
0.000000 0.916962 0.000000
0.030559 0.919613 0.000000
0.355054 0.925110 0.000000
0.682817 0.933378 0.000000
1.000000 0.944351 0.000000
0.000000 0.000000 0.580333
0.229397 0.000000 0.528302
0.497924 0.000000 0.481963
0.772637 0.000000 0.440063
1.000000 0.000000 0.401907
0.000000 0.125310 0.425766
0.104850 0.093732 0.388849
0.391818 0.066546 0.355075
0.683365 0.043443 0.324133
0.979247 0.024178 0.295779
0.000000 0.348496 0.313522
0.036732 0.330577 0.286058
0.338211 0.316230 0.260918
0.643601 0.305299 0.237943
0.952767 0.297647 0.216997
0.000000 0.614640 0.230089
0.014967 0.608151 0.209851
0.329094 0.604783 0.191483
0.646737 0.604434 0.174885
0.967807 0.607014 0.159966
0.000000 0.917538 0.169264
0.034261 0.921164 0.154936
0.359874 0.927610 0.142177
0.688732 0.936805 0.130917
1.000000 0.948682 0.121090
0.000000 0.000000 0.874397
0.213711 0.000000 0.824508
0.484439 0.000000 0.779777
0.761080 0.000000 0.739212
1.000000 0.000000 0.702213
0.000000 0.114071 0.725354
0.095648 0.084024 0.689544
0.384202 0.058256 0.656762
0.677246 0.036481 0.626724
0.974552 0.018472 0.599202
0.000000 0.341999 0.616424
0.032541 0.325312 0.589768
0.335365 0.312142 0.565380
0.642051 0.302339 0.543108
0.952472 0.295772 0.522823
0.000000 0.612080 0.535499
0.015119 0.606663 0.515909
0.330451 0.604330 0.498153
0.649268 0.604986 0.482134
0.971482 0.608542 0.467767
0.000000 0.918449 0.476717
0.038346 0.923041 0.462930
0.365069 0.930428 0.450689
0.695013 0.940541 0.439922
1.000000 0.953314 0.430567
0.000000 0.000000 1.000000
0.198813 0.000000 1.000000
0.471633 0.000000 1.000000
0.750134 0.000000 1.000000
1.000000 0.000000 1.000000
0.000000 0.103366 1.000000
0.086996 0.074809 0.990587
0.377103 0.050426 0.958766
0.671618 0.029953 0.929605
0.970328 0.013178 0.902893
0.000000 0.335928 0.919607
0.028813 0.320453 0.893740
0.332964 0.308442 0.870086
0.640933 0.299752 0.848502
0.952594 0.294258 0.828865
0.000000 0.609888 0.841134
0.015684 0.605530 0.822178
0.332210 0.604222 0.805022
0.652190 0.605872 0.789574
0.975539 0.610395 0.775749
0.000000 0.919690 0.784357
0.042811 0.925240 0.771104
0.370635 0.933560 0.759370
0.701659 0.944583 0.749090
1.000000 0.958247 0.740201
