asset_packs/artwork_teal_straw_relief/mood/grade_33.cube
TITLE "artwork_teal_straw_relief mood grade"
# Generated by construction_code_v2/gen_asset_packs.py. Domain: display-referred sRGB in, sRGB out.
LUT_3D_SIZE 5
DOMAIN_MIN 0.0 0.0 0.0
DOMAIN_MAX 1.0 1.0 1.0
0.011527 0.000000 0.000000
0.221397 0.000000 0.000000
0.441364 0.000000 0.000000
0.667666 0.000000 0.000000
0.899011 0.000000 0.000000
0.000000 0.149950 0.000000
0.140376 0.133283 0.000000
0.377469 0.120695 0.000000
0.618239 0.111752 0.000000
0.862364 0.106133 0.000000
0.000000 0.360211 0.000000
0.108064 0.355737 0.000000
0.356370 0.354255 0.000000
0.607510 0.355576 0.000000
0.861327 0.359542 0.000000
0.000000 0.607596 0.000000
0.110410 0.612490 0.000000
0.367661 0.619848 0.000000
0.627298 0.629559 0.000000
0.889220 0.641525 0.000000
0.000000 0.884535 0.000000
0.141168 0.897300 0.000000
0.406071 0.912203 0.000000
0.673069 0.929170 0.000000
0.942093 0.948132 0.000000
0.000000 0.000000 0.224859
0.210064 0.000000 0.190157
0.432391 0.000000 0.162964
0.660512 0.000000 0.140994
0.893387 0.000000 0.123208
0.000000 0.143799 0.134073
0.135259 0.128575 0.117641
0.373643 0.117267 0.104585
0.615584 0.109485 0.094517
0.860789 0.104934 0.087141
0.000000 0.358343 0.091534
0.106863 0.354908 0.085078
0.356151 0.354398 0.081007
0.608216 0.356634 0.079144
0.862909 0.361465 0.079337
0.000000 0.608974 0.078983
0.112301 0.614718 0.079893
0.370374 0.622887 0.082689
0.630798 0.633375 0.087264
0.893476 0.646086 0.093524
0.000000 0.888625 0.089352
0.145692 0.902125 0.096205
0.411315 0.917737 0.104631
0.679008 0.935389 0.114558
0.948707 0.955015 0.125919
0.000000 0.000000 0.462825
0.199624 0.000000 0.431116
0.424078 0.000000 0.405857
0.653903 0.000000 0.385397
0.888237 0.000000 0.368876
0.000000 0.138161 0.378960
0.130596 0.124318 0.363725
0.370226 0.114245 0.351722
0.613306 0.107590 0.342598
0.859563 0.104081 0.336081
0.000000 0.356836 0.339936
0.106002 0.354416 0.334312
0.356252 0.354857 0.331010
0.609225 0.357990 0.329861
0.864780 0.363674 0.330723
0.000000 0.610646 0.329948
0.114476 0.617226 0.331511
0.373358 0.626194 0.334923
0.634558 0.637447 0.340080
0.897983 0.650894 0.346894
0.000000 0.892968 0.342373
0.150464 0.907194 0.349769
0.416798 0.923507 0.358712
0.685179 0.941836 0.369133
0.955545 0.962118 0.380968
0.000000 0.000000 0.702032
0.189974 0.000000 0.672799
0.416380 0.000000 0.649298
0.647812 0.000000 0.630251
0.883542 0.000000 0.614933
0.000000 0.133010 0.624272
0.126371 0.120494 0.610182
0.367207 0.111617 0.599191
0.611393 0.106057 0.590979
0.858678 0.103566 0.585296
0.000000 0.355682 0.588629
0.105474 0.354254 0.583814
0.356666 0.355627 0.581261
0.610532 0.359641 0.580809
0.866935 0.366161 0.582326
0.000000 0.612606 0.581140
0.116929 0.620009 0.583343
0.376610 0.629764 0.587358
0.638574 0.641772 0.593088
0.902737 0.655946 0.600444
0.000000 0.897560 0.595582
0.155480 0.912503 0.603511
0.422517 0.929508 0.612964
0.691579 0.948508 0.623872
0.962605 0.969439 0.636173
0.000000 0.000000 0.942212
0.181039 0.000000 0.915132
0.409257 0.000000 0.893248
0.642215 0.000000 0.875534
0.879286 0.000000 0.861363
0.000000 0.128328 0.869991
0.122568 0.117089 0.856994
0.364573 0.109370 0.846979
0.609837 0.104878 0.839652
0.858126 0.103380 0.834780
0.000000 0.354872 0.837605
0.105273 0.354415 0.833577
0.357389 0.356701 0.831754
0.612131 0.361580 0.831985
0.869369 0.368925 0.834142
0.000000 0.614850 0.832553
0.119658 0.623064 0.835384
0.380124 0.633594 0.839991
0.642845 0.646346 0.846283
0.907736 0.661238 0.854174
0.000000 0.902399 0.848974
0.160737 0.918051 0.857429
0.428469 0.935740 0.867383
0.698205 0.955402 0.878771
0.969885 0.976977 0.891533
