asset_packs/artwork_teal_straw_relief/mood/grade_33.cube
TITLE "artwork_teal_straw_relief mood grade"
# Generated by construction_code_v2/gen_asset_packs.py. Domain: display-referred sRGB in, sRGB out.
LUT_3D_SIZE 9
DOMAIN_MIN 0.0 0.0 0.0
DOMAIN_MAX 1.0 1.0 1.0
0.011527 0.000000 0.000000
0.114628 0.000000 0.000000
0.221397 0.000000 0.000000
0.330466 0.000000 0.000000
0.441364 0.000000 0.000000
0.553823 0.000000 0.000000
0.667666 0.000000 0.000000
0.782762 0.000000 0.000000
0.899011 0.000000 0.000000
0.000000 0.063654 0.000000
0.060157 0.050350 0.000000
0.173137 0.038528 0.000000
0.287449 0.028030 0.000000
0.402975 0.018738 0.000000
0.519624 0.010561 0.000000
0.637321 0.003424 0.000000
0.756005 0.000000 0.000000
0.875624 0.000000 0.000000
0.000000 0.149950 0.000000
0.023337 0.141074 0.000000
0.140376 0.133283 0.000000
0.258439 0.126509 0.000000
0.377469 0.120695 0.000000
0.497416 0.115790 0.000000
0.618239 0.111752 0.000000
0.739899 0.108544 0.000000
0.862364 0.106133 0.000000
0.000000 0.249722 0.000000
0.000000 0.244244 0.000000
0.119324 0.239659 0.000000
0.240456 0.235927 0.000000
0.362413 0.233013 0.000000
0.485164 0.230885 0.000000
0.608679 0.229513 0.000000
0.732934 0.228873 0.000000
0.857905 0.228942 0.000000
0.000000 0.360211 0.000000
0.000000 0.357586 0.000000
0.108064 0.355737 0.000000
0.231852 0.354634 0.000000
0.356370 0.354255 0.000000
0.481596 0.354576 0.000000
0.607510 0.355576 0.000000
0.734093 0.357237 0.000000
0.861327 0.359542 0.000000
0.000000 0.479851 0.000000
0.000000 0.479729 0.000000
0.105379 0.480300 0.000000
0.231538 0.481543 0.000000
0.358360 0.483440 0.000000
0.485826 0.485975 0.000000
0.613922 0.489131 0.000000
0.742632 0.492893 0.000000
0.871943 0.497248 0.000000
0.000000 0.607596 0.000000
0.000000 0.609728 0.000000
0.110410 0.612490 0.000000
0.238731 0.615868 0.000000
0.367661 0.619848 0.000000
0.497188 0.624416 0.000000
0.627298 0.629559 0.000000
0.757979 0.635266 0.000000
0.889220 0.641525 0.000000
0.000000 0.742686 0.000000
0.000000 0.746881 0.000000
0.122509 0.751660 0.000000
0.252828 0.757010 0.000000
0.383715 0.762919 0.000000
0.515158 0.769377 0.000000
0.647147 0.776373 0.000000
0.779672 0.783897 0.000000
0.912723 0.791940 0.000000
0.000000 0.884535 0.000000
0.009525 0.890645 0.000000
0.141168 0.897300 0.000000
0.273353 0.904489 0.000000
0.406071 0.912203 0.000000
0.539312 0.920433 0.000000
0.673069 0.929170 0.000000
0.807332 0.938406 0.000000
0.942093 0.948132 0.000000
0.003292 0.000000 0.106514
0.107984 0.000000 0.086852
0.215611 0.000000 0.069980
0.325339 0.000000 0.055068
0.436792 0.000000 0.041738
0.549738 0.000000 0.029758
0.664019 0.000000 0.018971
0.779516 0.000000 0.009257
0.896139 0.000000 0.000526
0.000000 0.058958 0.050046
0.055768 0.046179 0.037229
0.169216 0.034821 0.025700
0.283952 0.024744 0.015315
0.399869 0.015840 0.005969
0.516881 0.008024 0.000000
0.634920 0.001226 0.000000
0.753927 0.000000 0.000000
0.873852 0.000000 0.000000
0.000000 0.146809 0.011797
0.020366 0.138310 0.002807
0.137759 0.130872 0.000000
0.256157 0.124430 0.000000
0.375504 0.118929 0.000000
0.495753 0.114323 0.000000
0.616864 0.110571 0.000000
0.738801 0.107638 0.000000
0.861533 0.105490 0.000000
0.000000 0.247758 0.000000
0.000000 0.242589 0.000000
0.117768 0.238298 0.000000
0.239183 0.234848 0.000000
0.361413 0.232204 0.000000
0.484426 0.230335 0.000000
0.608196 0.229215 0.000000
0.732696 0.228818 0.000000
0.857906 0.229122 0.000000
0.000000 0.359231 0.000000
0.000000 0.356873 0.000000
0.107420 0.355280 0.000000
0.231459 0.354426 0.000000
0.356220 0.354286 0.000000
0.481682 0.354840 0.000000
0.607825 0.356067 0.000000
0.734631 0.357949 0.000000
0.862082 0.360468 0.000000
0.000000 0.479731 0.000000
0.000000 0.479846 0.000000
0.105549 0.480647 0.000000
0.231935 0.482115 0.000000
0.358977 0.484230 0.000000
0.486659 0.486978 0.000000
0.614965 0.490341 0.000000
0.743881 0.494306 0.000000
0.873393 0.498860 0.000000
0.000000 0.608248 0.000000
0.000000 0.610596 0.000000
0.111320 0.613569 0.000000
0.239849 0.617153 0.000000
0.368984 0.621334 0.000000
0.498710 0.626099 0.000000
0.629015 0.631435 0.000000
0.759887 0.637330 0.000000
0.891317 0.643775 0.000000
0.000000 0.744044 0.000000
0.000000 0.748439 0.000000
0.124103 0.753413 0.000000
0.254616 0.758955 0.000000
0.385693 0.765051 0.000000
0.517322 0.771693 0.000000
0.649494 0.778869 0.000000
0.782199 0.786571 0.000000
0.915428 0.794788 0.000000
0.000000 0.886548 0.000000
0.011571 0.892844 0.000000
0.143399 0.899682 0.000000
0.275766 0.907050 0.000000
0.408663 0.914941 0.000000
0.542080 0.923344 0.000000
0.676009 0.932251 0.000000
0.810443 0.941654 0.000000
0.945372 0.951546 0.000000
0.000000 0.000000 0.224859
0.101665 0.000000 0.206305
0.210064 0.000000 0.190157
0.320410 0.000000 0.175815
0.432391 0.000000 0.162964
0.545806 0.000000 0.151405
0.660512 0.000000 0.140994
0.776401 0.000000 0.131624
0.893387 0.000000 0.123208
0.000000 0.054448 0.170976
0.051544 0.042170 0.158615
0.165443 0.031262 0.147488
0.280591 0.021594 0.137467
0.396888 0.013068 0.128453
0.514256 0.005604 0.120367
0.632630 0.000000 0.113144
0.751954 0.000000 0.106729
0.872182 0.000000 0.101075
0.000000 0.143799 0.134073
0.017518 0.135669 0.125406
0.135259 0.128575 0.117641
0.253984 0.122459 0.110718
0.373643 0.117267 0.104585
0.494189 0.112955 0.099198
0.615584 0.109485 0.094517
0.737795 0.106822 0.090508
0.860789 0.104934 0.087141
0.000000 0.245901 0.108396
0.000000 0.241035 0.102540
0.116308 0.237034 0.097414
0.238004 0.233861 0.092982
0.360503 0.231484 0.089210
0.483776 0.229872 0.086069
0.607797 0.229000 0.083534
0.732541 0.228844 0.081579
0.857986 0.229381 0.080183
0.000000 0.358343 0.091534
0.000000 0.356247 0.087995
0.106863 0.354908 0.085078
0.231149 0.354299 0.082756
0.356151 0.354398 0.081007
0.481846 0.355182 0.079809
0.608216 0.356634 0.079144
0.735243 0.358733 0.078992
0.862909 0.361465 0.079337
0.000000 0.479692 0.082054
0.000000 0.480042 0.080508
0.105796 0.481072 0.079506
0.232407 0.482761 0.079030
0.359669 0.485093 0.079061
0.487564 0.488051 0.079584
0.616079 0.491621 0.080583
0.745199 0.495787 0.082044
0.874910 0.500538 0.083955
0.000000 0.608974 0.078983
0.000000 0.611536 0.079195
0.112301 0.614718 0.079893
0.241038 0.618507 0.081062
0.370374 0.622887 0.082689
0.500298 0.627847 0.084760
0.630798 0.633375 0.087264
0.761860 0.639458 0.090189
0.893476 0.646086 0.093524
0.000000 0.745471 0.081602
0.000000 0.750064 0.083392
0.125763 0.755232 0.085622
0.256468 0.760963 0.088280
0.387734 0.767246 0.091356
0.519549 0.774070 0.094838
0.651903 0.781426 0.098717
0.784787 0.789304 0.102984
0.918191 0.797694 0.107628
0.000000 0.888625 0.089352
0.013680 0.895106 0.092577
0.145692 0.902125 0.096205
0.278240 0.909672 0.100226
0.411315 0.917737 0.104631
0.544907 0.926312 0.109411
0.679008 0.935389 0.114558
0.813611 0.944959 0.120063
0.948707 0.955015 0.125919
0.000000 0.000000 0.343661
0.095633 0.000000 0.326029
0.204739 0.000000 0.310541
0.315669 0.000000 0.296733
0.428155 0.000000 0.284339
0.542023 0.000000 0.273184
0.657141 0.000000 0.263137
0.773411 0.000000 0.254100
0.890754 0.000000 0.245992
0.000000 0.050115 0.292067
0.047478 0.038319 0.280142
0.161814 0.027845 0.269404
0.277362 0.018574 0.259735
0.394031 0.010417 0.251044
0.511748 0.003299 0.243258
0.630450 0.000000 0.236315
0.750086 0.000000 0.230164
0.870611 0.000000 0.224759
0.000000 0.140917 0.256462
0.014790 0.133147 0.248108
0.132872 0.126391 0.240636
0.251920 0.120594 0.233987
0.371884 0.115706 0.228112
0.492723 0.111684 0.222968
0.614399 0.108492 0.218519
0.736878 0.106095 0.214732
0.860133 0.104465 0.211576
0.000000 0.244149 0.231760
0.000000 0.239581 0.226156
0.114946 0.235865 0.221270
0.236918 0.232966 0.217066
0.359683 0.230852 0.213511
0.483213 0.229494 0.210579
0.607481 0.228868 0.208243
0.732466 0.228950 0.206481
0.858144 0.229718 0.205270
0.000000 0.357545 0.215698
0.000000 0.355709 0.212373
0.106390 0.354621 0.209661
0.230922 0.354254 0.207536
0.356162 0.354588 0.205977
0.482088 0.355601 0.204962
0.608683 0.357275 0.204473
0.735929 0.359591 0.204492
0.863809 0.362534 0.205003
0.000000 0.479734 0.206904
0.000000 0.480317 0.205545
0.106121 0.481573 0.204724
0.232955 0.483482 0.204422
0.360433 0.486028 0.204622
0.488541 0.489196 0.205308
0.617262 0.492970 0.206465
0.746584 0.497336 0.208081
0.876494 0.502282 0.210142
0.000000 0.609774 0.204437
0.000000 0.612548 0.204816
0.113353 0.615938 0.205675
0.242295 0.619929 0.207001
0.371833 0.624508 0.208780
0.501953 0.629662 0.211000
0.632645 0.635379 0.213648
0.763897 0.641648 0.216714
0.895699 0.648460 0.220186
0.000000 0.746966 0.207597
0.000000 0.751755 0.209538
0.127488 0.757116 0.211915
0.258385 0.763036 0.214716
0.389839 0.769504 0.217931
0.521838 0.776509 0.221549
0.654373 0.784043 0.225561
0.787434 0.792096 0.229956
0.921014 0.800659 0.234727
0.000000 0.890765 0.215839
0.015852 0.897430 0.219202
0.148047 0.904629 0.222965
0.280775 0.912353 0.227117
0.414027 0.920593 0.231650
0.547793 0.929339 0.236556
0.682065 0.938584 0.241825
0.816836 0.948320 0.247450
0.952098 0.958539 0.253424
0.000000 0.000000 0.462825
0.089860 0.000000 0.445996
0.199624 0.000000 0.431116
0.311106 0.000000 0.417813
0.424078 0.000000 0.405857
0.538383 0.000000 0.395091
0.653903 0.000000 0.385397
0.770546 0.000000 0.376683
0.888237 0.000000 0.368876
0.000000 0.045952 0.413313
0.043566 0.034620 0.401806
0.158325 0.024566 0.391443
0.274263 0.015683 0.382115
0.391295 0.007887 0.373739
0.509353 0.001107 0.366246
0.628377 0.000000 0.359577
0.748320 0.000000 0.353684
0.869138 0.000000 0.348523
0.000000 0.138161 0.378960
0.012180 0.130742 0.370912
0.130596 0.124318 0.363725
0.249960 0.118834 0.357344
0.370226 0.114245 0.351722
0.491353 0.110509 0.346819
0.613306 0.107590 0.342598
0.736052 0.105457 0.339028
0.859563 0.104081 0.336081
0.000000 0.242500 0.355212
0.000000 0.238225 0.349856
0.113678 0.234791 0.345205
0.235923 0.232161 0.341225
0.358951 0.230307 0.337885
0.482734 0.229201 0.335158
0.607248 0.228817 0.333019
0.732471 0.229134 0.331446
0.858381 0.230131 0.330418
0.000000 0.356836 0.339936
0.000000 0.355257 0.336822
0.106002 0.354416 0.334312
0.230776 0.354290 0.332382
0.356252 0.354857 0.331010
0.482407 0.356097 0.330175
0.609225 0.357990 0.329861
0.736688 0.360521 0.330048
0.864780 0.363674 0.330723
0.000000 0.479855 0.331819
0.000000 0.480669 0.330645
0.106522 0.482149 0.330002
0.233576 0.484276 0.329872
0.361270 0.487035 0.330238
0.489588 0.490410 0.331086
0.618515 0.494387 0.332401
0.748038 0.498951 0.334169
0.878145 0.504091 0.336378
0.000000 0.610646 0.329948
0.000000 0.613631 0.330492
0.114476 0.617226 0.331511
0.243622 0.621418 0.332993
0.373358 0.626194 0.334923
0.503674 0.631541 0.337289
0.634558 0.637447 0.340080
0.765997 0.643901 0.343285
0.897983 0.650894 0.346894
0.000000 0.748528 0.333644
0.000000 0.753512 0.335734
0.129279 0.759064 0.338257
0.260366 0.765171 0.341200
0.392006 0.771823 0.344553
0.524188 0.779009 0.348305
0.656903 0.786720 0.352448
0.790142 0.794948 0.356972
0.923895 0.803682 0.361869
0.000000 0.892968 0.342373
0.018087 0.899815 0.345873
0.150464 0.907194 0.349769
0.283371 0.915094 0.354052
0.416798 0.923507 0.358712
0.550737 0.932423 0.363742
0.685179 0.941836 0.369133
0.820118 0.951736 0.374878
0.955545 0.962118 0.380968
0.000000 0.000000 0.582294
0.084326 0.000000 0.566185
0.194705 0.000000 0.551873
0.306715 0.000000 0.539048
0.420155 0.000000 0.527511
0.534884 0.000000 0.517121
0.650794 0.000000 0.507769
0.767801 0.000000 0.499371
0.885834 0.000000 0.491857
0.000000 0.041953 0.534707
0.039801 0.031069 0.523602
0.154971 0.021423 0.513601
0.271289 0.012918 0.504605
0.388677 0.005474 0.496536
0.507069 0.000000 0.489329
0.626410 0.000000 0.482929
0.746655 0.000000 0.477289
0.867761 0.000000 0.472368
0.000000 0.135526 0.501564
0.009686 0.128451 0.493816
0.128430 0.122353 0.486908
0.248105 0.117178 0.480790
0.368668 0.112882 0.475416
0.490079 0.109427 0.470748
0.612304 0.106779 0.466752
0.735313 0.104906 0.463397
0.859078 0.103782 0.460655
0.000000 0.240952 0.478749
0.000000 0.236967 0.473637
0.112504 0.233809 0.469217
0.235018 0.231446 0.465458
0.358305 0.229849 0.462329
0.482340 0.228991 0.459804
0.607097 0.228848 0.457860
0.732555 0.229398 0.456474
0.858694 0.230621 0.455627
0.000000 0.356215 0.464247
0.000000 0.354890 0.461341
0.105697 0.354295 0.459030
0.230712 0.354406 0.457292
0.356420 0.355204 0.456105
0.482803 0.356667 0.455449
0.609841 0.358779 0.455306
0.737520 0.361523 0.455661
0.865822 0.364883 0.456497
0.000000 0.480056 0.456797
0.000000 0.481098 0.455805
0.106998 0.482799 0.455338
0.234272 0.485143 0.455379
0.362179 0.488113 0.455911
0.490705 0.491694 0.456918
0.619836 0.495871 0.458389
0.749559 0.500633 0.460308
0.879861 0.505966 0.462664
0.000000 0.611590 0.455516
0.000000 0.614784 0.456223
0.115668 0.618584 0.457401
0.245016 0.622975 0.459036
0.374951 0.627946 0.461116
0.505461 0.633484 0.463627
0.636534 0.639578 0.466560
0.768160 0.646216 0.469903
0.900329 0.653390 0.473646
0.000000 0.750156 0.459742
0.000419 0.755335 0.461981
0.131135 0.761076 0.464647
0.262411 0.767370 0.467730
0.394236 0.774204 0.471220
0.526600 0.781570 0.475107
0.659494 0.789457 0.479380
0.792909 0.797857 0.484031
0.926835 0.806762 0.489052
0.000000 0.895233 0.468954
0.020384 0.902262 0.472590
0.152942 0.909819 0.476618
0.286026 0.917894 0.481030
0.419628 0.926479 0.485817
0.553739 0.935565 0.490970
0.688351 0.945144 0.496482
0.823456 0.955208 0.502345
0.959048 0.965751 0.508551
0.000000 0.000000 0.702032
0.079013 0.000000 0.686579
0.189974 0.000000 0.672799
0.302488 0.000000 0.660431
0.416380 0.000000 0.649298
0.531521 0.000000 0.639271
0.647812 0.000000 0.630251
0.765174 0.000000 0.622161
0.883542 0.000000 0.614933
0.000000 0.038110 0.656242
0.036180 0.027659 0.645525
0.151750 0.018411 0.635875
0.268439 0.010274 0.627202
0.386175 0.003175 0.619432
0.504895 0.000000 0.612505
0.624548 0.000000 0.606368
0.745089 0.000000 0.600976
0.866480 0.000000 0.596292
0.000000 0.133010 0.624272
0.007305 0.126274 0.616816
0.126371 0.120494 0.610182
0.246352 0.115622 0.604321
0.367207 0.111617 0.599191
0.488898 0.108439 0.594755
0.611393 0.106057 0.590979
0.734662 0.104442 0.587835
0.858678 0.103566 0.585296
0.000000 0.239503 0.602371
0.000000 0.235803 0.597497
0.111423 0.232919 0.593305
0.234203 0.230819 0.589763
0.357746 0.229476 0.586842
0.482029 0.228863 0.584517
0.607026 0.228958 0.582765
0.732718 0.229739 0.581565
0.859084 0.231186 0.580896
0.000000 0.355682 0.588629
0.000000 0.354607 0.585928
0.105474 0.354254 0.583814
0.230727 0.354601 0.582265
0.356666 0.355627 0.581261
0.483274 0.357313 0.580781
0.610532 0.359641 0.580809
0.738424 0.362596 0.581329
0.866935 0.366161 0.582326
0.000000 0.480334 0.581838
0.000000 0.481603 0.581026
0.107550 0.483524 0.580733
0.235040 0.486082 0.580943
0.363159 0.489261 0.581638
0.491892 0.493046 0.582804
0.621226 0.497424 0.584428
0.751146 0.502380 0.586497
0.881642 0.507905 0.588998
0.000000 0.612606 0.581140
0.000000 0.616007 0.582008
0.116929 0.620009 0.583343
0.246478 0.624599 0.585131
0.376610 0.629764 0.587358
0.507312 0.635492 0.590014
0.638574 0.641772 0.593088
0.770386 0.648593 0.596568
0.902737 0.655946 0.600444
0.000000 0.751851 0.585891
0.002148 0.757222 0.588276
0.133056 0.763152 0.591085
0.264519 0.769630 0.594308
0.396529 0.776646 0.597934
0.529074 0.784190 0.601952
0.662145 0.792253 0.606355
0.795734 0.800825 0.611133
0.929833 0.809899 0.616278
0.000000 0.897560 0.595582
0.022742 0.904770 0.599352
0.155480 0.912503 0.603511
0.288741 0.920753 0.608052
0.422517 0.929508 0.612964
0.556799 0.938763 0.618240
0.691579 0.948508 0.623872
0.826850 0.958736 0.629852
0.962605 0.969439 0.636173
0.000000 0.000000 0.822012
0.073909 0.000000 0.807165
0.185421 0.000000 0.793888
0.298420 0.000000 0.781956
0.412748 0.000000 0.771211
0.528290 0.000000 0.761536
0.644953 0.000000 0.752841
0.762663 0.000000 0.745050
0.881360 0.000000 0.738102
0.000000 0.034420 0.777914
0.032698 0.024389 0.767570
0.148657 0.015527 0.758262
0.265709 0.007750 0.749903
0.383786 0.000989 0.742426
0.502828 0.000000 0.735772
0.622787 0.000000 0.729893
0.743621 0.000000 0.724745
0.865293 0.000000 0.720293
0.000000 0.130612 0.747082
0.005036 0.124206 0.739911
0.124417 0.118740 0.733544
0.244700 0.114167 0.727936
0.365843 0.110446 0.723046
0.487810 0.107543 0.718837
0.610571 0.105424 0.715280
0.734096 0.104063 0.712344
0.858361 0.103432 0.710005
0.000000 0.238153 0.726075
0.000000 0.234734 0.721436
0.110433 0.232120 0.717468
0.233475 0.230280 0.714140
0.357272 0.229187 0.711425
0.481800 0.228817 0.709297
0.607036 0.229147 0.707734
0.732959 0.230156 0.706716
0.859550 0.231826 0.706224
0.000000 0.355234 0.713082
0.000000 0.354407 0.710583
0.105333 0.354295 0.708664
0.230821 0.354874 0.707302
0.356990 0.356126 0.706477
0.483820 0.358032 0.706172
0.611295 0.360575 0.706369
0.739399 0.363739 0.707052
0.868117 0.367509 0.708208
0.000000 0.480691 0.706940
0.000000 0.482183 0.706307
0.108175 0.484322 0.706186
0.235881 0.487093 0.706562
0.364210 0.490479 0.707419
0.493149 0.494467 0.708743
0.622683 0.499043 0.710519
0.752800 0.504193 0.712736
0.883489 0.509908 0.715382
0.000000 0.613693 0.706819
0.000000 0.617300 0.707848
0.118259 0.621503 0.709337
0.248007 0.626289 0.711276
0.378334 0.631647 0.713650
0.509228 0.637563 0.716449
0.640678 0.644028 0.719662
0.772674 0.651031 0.723278
0.905206 0.658562 0.727287
0.000000 0.753612 0.712090
0.003943 0.759174 0.714621
0.135041 0.765291 0.717572
0.266691 0.771953 0.720932
0.398883 0.779150 0.724692
0.531608 0.786871 0.728843
0.664856 0.795107 0.733374
0.798619 0.803851 0.738277
0.932889 0.813093 0.743544
0.000000 0.899949 0.722255
0.025162 0.907338 0.726159
0.158079 0.915247 0.730449
0.291515 0.923670 0.735116
0.425464 0.932596 0.740153
0.559916 0.942018 0.745551
0.694864 0.951927 0.751302
0.830300 0.962318 0.757398
0.966218 0.973181 0.763834
0.000000 0.000000 0.942212
0.069001 0.000000 0.927931
0.181039 0.000000 0.915132
0.294504 0.000000 0.903618
0.409257 0.000000 0.893248
0.525188 0.000000 0.883915
0.642215 0.000000 0.875534
0.760266 0.000000 0.868036
0.879286 0.000000 0.861363
0.000000 0.030876 0.899717
0.029352 0.021253 0.889735
0.145691 0.012768 0.880758
0.263098 0.005343 0.872705
0.381508 0.000000 0.865514
0.500867 0.000000 0.859128
0.621128 0.000000 0.853502
0.742250 0.000000 0.848595
0.864198 0.000000 0.844370
0.000000 0.128328 0.869991
0.002875 0.122247 0.863098
0.122568 0.117089 0.856994
0.243147 0.112810 0.851634
0.364573 0.109370 0.846979
0.486814 0.106737 0.842995
0.609837 0.104878 0.839652
0.733616 0.103768 0.836922
0.858126 0.103380 0.834780
0.000000 0.236900 0.849860
0.000000 0.233757 0.845453
0.109533 0.231409 0.841705
0.232835 0.229826 0.838588
0.356883 0.228982 0.836075
0.481653 0.228852 0.834141
0.607124 0.229414 0.832766
0.733276 0.230650 0.831929
0.860091 0.232540 0.831611
0.000000 0.354872 0.837605
0.000000 0.354290 0.835305
0.105273 0.354415 0.833577
0.230994 0.355225 0.832400
0.357389 0.356701 0.831754
0.484440 0.358825 0.831621
0.612131 0.361580 0.831985
0.740445 0.364952 0.832830
0.869369 0.368925 0.834142
0.000000 0.481124 0.832104
0.000000 0.482838 0.831647
0.108875 0.485193 0.831697
0.236794 0.488175 0.832238
0.365332 0.491767 0.833254
0.494474 0.495956 0.834733
0.624208 0.500728 0.836661
0.754520 0.506071 0.839025
0.885400 0.511974 0.841813
0.000000 0.614850 0.832553
0.000000 0.618661 0.833740
0.119658 0.623064 0.835384
0.249603 0.628045 0.837471
0.380124 0.633594 0.839991
0.511208 0.639698 0.842932
0.642845 0.646346 0.846283
0.775024 0.653530 0.850033
0.907736 0.661238 0.854174
0.000000 0.755438 0.838339
0.005803 0.761190 0.841014
0.137089 0.767493 0.844105
0.268924 0.774338 0.847602
0.401298 0.781713 0.851496
0.534202 0.789610 0.855777
0.667626 0.798020 0.860435
0.801562 0.806934 0.865463
0.936002 0.816344 0.870852
0.000000 0.902399 0.848974
0.027643 0.909966 0.853010
0.160737 0.918051 0.857429
0.294349 0.926645 0.862223
0.428469 0.935740 0.867383
0.563091 0.945329 0.872902
0.698205 0.955402 0.878771
0.833806 0.965954 0.884984
0.969885 0.976977 0.891533
