asset_packs/artwork_teal_straw_relief/mood/grade_33.cube
TITLE "artwork_teal_straw_relief mood grade"
# Generated by construction_code_v2/gen_asset_packs.py. Domain: display-referred sRGB in, sRGB out.
LUT_3D_SIZE 33
DOMAIN_MIN 0.0 0.0 0.0
DOMAIN_MAX 1.0 1.0 1.0
0.011527 0.000000 0.000000
0.036726 0.000000 0.000000
0.062411 0.000000 0.000000
0.088399 0.000000 0.000000
0.114628 0.000000 0.000000
0.141063 0.000000 0.000000
0.167681 0.000000 0.000000
0.194463 0.000000 0.000000
0.221397 0.000000 0.000000
0.248473 0.000000 0.000000
0.275681 0.000000 0.000000
0.303014 0.000000 0.000000
0.330466 0.000000 0.000000
0.358032 0.000000 0.000000
0.385706 0.000000 0.000000
0.413485 0.000000 0.000000
0.441364 0.000000 0.000000
0.469340 0.000000 0.000000
0.497411 0.000000 0.000000
0.525573 0.000000 0.000000
0.553823 0.000000 0.000000
0.582160 0.000000 0.000000
0.610581 0.000000 0.000000
0.639083 0.000000 0.000000
0.667666 0.000000 0.000000
0.696327 0.000000 0.000000
0.725064 0.000000 0.000000
0.753876 0.000000 0.000000
0.782762 0.000000 0.000000
0.811719 0.000000 0.000000
0.840748 0.000000 0.000000
0.869845 0.000000 0.000000
0.899011 0.000000 0.000000
0.000000 0.011680 0.000000
0.018735 0.006795 0.000000
0.045239 0.002105 0.000000
0.071918 0.000000 0.000000
0.098757 0.000000 0.000000
0.125744 0.000000 0.000000
0.152869 0.000000 0.000000
0.180123 0.000000 0.000000
0.207500 0.000000 0.000000
0.234994 0.000000 0.000000
0.262600 0.000000 0.000000
0.290312 0.000000 0.000000
0.318128 0.000000 0.000000
0.346043 0.000000 0.000000
0.374054 0.000000 0.000000
0.402158 0.000000 0.000000
0.430353 0.000000 0.000000
0.458635 0.000000 0.000000
0.487002 0.000000 0.000000
0.515453 0.000000 0.000000
0.543985 0.000000 0.000000
0.572596 0.000000 0.000000
0.601285 0.000000 0.000000
0.630050 0.000000 0.000000
0.658889 0.000000 0.000000
0.687801 0.000000 0.000000
0.716784 0.000000 0.000000
0.745838 0.000000 0.000000
0.774961 0.000000 0.000000
0.804151 0.000000 0.000000
0.833408 0.000000 0.000000
0.862731 0.000000 0.000000
0.892118 0.000000 0.000000
0.000000 0.027347 0.000000
0.003071 0.023046 0.000000
0.030109 0.018889 0.000000
0.057281 0.014867 0.000000
0.084581 0.010970 0.000000
0.112001 0.007194 0.000000
0.139537 0.003532 0.000000
0.167182 0.000000 0.000000
0.194932 0.000000 0.000000
0.222785 0.000000 0.000000
0.250735 0.000000 0.000000
0.278780 0.000000 0.000000
0.306918 0.000000 0.000000
0.335144 0.000000 0.000000
0.363458 0.000000 0.000000
0.391856 0.000000 0.000000
0.420336 0.000000 0.000000
0.448897 0.000000 0.000000
0.477537 0.000000 0.000000
0.506254 0.000000 0.000000
0.535046 0.000000 0.000000
0.563911 0.000000 0.000000
0.592850 0.000000 0.000000
0.621859 0.000000 0.000000
0.650938 0.000000 0.000000
0.680085 0.000000 0.000000
0.709300 0.000000 0.000000
0.738581 0.000000 0.000000
0.767927 0.000000 0.000000
0.797338 0.000000 0.000000
0.826811 0.000000 0.000000
0.856347 0.000000 0.000000
0.885944 0.000000 0.000000
0.000000 0.044793 0.000000
0.000000 0.040941 0.000000
0.016518 0.037207 0.000000
0.044094 0.033586 0.000000
0.071778 0.030072 0.000000
0.099566 0.026662 0.000000
0.127454 0.023352 0.000000
0.155440 0.020138 0.000000
0.183519 0.017017 0.000000
0.211689 0.013987 0.000000
0.239947 0.011045 0.000000
0.268292 0.008188 0.000000
0.296720 0.005415 0.000000
0.325230 0.002723 0.000000
0.353820 0.000110 0.000000
0.382488 0.000000 0.000000
0.411232 0.000000 0.000000
0.440051 0.000000 0.000000
0.468944 0.000000 0.000000
0.497908 0.000000 0.000000
0.526942 0.000000 0.000000
0.556046 0.000000 0.000000
0.585219 0.000000 0.000000
0.614458 0.000000 0.000000
0.643763 0.000000 0.000000
0.673132 0.000000 0.000000
0.702566 0.000000 0.000000
0.732062 0.000000 0.000000
0.761620 0.000000 0.000000
0.791240 0.000000 0.000000
0.820920 0.000000 0.000000
0.850659 0.000000 0.000000
0.880456 0.000000 0.000000
0.000000 0.063654 0.000000
0.000000 0.060178 0.000000
0.004213 0.056805 0.000000
0.032137 0.053530 0.000000
0.060157 0.050350 0.000000
0.088269 0.047263 0.000000
0.116472 0.044265 0.000000
0.144762 0.041355 0.000000
0.173137 0.038528 0.000000
0.201595 0.035785 0.000000
0.230135 0.033122 0.000000
0.258753 0.030538 0.000000
0.287449 0.028030 0.000000
0.316221 0.025598 0.000000
0.345067 0.023240 0.000000
0.373985 0.020953 0.000000
0.402975 0.018738 0.000000
0.432035 0.016593 0.000000
0.461164 0.014515 0.000000
0.490361 0.012505 0.000000
0.519624 0.010561 0.000000
0.548953 0.008682 0.000000
0.578346 0.006867 0.000000
0.607802 0.005114 0.000000
0.637321 0.003424 0.000000
0.666902 0.001795 0.000000
0.696543 0.000226 0.000000
0.726245 0.000000 0.000000
0.756005 0.000000 0.000000
0.785824 0.000000 0.000000
0.815701 0.000000 0.000000
0.845634 0.000000 0.000000
0.875624 0.000000 0.000000
0.000000 0.083721 0.000000
0.000000 0.080575 0.000000
0.000000 0.077521 0.000000
0.021266 0.074555 0.000000
0.049587 0.071675 0.000000
0.077993 0.068880 0.000000
0.106481 0.066166 0.000000
0.135050 0.063531 0.000000
0.163696 0.060975 0.000000
0.192420 0.058495 0.000000
0.221219 0.056090 0.000000
0.250091 0.053758 0.000000
0.279036 0.051498 0.000000
0.308052 0.049308 0.000000
0.337137 0.047188 0.000000
0.366291 0.045135 0.000000
0.395512 0.043149 0.000000
0.424799 0.041229 0.000000
0.454151 0.039373 0.000000
0.483567 0.037581 0.000000
0.513047 0.035851 0.000000
0.542588 0.034183 0.000000
0.572191 0.032576 0.000000
0.601855 0.031029 0.000000
0.631578 0.029542 0.000000
0.661360 0.028112 0.000000
0.691200 0.026740 0.000000
0.721097 0.025425 0.000000
0.751051 0.024166 0.000000
0.781061 0.022963 0.000000
0.811127 0.021815 0.000000
0.841247 0.020721 0.000000
0.871421 0.019680 0.000000
0.000000 0.104856 0.000000
0.000000 0.102007 0.000000
0.000000 0.099242 0.000000
0.011378 0.096557 0.000000
0.039975 0.093951 0.000000
0.068650 0.091423 0.000000
0.097401 0.088971 0.000000
0.126227 0.086592 0.000000
0.155126 0.084287 0.000000
0.184097 0.082052 0.000000
0.213138 0.079888 0.000000
0.242248 0.077792 0.000000
0.271427 0.075764 0.000000
0.300672 0.073802 0.000000
0.329983 0.071905 0.000000
0.359358 0.070073 0.000000
0.388798 0.068303 0.000000
0.418300 0.066596 0.000000
0.447864 0.064951 0.000000
0.477489 0.063366 0.000000
0.507174 0.061840 0.000000
0.536918 0.060374 0.000000
0.566722 0.058965 0.000000
0.596583 0.057614 0.000000
0.626501 0.056320 0.000000
0.656475 0.055081 0.000000
0.686506 0.053898 0.000000
0.716591 0.052770 0.000000
0.746731 0.051695 0.000000
0.776925 0.050674 0.000000
0.807172 0.049706 0.000000
0.837472 0.048789 0.000000
0.867824 0.047925 0.000000
0.000000 0.126959 0.000000
0.000000 0.124381 0.000000
0.000000 0.121881 0.000000
0.002392 0.119456 0.000000
0.031245 0.117104 0.000000
0.060170 0.114824 0.000000
0.089167 0.112616 0.000000
0.118233 0.110476 0.000000
0.147368 0.108405 0.000000
0.176571 0.106401 0.000000
0.205840 0.104463 0.000000
0.235175 0.102590 0.000000
0.264574 0.100781 0.000000
0.294036 0.099034 0.000000
0.323561 0.097350 0.000000
0.353147 0.095726 0.000000
0.382794 0.094163 0.000000
0.412501 0.092659 0.000000
0.442267 0.091214 0.000000
0.472091 0.089826 0.000000
0.501973 0.088496 0.000000
0.531912 0.087222 0.000000
0.561907 0.086004 0.000000
0.591957 0.084840 0.000000
0.622063 0.083732 0.000000
0.652222 0.082677 0.000000
0.682436 0.081675 0.000000
0.712702 0.080725 0.000000
0.743021 0.079828 0.000000
0.773392 0.078982 0.000000
0.803814 0.078188 0.000000
0.834288 0.077443 0.000000
0.864811 0.076749 0.000000
0.000000 0.149950 0.000000
0.000000 0.147625 0.000000
0.000000 0.145372 0.000000
0.000000 0.143188 0.000000
0.023337 0.141074 0.000000
0.052497 0.139027 0.000000
0.081724 0.137047 0.000000
0.111017 0.135133 0.000000
0.140376 0.133283 0.000000
0.169798 0.131497 0.000000
0.199283 0.129773 0.000000
0.228830 0.128111 0.000000
0.258439 0.126509 0.000000
0.288108 0.124968 0.000000
0.317836 0.123485 0.000000
0.347623 0.122061 0.000000
0.377469 0.120695 0.000000
0.407371 0.119385 0.000000
0.437331 0.118131 0.000000
0.467346 0.116933 0.000000
0.497416 0.115790 0.000000
0.527541 0.114701 0.000000
0.557721 0.113665 0.000000
0.587953 0.112682 0.000000
0.618239 0.111752 0.000000
0.648577 0.110874 0.000000
0.678967 0.110047 0.000000
0.709408 0.109270 0.000000
0.739899 0.108544 0.000000
0.770441 0.107868 0.000000
0.801033 0.107241 0.000000
0.831674 0.106663 0.000000
0.862364 0.106133 0.000000
0.000000 0.173770 0.000000
0.000000 0.171680 0.000000
0.000000 0.169658 0.000000
0.000000 0.167702 0.000000
0.016203 0.165812 0.000000
0.045585 0.163985 0.000000
0.075030 0.162221 0.000000
0.104538 0.160520 0.000000
0.134108 0.158880 0.000000
0.163738 0.157301 0.000000
0.193429 0.155781 0.000000
0.223179 0.154320 0.000000
0.252987 0.152917 0.000000
0.282854 0.151571 0.000000
0.312777 0.150282 0.000000
0.342757 0.149048 0.000000
0.372792 0.147870 0.000000
0.402883 0.146746 0.000000
0.433027 0.145677 0.000000
0.463226 0.144661 0.000000
0.493478 0.143697 0.000000
0.523783 0.142786 0.000000
0.554140 0.141926 0.000000
0.584548 0.141117 0.000000
0.615008 0.140359 0.000000
0.645518 0.139652 0.000000
0.676078 0.138993 0.000000
0.706688 0.138384 0.000000
0.737347 0.137824 0.000000
0.768055 0.137311 0.000000
0.798811 0.136847 0.000000
0.829614 0.136430 0.000000
0.860466 0.136060 0.000000
0.000000 0.198366 0.000000
0.000000 0.196499 0.000000
0.000000 0.194695 0.000000
0.000000 0.192954 0.000000
0.009801 0.191275 0.000000
0.039393 0.189658 0.000000
0.069046 0.188100 0.000000
0.098758 0.186601 0.000000
0.128529 0.185162 0.000000
0.158359 0.183779 0.000000
0.188246 0.182454 0.000000
0.218190 0.181185 0.000000
0.248190 0.179972 0.000000
0.278246 0.178814 0.000000
0.308356 0.177710 0.000000
0.338521 0.176660 0.000000
0.368739 0.175663 0.000000
0.399010 0.174719 0.000000
0.429334 0.173826 0.000000
0.459710 0.172985 0.000000
0.490137 0.172195 0.000000
0.520615 0.171455 0.000000
0.551143 0.170766 0.000000
0.581721 0.170125 0.000000
0.612349 0.169534 0.000000
0.643026 0.168991 0.000000
0.673751 0.168496 0.000000
0.704525 0.168049 0.000000
0.735346 0.167649 0.000000
0.766214 0.167296 0.000000
0.797129 0.166989 0.000000
0.828091 0.166728 0.000000
0.859099 0.166513 0.000000
0.000000 0.223695 0.000000
0.000000 0.222039 0.000000
0.000000 0.220443 0.000000
0.000000 0.218907 0.000000
0.004095 0.217430 0.000000
0.033888 0.216011 0.000000
0.063738 0.214650 0.000000
0.093646 0.213345 0.000000
0.123611 0.212097 0.000000
0.153631 0.210904 0.000000
0.183706 0.209765 0.000000
0.213837 0.208681 0.000000
0.244021 0.207650 0.000000
0.274258 0.206673 0.000000
0.304549 0.205747 0.000000
0.334892 0.204873 0.000000
0.365286 0.204051 0.000000
0.395732 0.203279 0.000000
0.426228 0.202558 0.000000
0.456775 0.201886 0.000000
0.487371 0.201264 0.000000
0.518017 0.200690 0.000000
0.548711 0.200165 0.000000
0.579454 0.199687 0.000000
0.610245 0.199257 0.000000
0.641083 0.198874 0.000000
0.671969 0.198538 0.000000
0.702901 0.198248 0.000000
0.733880 0.198004 0.000000
0.764904 0.197805 0.000000
0.795974 0.197651 0.000000
0.827090 0.197542 0.000000
0.858250 0.197478 0.000000
0.000000 0.249722 0.000000
0.000000 0.248266 0.000000
0.000000 0.246868 0.000000
0.000000 0.245528 0.000000
0.000000 0.244244 0.000000
0.029038 0.243015 0.000000
0.059079 0.241842 0.000000
0.089175 0.240724 0.000000
0.119324 0.239659 0.000000
0.149528 0.238648 0.000000
0.179785 0.237689 0.000000
0.210095 0.236782 0.000000
0.240456 0.235927 0.000000
0.270869 0.235124 0.000000
0.301334 0.234370 0.000000
0.331848 0.233667 0.000000
0.362413 0.233013 0.000000
0.393028 0.232409 0.000000
0.423691 0.231853 0.000000
0.454403 0.231345 0.000000
0.485164 0.230885 0.000000
0.515972 0.230472 0.000000
0.546827 0.230106 0.000000
0.577730 0.229786 0.000000
0.608679 0.229513 0.000000
0.639674 0.229286 0.000000
0.670716 0.229103 0.000000
0.701802 0.228966 0.000000
0.732934 0.228873 0.000000
0.764111 0.228825 0.000000
0.795331 0.228820 0.000000
0.826596 0.228859 0.000000
0.857905 0.228942 0.000000
0.000000 0.276413 0.000000
0.000000 0.275149 0.000000
0.000000 0.273941 0.000000
0.000000 0.272788 0.000000
0.000000 0.271689 0.000000
0.024819 0.270644 0.000000
0.055043 0.269652 0.000000
0.085319 0.268712 0.000000
0.115647 0.267825 0.000000
0.146028 0.266988 0.000000
0.176459 0.266203 0.000000
0.206942 0.265468 0.000000
0.237475 0.264783 0.000000
0.268058 0.264147 0.000000
0.298690 0.263560 0.000000
0.329372 0.263021 0.000000
0.360101 0.262531 0.000000
0.390879 0.262088 0.000000
0.421705 0.261693 0.000000
0.452578 0.261344 0.000000
0.483497 0.261041 0.000000
0.514463 0.260784 0.000000
0.545475 0.260573 0.000000
0.576533 0.260407 0.000000
0.607636 0.260286 0.000000
0.638784 0.260210 0.000000
0.669977 0.260177 0.000000
0.701214 0.260189 0.000000
0.732495 0.260244 0.000000
0.763819 0.260342 0.000000
0.795187 0.260482 0.000000
0.826598 0.260666 0.000000
0.858052 0.260891 0.000000
0.000000 0.303741 0.000000
0.000000 0.302662 0.000000
0.000000 0.301636 0.000000
0.000000 0.300663 0.000000
0.000000 0.299742 0.000000
0.021207 0.298874 0.000000
0.051606 0.298056 0.000000
0.082056 0.297289 0.000000
0.112557 0.296572 0.000000
0.143109 0.295905 0.000000
0.173710 0.295287 0.000000
0.204360 0.294718 0.000000
0.235059 0.294197 0.000000
0.265806 0.293724 0.000000
0.296601 0.293298 0.000000
0.327444 0.292919 0.000000
0.358334 0.292587 0.000000
0.389270 0.292302 0.000000
0.420253 0.292062 0.000000
0.451282 0.291867 0.000000
0.482356 0.291718 0.000000
0.513476 0.291613 0.000000
0.544640 0.291552 0.000000
0.575849 0.291536 0.000000
0.607102 0.291563 0.000000
0.638399 0.291634 0.000000
0.669739 0.291747 0.000000
0.701123 0.291904 0.000000
0.732549 0.292102 0.000000
0.764018 0.292343 0.000000
0.795530 0.292626 0.000000
0.827083 0.292950 0.000000
0.858678 0.293315 0.000000
0.000000 0.331681 0.000000
0.000000 0.330780 0.000000
0.000000 0.329929 0.000000
0.000000 0.329130 0.000000
0.000000 0.328381 0.000000
0.018179 0.327683 0.000000
0.048749 0.327034 0.000000
0.079368 0.326433 0.000000
0.110036 0.325882 0.000000
0.140752 0.325378 0.000000
0.171517 0.324923 0.000000
0.202330 0.324514 0.000000
0.233190 0.324153 0.000000
0.264096 0.323837 0.000000
0.295050 0.323568 0.000000
0.326049 0.323345 0.000000
0.357095 0.323167 0.000000
0.388186 0.323034 0.000000
0.419322 0.322945 0.000000
0.450502 0.322901 0.000000
0.481727 0.322900 0.000000
0.512996 0.322943 0.000000
0.544309 0.323029 0.000000
0.575665 0.323159 0.000000
0.607064 0.323330 0.000000
0.638506 0.323544 0.000000
0.669991 0.323800 0.000000
0.701517 0.324098 0.000000
0.733086 0.324437 0.000000
0.764696 0.324817 0.000000
0.796347 0.325238 0.000000
0.828040 0.325700 0.000000
0.859773 0.326202 0.000000
0.000000 0.360211 0.000000
0.000000 0.359481 0.000000
0.000000 0.358800 0.000000
0.000000 0.358169 0.000000
0.000000 0.357586 0.000000
0.015718 0.357052 0.000000
0.046452 0.356566 0.000000
0.077234 0.356128 0.000000
0.108064 0.355737 0.000000
0.138941 0.355392 0.000000
0.169865 0.355094 0.000000
0.200835 0.354841 0.000000
0.231852 0.354634 0.000000
0.262914 0.354473 0.000000
0.294021 0.354356 0.000000
0.325173 0.354283 0.000000
0.356370 0.354255 0.000000
0.387611 0.354270 0.000000
0.418896 0.354329 0.000000
0.450225 0.354431 0.000000
0.481596 0.354576 0.000000
0.513011 0.354763 0.000000
0.544469 0.354992 0.000000
0.575968 0.355263 0.000000
0.607510 0.355576 0.000000
0.639094 0.355930 0.000000
0.670719 0.356325 0.000000
0.702386 0.356761 0.000000
0.734093 0.357237 0.000000
0.765841 0.357754 0.000000
0.797629 0.358310 0.000000
0.829458 0.358906 0.000000
0.861327 0.359542 0.000000
0.000000 0.389310 0.000000
0.000000 0.388746 0.000000
0.000000 0.388229 0.000000
0.000000 0.387761 0.000000
0.000000 0.387339 0.000000
0.013805 0.386965 0.000000
0.044699 0.386637 0.000000
0.075640 0.386356 0.000000
0.106627 0.386120 0.000000
0.137660 0.385930 0.000000
0.168739 0.385784 0.000000
0.199862 0.385683 0.000000
0.231031 0.385627 0.000000
0.262244 0.385615 0.000000
0.293501 0.385646 0.000000
0.324802 0.385721 0.000000
0.356146 0.385838 0.000000
0.387533 0.385998 0.000000
0.418964 0.386201 0.000000
0.450437 0.386445 0.000000
0.481952 0.386732 0.000000
0.513509 0.387060 0.000000
0.545108 0.387429 0.000000
0.576748 0.387839 0.000000
0.608429 0.388289 0.000000
0.640152 0.388780 0.000000
0.671914 0.389311 0.000000
0.703717 0.389882 0.000000
0.735561 0.390492 0.000000
0.767444 0.391142 0.000000
0.799366 0.391831 0.000000
0.831328 0.392559 0.000000
0.863329 0.393325 0.000000
0.000000 0.418961 0.000000
0.000000 0.418557 0.000000
0.000000 0.418200 0.000000
0.000000 0.417889 0.000000
0.000000 0.417624 0.000000
0.012425 0.417405 0.000000
0.043474 0.417231 0.000000
0.074569 0.417102 0.000000
0.105709 0.417017 0.000000
0.136894 0.416977 0.000000
0.168123 0.416980 0.000000
0.199396 0.417027 0.000000
0.230713 0.417118 0.000000
0.262073 0.417251 0.000000
0.293476 0.417426 0.000000
0.324922 0.417644 0.000000
0.356410 0.417904 0.000000
0.387941 0.418206 0.000000
0.419513 0.418549 0.000000
0.451127 0.418933 0.000000
0.482782 0.419357 0.000000
0.514479 0.419823 0.000000
0.546216 0.420328 0.000000
0.577993 0.420874 0.000000
0.609811 0.421459 0.000000
0.641669 0.422084 0.000000
0.673566 0.422748 0.000000
0.705503 0.423451 0.000000
0.737479 0.424193 0.000000
0.769494 0.424973 0.000000
0.801548 0.425792 0.000000
0.833641 0.426648 0.000000
0.865772 0.427543 0.000000
0.000000 0.449146 0.000000
0.000000 0.448898 0.000000
0.000000 0.448696 0.000000
0.000000 0.448538 0.000000
0.000000 0.448425 0.000000
0.011563 0.448357 0.000000
0.042763 0.448333 0.000000
0.074009 0.448352 0.000000
0.105298 0.448415 0.000000
0.136630 0.448521 0.000000
0.168006 0.448669 0.000000
0.199425 0.448860 0.000000
0.230886 0.449094 0.000000
0.262390 0.449369 0.000000
0.293936 0.449685 0.000000
0.325523 0.450043 0.000000
0.357152 0.450442 0.000000
0.388822 0.450881 0.000000
0.420533 0.451361 0.000000
0.452285 0.451882 0.000000
0.484077 0.452442 0.000000
0.515909 0.453041 0.000000
0.547782 0.453680 0.000000
0.579694 0.454359 0.000000
0.611645 0.455076 0.000000
0.643635 0.455832 0.000000
0.675665 0.456626 0.000000
0.707733 0.457459 0.000000
0.739839 0.458329 0.000000
0.771984 0.459237 0.000000
0.804167 0.460183 0.000000
0.836388 0.461166 0.000000
0.868646 0.462187 0.000000
0.000000 0.479851 0.000000
0.000000 0.479755 0.000000
0.000000 0.479702 0.000000
0.000000 0.479694 0.000000
0.000000 0.479729 0.000000
0.011205 0.479808 0.000000
0.042553 0.479929 0.000000
0.073944 0.480093 0.000000
0.105379 0.480300 0.000000
0.136856 0.480548 0.000000
0.168375 0.480838 0.000000
0.199936 0.481170 0.000000
0.231538 0.481543 0.000000
0.263182 0.481957 0.000000
0.294867 0.482411 0.000000
0.326593 0.482906 0.000000
0.358360 0.483440 0.000000
0.390167 0.484015 0.000000
0.422013 0.484629 0.000000
0.453900 0.485282 0.000000
0.485826 0.485975 0.000000
0.517792 0.486706 0.000000
0.549797 0.487476 0.000000
0.581840 0.488284 0.000000
0.613922 0.489131 0.000000
0.646043 0.490015 0.000000
0.678201 0.490937 0.000000
0.710398 0.491896 0.000000
0.742632 0.492893 0.000000
0.774904 0.493927 0.000000
0.807214 0.494997 0.000000
0.839560 0.496105 0.000000
0.871943 0.497248 0.000000
0.000000 0.511061 0.000000
0.000000 0.511112 0.000000
0.000000 0.511206 0.000000
0.000000 0.511343 0.000000
0.000000 0.511523 0.000000
0.011338 0.511745 0.000000
0.042831 0.512008 0.000000
0.074365 0.512314 0.000000
0.105941 0.512660 0.000000
0.137559 0.513048 0.000000
0.169218 0.513477 0.000000
0.200918 0.513946 0.000000
0.232659 0.514455 0.000000
0.264440 0.515004 0.000000
0.296261 0.515593 0.000000
0.328123 0.516222 0.000000
0.360024 0.516889 0.000000
0.391964 0.517596 0.000000
0.423944 0.518341 0.000000
0.455963 0.519125 0.000000
0.488021 0.519947 0.000000
0.520117 0.520807 0.000000
0.552251 0.521706 0.000000
0.584424 0.522641 0.000000
0.616634 0.523614 0.000000
0.648882 0.524624 0.000000
0.681168 0.525672 0.000000
0.713491 0.526756 0.000000
0.745850 0.527876 0.000000
0.778247 0.529033 0.000000
0.810681 0.530226 0.000000
0.843151 0.531455 0.000000
0.875657 0.532720 0.000000
0.000000 0.542763 0.000000
0.000000 0.542958 0.000000
0.000000 0.543195 0.000000
0.000000 0.543474 0.000000
0.000000 0.543795 0.000000
0.011952 0.544156 0.000000
0.043585 0.544559 0.000000
0.075259 0.545002 0.000000
0.106974 0.545486 0.000000
0.138729 0.546010 0.000000
0.170525 0.546573 0.000000
0.202361 0.547177 0.000000
0.234237 0.547819 0.000000
0.266153 0.548501 0.000000
0.298108 0.549222 0.000000
0.330102 0.549982 0.000000
0.362135 0.550779 0.000000
0.394206 0.551615 0.000000
0.426316 0.552489 0.000000
0.458465 0.553401 0.000000
0.490651 0.554350 0.000000
0.522875 0.555337 0.000000
0.555137 0.556361 0.000000
0.587436 0.557421 0.000000
0.619772 0.558519 0.000000
0.652146 0.559653 0.000000
0.684556 0.560823 0.000000
0.717003 0.562029 0.000000
0.749486 0.563271 0.000000
0.782005 0.564549 0.000000
0.814560 0.565862 0.000000
0.847152 0.567211 0.000000
0.879778 0.568595 0.000000
0.000000 0.574945 0.000000
0.000000 0.575281 0.000000
0.000000 0.575657 0.000000
0.000000 0.576075 0.000000
0.000000 0.576533 0.000000
0.013035 0.577031 0.000000
0.044806 0.577570 0.000000
0.076616 0.578148 0.000000
0.108467 0.578766 0.000000
0.140357 0.579423 0.000000
0.172287 0.580119 0.000000
0.204256 0.580854 0.000000
0.236264 0.581627 0.000000
0.268311 0.582439 0.000000
0.300397 0.583289 0.000000
0.332521 0.584176 0.000000
0.364683 0.585102 0.000000
0.396883 0.586065 0.000000
0.429121 0.587065 0.000000
0.461397 0.588102 0.000000
0.493709 0.589176 0.000000
0.526059 0.590287 0.000000
0.558446 0.591434 0.000000
0.590869 0.592617 0.000000
0.623329 0.593836 0.000000
0.655826 0.595091 0.000000
0.688358 0.596382 0.000000
0.720927 0.597708 0.000000
0.753531 0.599070 0.000000
0.786171 0.600467 0.000000
0.818846 0.601898 0.000000
0.851556 0.603364 0.000000
0.884302 0.604865 0.000000
0.000000 0.607596 0.000000
0.000000 0.608069 0.000000
0.000000 0.608582 0.000000
0.000000 0.609135 0.000000
0.000000 0.609728 0.000000
0.014577 0.610360 0.000000
0.046482 0.611031 0.000000
0.078426 0.611741 0.000000
0.110410 0.612490 0.000000
0.142432 0.613277 0.000000
0.174493 0.614103 0.000000
0.206593 0.614967 0.000000
0.238731 0.615868 0.000000
0.270907 0.616807 0.000000
0.303121 0.617784 0.000000
0.335372 0.618798 0.000000
0.367661 0.619848 0.000000
0.399988 0.620936 0.000000
0.432351 0.622059 0.000000
0.464751 0.623220 0.000000
0.497188 0.624416 0.000000
0.529661 0.625648 0.000000
0.562170 0.626917 0.000000
0.594716 0.628220 0.000000
0.627298 0.629559 0.000000
0.659915 0.630934 0.000000
0.692567 0.632343 0.000000
0.725255 0.633787 0.000000
0.757979 0.635266 0.000000
0.790737 0.636780 0.000000
0.823530 0.638327 0.000000
0.856358 0.639909 0.000000
0.889220 0.641525 0.000000
0.000000 0.640705 0.000000
0.000000 0.641312 0.000000
0.000000 0.641959 0.000000
0.000000 0.642644 0.000000
0.000000 0.643369 0.000000
0.016568 0.644132 0.000000
0.048605 0.644933 0.000000
0.080680 0.645773 0.000000
0.112794 0.646650 0.000000
0.144946 0.647565 0.000000
0.177135 0.648518 0.000000
0.209363 0.649508 0.000000
0.241628 0.650535 0.000000
0.273931 0.651599 0.000000
0.306271 0.652700 0.000000
0.338647 0.653837 0.000000
0.371061 0.655010 0.000000
0.403511 0.656220 0.000000
0.435997 0.657465 0.000000
0.468520 0.658746 0.000000
0.501079 0.660063 0.000000
0.533673 0.661415 0.000000
0.566303 0.662802 0.000000
0.598969 0.664224 0.000000
0.631670 0.665681 0.000000
0.664406 0.667173 0.000000
0.697177 0.668699 0.000000
0.729983 0.670259 0.000000
0.762823 0.671853 0.000000
0.795698 0.673482 0.000000
0.828607 0.675144 0.000000
0.861550 0.676840 0.000000
0.894527 0.678569 0.000000
0.000000 0.674263 0.000000
0.000000 0.675001 0.000000
0.000000 0.675778 0.000000
0.000000 0.676594 0.000000
0.000000 0.677447 0.000000
0.019000 0.678338 0.000000
0.051165 0.679267 0.000000
0.083369 0.680234 0.000000
0.115610 0.681237 0.000000
0.147889 0.682278 0.000000
0.180205 0.683355 0.000000
0.212559 0.684469 0.000000
0.244949 0.685619 0.000000
0.277376 0.686806 0.000000
0.309839 0.688029 0.000000
0.342339 0.689287 0.000000
0.374874 0.690581 0.000000
0.407446 0.691911 0.000000
0.440054 0.693275 0.000000
0.472697 0.694675 0.000000
0.505375 0.696110 0.000000
0.538089 0.697579 0.000000
0.570838 0.699084 0.000000
