asset_packs/aokigahara_moss_print/mood/grade_33.cube
TITLE "aokigahara_moss_print mood grade"
# Generated by construction_code_v2/gen_asset_packs.py. Domain: display-referred sRGB in, sRGB out.
LUT_3D_SIZE 9
DOMAIN_MIN 0.0 0.0 0.0
DOMAIN_MAX 1.0 1.0 1.0
0.065290 0.022720 0.000000
0.189795 0.000000 0.000000
0.317462 0.000000 0.000000
0.447334 0.000000 0.000000
0.579059 0.000000 0.000000
0.712429 0.000000 0.000000
0.847303 0.000000 0.000000
0.983578 0.000000 0.000000
1.000000 0.000000 0.000000
0.000000 0.089263 0.000000
0.101797 0.066606 0.000000
0.235729 0.045276 0.000000
0.371124 0.025147 0.000000
0.507887 0.006124 0.000000
0.645944 0.000000 0.000000
0.785233 0.000000 0.000000
0.925702 0.000000 0.000000
1.000000 0.000000 0.000000
0.000000 0.174347 0.000000
0.032367 0.155708 0.000000
0.170879 0.138077 0.000000
0.310603 0.121395 0.000000
0.451491 0.105616 0.000000
0.593502 0.090697 0.000000
0.736599 0.076603 0.000000
0.880750 0.063300 0.000000
1.000000 0.050761 0.000000
0.000000 0.271799 0.000000
0.000000 0.256337 0.000000
0.119839 0.241722 0.000000
0.263323 0.227919 0.000000
0.407851 0.214898 0.000000
0.553394 0.202630 0.000000
0.699929 0.191092 0.000000
0.847432 0.180260 0.000000
0.995884 0.170115 0.000000
0.000000 0.379340 0.000000
0.000000 0.366596 0.000000
0.080993 0.354596 0.000000
0.227883 0.343318 0.000000
0.375734 0.332738 0.000000
0.524527 0.322838 0.000000
0.674242 0.313599 0.000000
0.824864 0.305005 0.000000
0.976377 0.297039 0.000000
0.000000 0.495636 0.000000
0.000000 0.485306 0.000000
0.053292 0.475649 0.000000
0.203339 0.466647 0.000000
0.354287 0.458283 0.000000
0.506120 0.450542 0.000000
0.658825 0.443411 0.000000
0.812387 0.436875 0.000000
0.966795 0.430923 0.000000
0.000000 0.619778 0.000000
0.000000 0.611643 0.000000
0.035979 0.604126 0.000000
0.188998 0.597213 0.000000
0.342869 0.590891 0.000000
0.497582 0.585149 0.000000
0.653125 0.579974 0.000000
0.809486 0.575356 0.000000
0.966657 0.571285 0.000000
0.000000 0.751094 0.000000
0.000000 0.744984 0.000000
0.028479 0.739450 0.000000
0.184321 0.734479 0.000000
0.340978 0.730061 0.000000
0.498441 0.726187 0.000000
0.656699 0.722846 0.000000
0.815744 0.720030 0.000000
0.975567 0.717731 0.000000
0.000000 0.889057 0.000000
0.000000 0.884838 0.000000
0.030330 0.881159 0.000000
0.188876 0.878011 0.000000
0.348205 0.875384 0.000000
0.508309 0.873270 0.000000
0.669181 0.871661 0.000000
0.830812 0.870550 0.000000
0.993195 0.869928 0.000000
0.053997 0.012181 0.139437
0.179807 0.000000 0.112370
0.308279 0.000000 0.087420
0.438810 0.000000 0.063983
0.571112 0.000000 0.041773
0.705007 0.000000 0.020609
0.840367 0.000000 0.000366
0.977098 0.000000 0.000000
1.000000 0.000000 0.000000
0.000000 0.081410 0.055766
0.094047 0.059221 0.033954
0.228487 0.038310 0.013138
0.364356 0.018567 0.000000
0.501567 0.000000 0.000000
0.640048 0.000000 0.000000
0.779743 0.000000 0.000000
0.920604 0.000000 0.000000
1.000000 0.000000 0.000000
0.000000 0.167900 0.000000
0.026204 0.149610 0.000000
0.165133 0.132308 0.000000
0.305258 0.115938 0.000000
0.446532 0.100455 0.000000
0.588915 0.085820 0.000000
0.732373 0.071998 0.000000
0.876875 0.058957 0.000000
1.000000 0.046672 0.000000
0.000000 0.266451 0.000000
0.000000 0.251281 0.000000
0.115385 0.236945 0.000000
0.259227 0.223411 0.000000
0.404102 0.210648 0.000000
0.549985 0.198631 0.000000
0.696851 0.187335 0.000000
0.844678 0.176739 0.000000
0.993448 0.166822 0.000000
0.000000 0.374927 0.000000
0.000000 0.362438 0.000000
0.077706 0.350686 0.000000
0.224924 0.339648 0.000000
0.373097 0.329301 0.000000
0.522205 0.319627 0.000000
0.672230 0.310609 0.000000
0.823156 0.302230 0.000000
0.974968 0.294474 0.000000
0.000000 0.492052 0.000000
0.000000 0.481952 0.000000
0.051083 0.472519 0.000000
0.201438 0.463735 0.000000
0.352688 0.455585 0.000000
0.504819 0.448053 0.000000
0.657816 0.441125 0.000000
0.811667 0.434789 0.000000
0.966360 0.429032 0.000000
0.000000 0.616946 0.000000
0.000000 0.609022 0.000000
0.034785 0.601711 0.000000
0.188095 0.595000 0.000000
0.342253 0.588877 0.000000
0.497249 0.583328 0.000000
0.653071 0.578344 0.000000
0.809709 0.573913 0.000000
0.967151 0.570025 0.000000
0.000000 0.748954 0.000000
0.000000 0.743041 0.000000
0.028248 0.737699 0.000000
0.184368 0.732917 0.000000
0.341300 0.728685 0.000000
0.499034 0.724993 0.000000
0.657560 0.721832 0.000000
0.816870 0.719192 0.000000
0.976956 0.717065 0.000000
0.000000 0.887563 0.000000
0.000000 0.883529 0.000000
0.031021 0.880031 0.000000
0.189834 0.877061 0.000000
0.349427 0.874609 0.000000
0.509793 0.872667 0.000000
0.670923 0.871228 0.000000
0.832811 0.870284 0.000000
0.995448 0.869828 0.000000
0.043289 0.002196 0.286186
0.170117 0.000000 0.259951
0.299332 0.000000 0.235559
0.430489 0.000000 0.212563
0.563349 0.000000 0.190725
0.697753 0.000000 0.169887
0.833589 0.000000 0.149933
0.970767 0.000000 0.130777
1.000000 0.000000 0.112349
0.000000 0.073722 0.204489
0.086474 0.051982 0.183030
0.221411 0.031479 0.162525
0.357744 0.012111 0.142871
0.495393 0.000000 0.123988
0.634293 0.000000 0.105809
0.774388 0.000000 0.088282
0.915635 0.000000 0.071360
1.000000 0.000000 0.055003
0.000000 0.161575 0.135911
0.020185 0.143627 0.117291
0.159526 0.126646 0.099356
0.300045 0.110582 0.082054
0.441700 0.095392 0.065341
0.584452 0.081036 0.049181
0.728268 0.067483 0.033539
0.873118 0.054702 0.018387
1.000000 0.042666 0.003697
0.000000 0.261203 0.075903
0.000000 0.246321 0.059396
0.111054 0.232261 0.043428
0.255249 0.218992 0.027968
0.400470 0.206485 0.012986
0.546689 0.194715 0.000000
0.693884 0.183659 0.000000
0.842033 0.173296 0.000000
0.991118 0.163606 0.000000
0.000000 0.370602 0.022459
0.000000 0.358366 0.007646
0.074530 0.346859 0.000000
0.222075 0.336057 0.000000
0.370567 0.325941 0.000000
0.519989 0.316492 0.000000
0.670322 0.307693 0.000000
0.821550 0.299527 0.000000
0.973659 0.291980 0.000000
0.000000 0.488546 0.000000
0.000000 0.478675 0.000000
0.048980 0.469464 0.000000
0.199641 0.460897 0.000000
0.351191 0.452958 0.000000
0.503618 0.445633 0.000000
0.656907 0.438907 0.000000
0.811045 0.432770 0.000000
0.966020 0.427207 0.000000
0.000000 0.614185 0.000000
0.000000 0.606471 0.000000
0.033691 0.599366 0.000000
0.187290 0.592856 0.000000
0.341734 0.586929 0.000000
0.497012 0.581573 0.000000
0.653112 0.576778 0.000000
0.810024 0.572532 0.000000
0.967738 0.568827 0.000000
0.000000 0.746881 0.000000
0.000000 0.741163 0.000000
0.028113 0.736013 0.000000
0.184509 0.731419 0.000000
0.341715 0.727371 0.000000
0.499718 0.723860 0.000000
0.658512 0.720877 0.000000
0.818086 0.718413 0.000000
0.978433 0.716459 0.000000
0.000000 0.886132 0.000000
0.000000 0.882281 0.000000
0.031804 0.878964 0.000000
0.190882 0.876170 0.000000
0.350739 0.873893 0.000000
0.511365 0.872123 0.000000
0.672753 0.870852 0.000000
0.834896 0.870075 0.000000
0.997786 0.869782 0.000000
0.032983 0.000000 0.433273
0.160697 0.000000 0.407740
0.290607 0.000000 0.383857
0.422364 0.000000 0.361276
0.555763 0.000000 0.339793
0.690665 0.000000 0.319266
0.826965 0.000000 0.299592
0.964583 0.000000 0.280691
1.000000 0.000000 0.262496
0.000000 0.066193 0.353336
0.079073 0.044886 0.332215
0.214495 0.024779 0.312009
0.351283 0.005776 0.292625
0.489363 0.000000 0.273988
0.628675 0.000000 0.256036
0.769166 0.000000 0.238720
0.910794 0.000000 0.221993
1.000000 0.000000 0.205820
0.000000 0.155367 0.285757
0.014307 0.137754 0.267376
0.154054 0.121090 0.249661
0.294963 0.105328 0.232564
0.436995 0.090425 0.216043
0.580112 0.076345 0.200062
0.724282 0.063057 0.184590
0.869477 0.050532 0.169597
1.000000 0.038744 0.155059
0.000000 0.256055 0.226485
0.000000 0.241455 0.210164
0.106843 0.227667 0.194372
0.251390 0.214660 0.179078
0.396952 0.202406 0.164253
0.543505 0.190882 0.149874
0.691027 0.180063 0.135918
0.839496 0.169931 0.122365
0.988895 0.160465 0.109196
0.000000 0.366363 0.173627
0.000000 0.354378 0.158968
0.071466 0.343112 0.144745
0.219335 0.332546 0.130938
0.368145 0.322658 0.117527
0.517878 0.313432 0.104493
0.668517 0.304849 0.091820
0.820046 0.296895 0.079492
0.972451 0.289555 0.067495
0.000000 0.485119 0.126011
0.000000 0.475474 0.112739
0.046981 0.466483 0.099839
0.197946 0.458131 0.087293
0.349795 0.450402 0.075087
0.502516 0.443282 0.063207
0.656095 0.436758 0.051639
0.810518 0.430817 0.040371
0.965776 0.425447 0.029391
0.000000 0.611496 0.082811
0.000000 0.603990 0.070725
0.032695 0.597089 0.058960
0.186583 0.590778 0.047503
0.341311 0.585046 0.036341
0.496869 0.579882 0.025464
0.653246 0.575275 0.014860
0.810432 0.571214 0.004519
0.968416 0.567690 0.000000
0.000000 0.744875 0.043405
0.000000 0.739351 0.032349
0.028071 0.734391 0.021572
0.184744 0.729983 0.011065
0.342221 0.726119 0.000818
0.500494 0.722788 0.000000
0.659554 0.719982 0.000000
0.819391 0.717692 0.000000
0.979999 0.715910 0.000000
0.000000 0.884764 0.007305
0.000000 0.881095 0.000000
0.032676 0.877957 0.000000
0.192020 0.875339 0.000000
0.352139 0.873235 0.000000
0.513025 0.871636 0.000000
0.674670 0.870533 0.000000
0.837067 0.869921 0.000000
1.000000 0.869792 0.000000
0.023013 0.000000 0.580634
0.151528 0.000000 0.555716
0.282094 0.000000 0.532305
0.414427 0.000000 0.510115
0.548351 0.000000 0.488970
0.683737 0.000000 0.468743
0.820493 0.000000 0.449340
0.958543 0.000000 0.430685
1.000000 0.000000 0.412718
0.000000 0.058816 0.502304
0.071841 0.037929 0.481505
0.207736 0.018206 0.461588
0.344971 0.000000 0.442465
0.483476 0.000000 0.424067
0.623193 0.000000 0.406337
0.764075 0.000000 0.389225
0.906079 0.000000 0.372691
1.000000 0.000000 0.356697
0.000000 0.149276 0.435687
0.008569 0.131991 0.417538
0.148716 0.115638 0.400038
0.290011 0.100172 0.383141
0.432415 0.085553 0.366807
0.575893 0.071745 0.351002
0.720414 0.058719 0.335696
0.865952 0.046447 0.320860
1.000000 0.034905 0.306471
0.000000 0.251004 0.377131
0.000000 0.236683 0.360994
0.102753 0.223164 0.345374
0.247648 0.210416 0.330242
0.393549 0.198412 0.315571
0.540433 0.187129 0.301338
0.688279 0.176546 0.287521
0.837066 0.166642 0.274100
0.986776 0.157400 0.261058
0.000000 0.362211 0.324848
0.000000 0.350472 0.310340
0.068513 0.339447 0.296261
0.216704 0.329113 0.282590
0.365829 0.319452 0.269309
0.515871 0.310446 0.256400
0.666814 0.302078 0.243846
0.818643 0.294334 0.231632
0.971342 0.287199 0.219744
0.000000 0.481769 0.277711
0.000000 0.472348 0.264567
0.045086 0.463576 0.251789
0.196353 0.455437 0.239360
0.348500 0.447917 0.227267
0.501513 0.441000 0.215494
0.655380 0.434675 0.204029
0.810088 0.428930 0.192860
0.965626 0.423752 0.181976
0.000000 0.608879 0.234919
0.000000 0.601579 0.222944
0.031798 0.594880 0.211285
0.185972 0.588767 0.199929
0.340984 0.583229 0.188866
0.496821 0.578255 0.178082
0.653474 0.573835 0.167569
0.810932 0.569957 0.157315
0.969185 0.566614 0.147313
0.000000 0.742935 0.195868
0.000000 0.737604 0.184908
0.028124 0.732832 0.174224
0.185071 0.728611 0.163806
0.342819 0.724929 0.153645
0.501361 0.721777 0.143731
0.660685 0.719147 0.134056
0.820785 0.717030 0.124610
0.981653 0.715419 0.115386
0.000000 0.883458 0.160078
0.000000 0.879970 0.150008
0.033640 0.877010 0.140182
0.193248 0.874568 0.130590
0.353628 0.872636 0.121226
0.514773 0.871206 0.112081
0.676674 0.870271 0.103148
0.839325 0.869824 0.094418
1.000000 0.869857 0.085886
0.013338 0.000000 0.728227
0.142593 0.000000 0.703864
0.273784 0.000000 0.680892
0.406674 0.000000 0.659074
0.541106 0.000000 0.638253
0.676968 0.000000 0.618316
0.814171 0.000000 0.599174
0.952645 0.000000 0.580759
1.000000 0.000000 0.563013
0.000000 0.051585 0.651385
0.064773 0.031105 0.630897
0.201132 0.011757 0.611259
0.338805 0.000000 0.592389
0.477728 0.000000 0.574224
0.617846 0.000000 0.556708
0.759113 0.000000 0.539797
0.901490 0.000000 0.523450
1.000000 0.000000 0.507633
0.000000 0.143298 0.585697
0.002969 0.126336 0.567774
0.143510 0.110289 0.550484
0.285186 0.095114 0.533782
0.427958 0.080774 0.517632
0.571794 0.067235 0.502000
0.716663 0.054468 0.486856
0.862540 0.042447 0.472175
1.000000 0.031147 0.457931
0.000000 0.246049 0.527841
0.000000 0.232004 0.511883
0.098782 0.218749 0.496431
0.244022 0.206257 0.481459
0.390259 0.194501 0.466940
0.537472 0.183458 0.452850
0.685640 0.173107 0.439170
0.834742 0.163430 0.425880
0.984762 0.154408 0.412961
0.000000 0.358143 0.476122
0.000000 0.346649 0.461761
0.065670 0.335861 0.447823
0.214180 0.325757 0.434287
0.363619 0.316321 0.421134
0.513969 0.307533 0.408347
0.665214 0.299379 0.395910
0.817340 0.291843 0.383808
0.970332 0.284912 0.372028
0.000000 0.478496 0.429455
0.000000 0.469297 0.416437
0.043294 0.460742 0.403780
0.194861 0.452815 0.391466
0.347304 0.445501 0.379483
0.500609 0.438787 0.367816
0.654763 0.432660 0.356454
0.809754 0.427108 0.345383
0.965571 0.422120 0.334593
0.000000 0.606332 0.387066
0.000000 0.599238 0.375200
0.030998 0.592739 0.363645
0.185458 0.586823 0.352390
0.340751 0.581477 0.341423
0.496867 0.576693 0.330732
0.653794 0.572457 0.320308
0.811523 0.568762 0.310141
0.970045 0.565598 0.300221
0.000000 0.741061 0.348364
0.000000 0.735921 0.337499
0.028270 0.731338 0.326907
0.185490 0.727300 0.316577
0.343509 0.723799 0.306501
0.502317 0.720826 0.296669
0.661906 0.718371 0.287072
0.822268 0.716427 0.277703
0.983394 0.714985 0.268552
0.000000 0.882214 0.312880
0.000000 0.878906 0.302894
0.034693 0.876123 0.293148
0.194564 0.873855 0.283635
0.355205 0.872094 0.274346
0.516607 0.870833 0.265274
0.678764 0.870065 0.256410
0.841668 0.869781 0.247749
1.000000 0.869976 0.239282
0.003933 0.000000 0.876027
0.133880 0.000000 0.852171
0.265669 0.000000 0.829613
0.399098 0.000000 0.808148
0.534027 0.000000 0.787638
0.670353 0.000000 0.767980
0.807994 0.000000 0.749092
0.946887 0.000000 0.730910
1.000000 0.000000 0.713379
0.000000 0.044497 0.800577
0.057866 0.024411 0.780387
0.194679 0.005429 0.761018
0.332783 0.000000 0.742394
0.472118 0.000000 0.724455
0.612631 0.000000 0.707150
0.754279 0.000000 0.690434
0.897025 0.000000 0.674271
1.000000 0.000000 0.658626
0.000000 0.137432 0.735787
0.000000 0.120786 0.718084
0.138436 0.105040 0.700998
0.280488 0.090152 0.684488
0.423625 0.076088 0.668517
0.567815 0.062814 0.653054
0.713029 0.050304 0.638070
0.859243 0.038530 0.623539
1.000000 0.027470 0.609440
0.000000 0.241188 0.678612
0.000000 0.227416 0.662830
0.094930 0.214423 0.647544
0.240511 0.202183 0.632728
0.387082 0.190672 0.618358
0.534622 0.179866 0.604409
0.683109 0.169746 0.590864
0.832525 0.160294 0.577702
0.982852 0.151490 0.564906
0.000000 0.354159 0.627446
0.000000 0.342907 0.613232
0.062937 0.332354 0.599432
0.211764 0.322479 0.586028
0.361514 0.313264 0.573002
0.512170 0.304694 0.560335
0.663715 0.296751 0.548014
0.816137 0.289422 0.536022
0.969421 0.282694 0.524348
0.000000 0.475299 0.581243
0.000000 0.466320 0.568349
0.041605 0.457980 0.555810
0.193471 0.450263 0.543611
0.346208 0.443154 0.531736
0.499802 0.436641 0.520174
0.654242 0.430710 0.508912
0.809515 0.425351 0.497937
0.965610 0.420553 0.487240
0.000000 0.603855 0.539251
0.000000 0.596964 0.527491
0.030296 0.590665 0.516040
0.185040 0.584944 0.504884
0.340614 0.579790 0.494012
0.497006 0.575193 0.483413
0.654207 0.571143 0.473077
0.812206 0.567629 0.462995
0.970995 0.564642 0.453157
0.000000 0.739252 0.500893
0.000000 0.734303 0.490122
0.028509 0.729906 0.479620
0.186002 0.726052 0.469377
0.344290 0.722731 0.459385
0.503364 0.719935 0.449634
0.663216 0.717654 0.440115
0.823838 0.715881 0.430821
0.985222 0.714608 0.421743
0.000000 0.881031 0.465711
0.000000 0.877903 0.455808
0.035836 0.875295 0.446142
0.195969 0.873200 0.436706
0.356870 0.871610 0.427491
0.518529 0.870517 0.418491
0.680940 0.869914 0.409697
0.844096 0.869794 0.401102
1.000000 0.870150 0.392700
0.000000 0.000000 1.000000
0.125378 0.000000 1.000000
0.257743 0.000000 0.978458
0.391695 0.000000 0.957331
0.527108 0.000000 0.937121
0.663889 0.000000 0.917732
0.801962 0.000000 0.899091
0.941267 0.000000 0.881136
1.000000 0.000000 0.863816
0.000000 0.037547 0.949873
0.051116 0.017845 0.929971
0.188375 0.000000 0.910863
0.326904 0.000000 0.892478
0.466643 0.000000 0.874759
0.607547 0.000000 0.857659
0.749572 0.000000 0.841135
0.892683 0.000000 0.825151
1.000000 0.000000 0.809676
0.000000 0.131675 0.885953
0.000000 0.115339 0.868464
0.133490 0.099889 0.851578
0.275914 0.085285 0.835255
0.419412 0.071493 0.819460
0.563953 0.058481 0.804163
0.709510 0.046224 0.789335
0.856057 0.034695 0.774954
1.000000 0.023872 0.760996
0.000000 0.236422 0.829445
0.000000 0.222917 0.813835
0.091194 0.210183 0.798711
0.237114 0.198193 0.784049
0.384016 0.186924 0.769824
0.531880 0.176354 0.756015
0.680685 0.166462 0.742602
0.830412 0.157232 0.729566
0.981046 0.148646 0.716891
0.000000 0.350258 0.778821
0.000000 0.339246 0.764750
0.060311 0.328925 0.751087
0.209454 0.319276 0.737813
0.359513 0.310282 0.724910
0.510473 0.301927 0.712363
0.662318 0.294194 0.700155
0.815034 0.287071 0.688273
0.968607 0.280543 0.676703
0.000000 0.472177 0.733073
0.000000 0.463417 0.720302
0.040018 0.455290 0.707880
0.192181 0.447781 0.695792
0.345211 0.440876 0.684025
0.499093 0.434562 0.672566
0.653817 0.428827 0.661403
0.809371 0.423660 0.650524
0.965743 0.419049 0.639919
0.000000 0.601448 0.691472
0.000000 0.594759 0.679819
0.029691 0.588658 0.668469
0.184718 0.583131 0.657410
0.340571 0.578167 0.646632
0.497239 0.573757 0.636124
0.654712 0.569889 0.625875
0.812981 0.566556 0.615877
0.972036 0.563747 0.606120
0.000000 0.737509 0.653454
0.000000 0.732748 0.642776
0.028842 0.728536 0.632363
0.186605 0.724865 0.622206
0.345161 0.721723 0.612297
0.504501 0.719103 0.602626
0.664615 0.716995 0.593184
0.825497 0.715393 0.583964
0.987138 0.714288 0.574958
0.000000 0.879910 0.618571
0.000000 0.876959 0.608749
0.037068 0.874526 0.599162
0.197463 0.872604 0.589802
0.358622 0.871184 0.580661
0.520537 0.870258 0.571731
0.683202 0.869820 0.563006
0.846610 0.869862 0.554477
1.000000 0.870378 0.546140
0.000000 0.000000 1.000000
0.117079 0.000000 1.000000
0.250000 0.000000 1.000000
0.384460 0.000000 1.000000
0.520347 0.000000 1.000000
0.657575 0.000000 1.000000
0.796072 0.000000 1.000000
0.935783 0.000000 1.000000
1.000000 0.000000 1.000000
0.000000 0.030731 1.000000
0.044521 0.011403 1.000000
0.182218 0.000000 1.000000
0.321163 0.000000 1.000000
0.461303 0.000000 1.000000
0.602592 0.000000 1.000000
0.744990 0.000000 0.991898
0.888462 0.000000 0.976090
1.000000 0.000000 0.960781
0.000000 0.126025 1.000000
0.000000 0.109995 1.000000
0.128672 0.094837 1.000000
0.271465 0.080512 0.986083
0.415320 0.066988 0.970460
0.560209 0.054235 0.955326
0.706105 0.042228 0.940653
0.852984 0.030941 0.926417
1.000000 0.020354 0.912598
0.000000 0.231747 0.980337
0.000000 0.218507 0.964895
0.087574 0.206029 0.949932
0.233830 0.194286 0.935421
0.381062 0.183257 0.921339
0.529247 0.172919 0.907666
0.678367 0.163254 0.894383
0.828404 0.154245 0.881472
0.979342 0.145874 0.868916
0.000000 0.346440 0.930245
0.000000 0.335664 0.916315
0.057794 0.325574 0.902786
0.207250 0.316149 0.889640
0.357617 0.307374 0.876860
0.508878 0.299232 0.864430
0.661021 0.291707 0.852334
0.814029 0.284788 0.840559
0.967891 0.278459 0.829093
0.000000 0.469130 0.884946
0.000000 0.460587 0.872295
0.038532 0.452671 0.859988
0.190991 0.445369 0.848011
0.344312 0.438666 0.836350
0.498481 0.432550 0.824993
0.653488 0.427009 0.813927
0.809321 0.422032 0.803142
0.965969 0.417608 0.792627
0.000000 0.599110 0.843730
0.000000 0.592622 0.832181
0.029183 0.586717 0.820931
0.184491 0.581382 0.809969
0.340622 0.576608 0.799284
0.497564 0.572383 0.788864
0.655309 0.568698 0.778702
0.813845 0.565543 0.768787
0.973166 0.562911 0.759109
0.000000 0.735830 0.806047
0.000000 0.731257 0.795460
0.029266 0.727229 0.785135
0.187300 0.723739 0.775064
0.346123 0.720775 0.765236
0.505727 0.718330 0.755644
0.666102 0.716395 0.746279
0.827243 0.714963 0.737132
0.989140 0.714025 0.728197
0.000000 0.878849 0.771458
0.000000 0.876075 0.761717
0.038390 0.873817 0.752208
0.199045 0.872066 0.742924
0.360461 0.870814 0.733855
0.522632 0.870055 0.724996
0.685550 0.869781 0.716338
0.849208 0.869985 0.707875
1.000000 0.870660 0.699600
