asset_packs/aokigahara_moss_print/mood/grade_33.cube
TITLE "aokigahara_moss_print mood grade"
# Generated by construction_code_v2/gen_asset_packs.py. Domain: display-referred sRGB in, sRGB out.
LUT_3D_SIZE 33
DOMAIN_MIN 0.0 0.0 0.0
DOMAIN_MAX 1.0 1.0 1.0
0.065290 0.022720 0.000000
0.095968 0.014893 0.000000
0.127008 0.007412 0.000000
0.158298 0.000164 0.000000
0.189795 0.000000 0.000000
0.221475 0.000000 0.000000
0.253320 0.000000 0.000000
0.285319 0.000000 0.000000
0.317462 0.000000 0.000000
0.349741 0.000000 0.000000
0.382150 0.000000 0.000000
0.414683 0.000000 0.000000
0.447334 0.000000 0.000000
0.480102 0.000000 0.000000
0.512980 0.000000 0.000000
0.545967 0.000000 0.000000
0.579059 0.000000 0.000000
0.612254 0.000000 0.000000
0.645548 0.000000 0.000000
0.678941 0.000000 0.000000
0.712429 0.000000 0.000000
0.746011 0.000000 0.000000
0.779685 0.000000 0.000000
0.813450 0.000000 0.000000
0.847303 0.000000 0.000000
0.881244 0.000000 0.000000
0.915271 0.000000 0.000000
0.949383 0.000000 0.000000
0.983578 0.000000 0.000000
1.000000 0.000000 0.000000
1.000000 0.000000 0.000000
1.000000 0.000000 0.000000
1.000000 0.000000 0.000000
0.038334 0.036637 0.000000
0.069900 0.029642 0.000000
0.101641 0.022807 0.000000
0.133544 0.016117 0.000000
0.165596 0.009560 0.000000
0.197790 0.003128 0.000000
0.230117 0.000000 0.000000
0.262571 0.000000 0.000000
0.295148 0.000000 0.000000
0.327842 0.000000 0.000000
0.360650 0.000000 0.000000
0.393568 0.000000 0.000000
0.426594 0.000000 0.000000
0.459723 0.000000 0.000000
0.492955 0.000000 0.000000
0.526285 0.000000 0.000000
0.559713 0.000000 0.000000
0.593235 0.000000 0.000000
0.626851 0.000000 0.000000
0.660559 0.000000 0.000000
0.694356 0.000000 0.000000
0.728241 0.000000 0.000000
0.762214 0.000000 0.000000
0.796271 0.000000 0.000000
0.830414 0.000000 0.000000
0.864639 0.000000 0.000000
0.898946 0.000000 0.000000
0.933334 0.000000 0.000000
0.967802 0.000000 0.000000
1.000000 0.000000 0.000000
1.000000 0.000000 0.000000
1.000000 0.000000 0.000000
1.000000 0.000000 0.000000
0.013788 0.052778 0.000000
0.045892 0.046267 0.000000
0.078135 0.039878 0.000000
0.110509 0.033604 0.000000
0.143008 0.027439 0.000000
0.175628 0.021378 0.000000
0.208364 0.015418 0.000000
0.241213 0.009553 0.000000
0.274171 0.003781 0.000000
0.307234 0.000000 0.000000
0.340401 0.000000 0.000000
0.373669 0.000000 0.000000
0.407035 0.000000 0.000000
0.440498 0.000000 0.000000
0.474054 0.000000 0.000000
0.507704 0.000000 0.000000
0.541444 0.000000 0.000000
0.575273 0.000000 0.000000
0.609191 0.000000 0.000000
0.643194 0.000000 0.000000
0.677283 0.000000 0.000000
0.711456 0.000000 0.000000
0.745711 0.000000 0.000000
0.780048 0.000000 0.000000
0.814465 0.000000 0.000000
0.848962 0.000000 0.000000
0.883537 0.000000 0.000000
0.918190 0.000000 0.000000
0.952920 0.000000 0.000000
0.987725 0.000000 0.000000
1.000000 0.000000 0.000000
1.000000 0.000000 0.000000
1.000000 0.000000 0.000000
0.000000 0.070410 0.000000
0.023462 0.064283 0.000000
0.056124 0.058259 0.000000
0.088902 0.052334 0.000000
0.121791 0.046503 0.000000
0.154787 0.040764 0.000000
0.187889 0.035113 0.000000
0.221093 0.029549 0.000000
0.254396 0.024067 0.000000
0.287798 0.018668 0.000000
0.321295 0.013347 0.000000
0.354885 0.008103 0.000000
0.388568 0.002936 0.000000
0.422341 0.000000 0.000000
0.456203 0.000000 0.000000
0.490151 0.000000 0.000000
0.524186 0.000000 0.000000
0.558306 0.000000 0.000000
0.592508 0.000000 0.000000
0.626794 0.000000 0.000000
0.661160 0.000000 0.000000
0.695606 0.000000 0.000000
0.730132 0.000000 0.000000
0.764735 0.000000 0.000000
0.799416 0.000000 0.000000
0.834174 0.000000 0.000000
0.869006 0.000000 0.000000
0.903914 0.000000 0.000000
0.938896 0.000000 0.000000
0.973951 0.000000 0.000000
1.000000 0.000000 0.000000
1.000000 0.000000 0.000000
1.000000 0.000000 0.000000
0.000000 0.089263 0.000000
0.002382 0.083466 0.000000
0.035418 0.077759 0.000000
0.068557 0.072140 0.000000
0.101797 0.066606 0.000000
0.135137 0.061155 0.000000
0.168573 0.055784 0.000000
0.202104 0.050492 0.000000
0.235729 0.045276 0.000000
0.269444 0.040135 0.000000
0.303250 0.035068 0.000000
0.337143 0.030072 0.000000
0.371124 0.025147 0.000000
0.405189 0.020291 0.000000
0.439339 0.015502 0.000000
0.473572 0.010780 0.000000
0.507887 0.006124 0.000000
0.542282 0.001532 0.000000
0.576758 0.000000 0.000000
0.611312 0.000000 0.000000
0.645944 0.000000 0.000000
0.680653 0.000000 0.000000
0.715437 0.000000 0.000000
0.750298 0.000000 0.000000
0.785233 0.000000 0.000000
0.820241 0.000000 0.000000
0.855323 0.000000 0.000000
0.890477 0.000000 0.000000
0.925702 0.000000 0.000000
0.960999 0.000000 0.000000
0.996366 0.000000 0.000000
1.000000 0.000000 0.000000
1.000000 0.000000 0.000000
0.000000 0.109178 0.000000
0.000000 0.103674 0.000000
0.015890 0.098253 0.000000
0.049361 0.092911 0.000000
0.082926 0.087646 0.000000
0.116584 0.082458 0.000000
0.150333 0.077344 0.000000
0.184170 0.072303 0.000000
0.218096 0.067333 0.000000
0.252107 0.062433 0.000000
0.286204 0.057602 0.000000
0.320384 0.052838 0.000000
0.354647 0.048140 0.000000
0.388991 0.043507 0.000000
0.423416 0.038939 0.000000
0.457920 0.034433 0.000000
0.492502 0.029989 0.000000
0.527162 0.025607 0.000000
0.561899 0.021285 0.000000
0.596711 0.017022 0.000000
0.631599 0.012818 0.000000
0.666561 0.008671 0.000000
0.701596 0.004582 0.000000
0.736704 0.000549 0.000000
0.771884 0.000000 0.000000
0.807135 0.000000 0.000000
0.842458 0.000000 0.000000
0.877850 0.000000 0.000000
0.913312 0.000000 0.000000
0.948843 0.000000 0.000000
0.984443 0.000000 0.000000
1.000000 0.000000 0.000000
1.000000 0.000000 0.000000
0.000000 0.130048 0.000000
0.000000 0.124811 0.000000
0.000000 0.119650 0.000000
0.031233 0.114563 0.000000
0.065102 0.109548 0.000000
0.099059 0.104604 0.000000
0.133102 0.099729 0.000000
0.167229 0.094922 0.000000
0.201440 0.090183 0.000000
0.235732 0.085509 0.000000
0.270106 0.080899 0.000000
0.304560 0.076354 0.000000
0.339092 0.071871 0.000000
0.373703 0.067449 0.000000
0.408391 0.063089 0.000000
0.443155 0.058788 0.000000
0.477995 0.054547 0.000000
0.512910 0.050364 0.000000
0.547898 0.046238 0.000000
0.582960 0.042170 0.000000
0.618095 0.038157 0.000000
0.653301 0.034201 0.000000
0.688578 0.030298 0.000000
0.723926 0.026450 0.000000
0.759344 0.022656 0.000000
0.794831 0.018915 0.000000
0.830387 0.015226 0.000000
0.866012 0.011589 0.000000
0.901704 0.008003 0.000000
0.937463 0.004468 0.000000
0.973289 0.000983 0.000000
1.000000 0.000000 0.000000
1.000000 0.000000 0.000000
0.000000 0.151792 0.000000
0.000000 0.146802 0.000000
0.000000 0.141884 0.000000
0.014108 0.137034 0.000000
0.048266 0.132252 0.000000
0.082506 0.127536 0.000000
0.116828 0.122886 0.000000
0.151231 0.118300 0.000000
0.185714 0.113777 0.000000
0.220275 0.109316 0.000000
0.254914 0.104917 0.000000
0.289630 0.100579 0.000000
0.324422 0.096300 0.000000
0.359289 0.092080 0.000000
0.394231 0.087918 0.000000
0.429246 0.083813 0.000000
0.464334 0.079765 0.000000
0.499495 0.075773 0.000000
0.534727 0.071836 0.000000
0.570030 0.067954 0.000000
0.605404 0.064125 0.000000
0.640847 0.060350 0.000000
0.676359 0.056628 0.000000
0.711940 0.052958 0.000000
0.747589 0.049340 0.000000
0.783306 0.045773 0.000000
0.819089 0.042256 0.000000
0.854939 0.038790 0.000000
0.890856 0.035373 0.000000
0.926837 0.032005 0.000000
0.962884 0.028687 0.000000
0.998995 0.025416 0.000000
1.000000 0.022194 0.000000
0.000000 0.174347 0.000000
0.000000 0.169590 0.000000
0.000000 0.164898 0.000000
0.000000 0.160271 0.000000
0.032367 0.155708 0.000000
0.066878 0.151208 0.000000
0.101468 0.146770 0.000000
0.136135 0.142393 0.000000
0.170879 0.138077 0.000000
0.205698 0.133819 0.000000
0.240593 0.129620 0.000000
0.275561 0.125479 0.000000
0.310603 0.121395 0.000000
0.345718 0.117368 0.000000
0.380905 0.113396 0.000000
0.416163 0.109479 0.000000
0.451491 0.105616 0.000000
0.486890 0.101807 0.000000
0.522359 0.098052 0.000000
0.557896 0.094349 0.000000
0.593502 0.090697 0.000000
0.629176 0.087098 0.000000
0.664917 0.083549 0.000000
0.700725 0.080051 0.000000
0.736599 0.076603 0.000000
0.772539 0.073204 0.000000
0.808544 0.069854 0.000000
0.844615 0.066553 0.000000
0.880750 0.063300 0.000000
0.916949 0.060095 0.000000
0.953211 0.056937 0.000000
0.989537 0.053825 0.000000
1.000000 0.050761 0.000000
0.000000 0.197665 0.000000
0.000000 0.193125 0.000000
0.000000 0.188648 0.000000
0.000000 0.184232 0.000000
0.017367 0.179877 0.000000
0.052138 0.175582 0.000000
0.086985 0.171346 0.000000
0.121906 0.167169 0.000000
0.156902 0.163049 0.000000
0.191970 0.158985 0.000000
0.227111 0.154978 0.000000
0.262324 0.151026 0.000000
0.297608 0.147129 0.000000
0.332962 0.143286 0.000000
0.368386 0.139496 0.000000
0.403880 0.135760 0.000000
0.439442 0.132076 0.000000
0.475073 0.128443 0.000000
0.510771 0.124862 0.000000
0.546537 0.121332 0.000000
0.582369 0.117852 0.000000
0.618267 0.114422 0.000000
0.654231 0.111041 0.000000
0.690260 0.107709 0.000000
0.726354 0.104426 0.000000
0.762512 0.101190 0.000000
0.798734 0.098002 0.000000
0.835020 0.094861 0.000000
0.871369 0.091767 0.000000
0.907781 0.088719 0.000000
0.944255 0.085717 0.000000
0.980791 0.082761 0.000000
1.000000 0.079850 0.000000
0.000000 0.221702 0.000000
0.000000 0.217369 0.000000
0.000000 0.213096 0.000000
0.000000 0.208881 0.000000
0.003230 0.204725 0.000000
0.038252 0.200625 0.000000
0.073347 0.196582 0.000000
0.108514 0.192595 0.000000
0.143752 0.188663 0.000000
0.179062 0.184786 0.000000
0.214442 0.180963 0.000000
0.249892 0.177192 0.000000
0.285410 0.173475 0.000000
0.320998 0.169810 0.000000
0.356653 0.166196 0.000000
0.392376 0.162634 0.000000
0.428165 0.159122 0.000000
0.464022 0.155660 0.000000
0.499944 0.152248 0.000000
0.535931 0.148885 0.000000
0.571984 0.145571 0.000000
0.608102 0.142305 0.000000
0.644283 0.139086 0.000000
0.680529 0.135915 0.000000
0.716837 0.132792 0.000000
0.753209 0.129714 0.000000
0.789644 0.126683 0.000000
0.826140 0.123698 0.000000
0.862698 0.120758 0.000000
0.899318 0.117864 0.000000
0.935999 0.115014 0.000000
0.972741 0.112208 0.000000
1.000000 0.109447 0.000000
0.000000 0.246424 0.000000
0.000000 0.242288 0.000000
0.000000 0.238209 0.000000
0.000000 0.234187 0.000000
0.000000 0.230220 0.000000
0.025190 0.226308 0.000000
0.060526 0.222450 0.000000
0.095931 0.218646 0.000000
0.131406 0.214896 0.000000
0.166950 0.211197 0.000000
0.202562 0.207551 0.000000
0.238242 0.203956 0.000000
0.273989 0.200412 0.000000
0.309803 0.196918 0.000000
0.345683 0.193475 0.000000
0.381629 0.190081 0.000000
0.417641 0.186735 0.000000
0.453717 0.183439 0.000000
0.489858 0.180190 0.000000
0.526063 0.176989 0.000000
0.562331 0.173835 0.000000
0.598663 0.170728 0.000000
0.635058 0.167668 0.000000
0.671515 0.164654 0.000000
0.708034 0.161685 0.000000
0.744615 0.158762 0.000000
0.781257 0.155884 0.000000
0.817960 0.153050 0.000000
0.854724 0.150261 0.000000
0.891548 0.147515 0.000000
0.928432 0.144813 0.000000
0.965376 0.142155 0.000000
1.000000 0.139539 0.000000
0.000000 0.271799 0.000000
0.000000 0.267852 0.000000
0.000000 0.263960 0.000000
0.000000 0.260122 0.000000
0.000000 0.256337 0.000000
0.012929 0.252606 0.000000
0.048498 0.248926 0.000000
0.084135 0.245299 0.000000
0.119839 0.241722 0.000000
0.155611 0.238197 0.000000
0.191449 0.234721 0.000000
0.227354 0.231296 0.000000
0.263323 0.227919 0.000000
0.299359 0.224592 0.000000
0.335458 0.221313 0.000000
0.371623 0.218082 0.000000
0.407851 0.214898 0.000000
0.444142 0.211761 0.000000
0.480497 0.208671 0.000000
0.516914 0.205628 0.000000
0.553394 0.202630 0.000000
0.589936 0.199678 0.000000
0.626539 0.196771 0.000000
0.663203 0.193909 0.000000
0.699929 0.191092 0.000000
0.736714 0.188318 0.000000
0.773561 0.185589 0.000000
0.810466 0.182903 0.000000
0.847432 0.180260 0.000000
0.884457 0.177660 0.000000
0.921541 0.175103 0.000000
0.958683 0.172588 0.000000
0.995884 0.170115 0.000000
0.000000 0.297800 0.000000
0.000000 0.294035 0.000000
0.000000 0.290323 0.000000
0.000000 0.286662 0.000000
0.000000 0.283053 0.000000
0.001446 0.279495 0.000000
0.037242 0.275988 0.000000
0.073104 0.272531 0.000000
0.109033 0.269123 0.000000
0.145026 0.265765 0.000000
0.181085 0.262455 0.000000
0.217208 0.259193 0.000000
0.253396 0.255980 0.000000
0.289647 0.252813 0.000000
0.325962 0.249694 0.000000
0.362339 0.246621 0.000000
0.398779 0.243594 0.000000
0.435282 0.240613 0.000000
0.471846 0.237677 0.000000
0.508471 0.234787 0.000000
0.545158 0.231941 0.000000
0.581905 0.229140 0.000000
0.618713 0.226382 0.000000
0.655581 0.223669 0.000000
0.692509 0.220998 0.000000
0.729496 0.218371 0.000000
0.766542 0.215787 0.000000
0.803647 0.213245 0.000000
0.840811 0.210745 0.000000
0.878033 0.208288 0.000000
0.915313 0.205871 0.000000
0.952651 0.203497 0.000000
0.990046 0.201163 0.000000
0.000000 0.324405 0.000000
0.000000 0.320815 0.000000
0.000000 0.317275 0.000000
0.000000 0.313786 0.000000
0.000000 0.310347 0.000000
0.000000 0.306958 0.000000
0.026738 0.303617 0.000000
0.062820 0.300325 0.000000
0.098967 0.297080 0.000000
0.135178 0.293884 0.000000
0.171452 0.290734 0.000000
0.207789 0.287632 0.000000
0.244190 0.284576 0.000000
0.280653 0.281566 0.000000
0.317177 0.278601 0.000000
0.353764 0.275682 0.000000
0.390412 0.272808 0.000000
0.427121 0.269978 0.000000
0.463890 0.267193 0.000000
0.500720 0.264452 0.000000
0.537609 0.261754 0.000000
0.574559 0.259099 0.000000
0.611567 0.256488 0.000000
0.648635 0.253919 0.000000
0.685762 0.251393 0.000000
0.722947 0.248908 0.000000
0.760190 0.246466 0.000000
0.797491 0.244065 0.000000
0.834849 0.241705 0.000000
0.872265 0.239386 0.000000
0.909739 0.237108 0.000000
0.947268 0.234870 0.000000
0.984855 0.232672 0.000000
0.000000 0.351591 0.000000
0.000000 0.348170 0.000000
0.000000 0.344798 0.000000
0.000000 0.341475 0.000000
0.000000 0.338200 0.000000
0.000000 0.334974 0.000000
0.016968 0.331794 0.000000
0.053265 0.328662 0.000000
0.089626 0.325576 0.000000
0.126049 0.322537 0.000000
0.162534 0.319544 0.000000
0.199081 0.316596 0.000000
0.235690 0.313693 0.000000
0.272360 0.310835 0.000000
0.309091 0.308022 0.000000
0.345883 0.305253 0.000000
0.382734 0.302527 0.000000
0.419646 0.299845 0.000000
0.456617 0.297206 0.000000
0.493647 0.294610 0.000000
0.530736 0.292057 0.000000
0.567884 0.289546 0.000000
0.605090 0.287077 0.000000
0.642354 0.284649 0.000000
0.679676 0.282263 0.000000
0.717056 0.279918 0.000000
0.754493 0.277614 0.000000
0.791987 0.275351 0.000000
0.829537 0.273128 0.000000
0.867144 0.270945 0.000000
0.904807 0.268802 0.000000
0.942527 0.266698 0.000000
0.980302 0.264634 0.000000
0.000000 0.379340 0.000000
0.000000 0.376083 0.000000
0.000000 0.372873 0.000000
0.000000 0.369711 0.000000
0.000000 0.366596 0.000000
0.000000 0.363527 0.000000
0.007916 0.360505 0.000000
0.044424 0.357528 0.000000
0.080993 0.354596 0.000000
0.117625 0.351710 0.000000
0.154317 0.348868 0.000000
0.191070 0.346071 0.000000
0.227883 0.343318 0.000000
0.264757 0.340608 0.000000
0.301690 0.337942 0.000000
0.338682 0.335319 0.000000
0.375734 0.332738 0.000000
0.412845 0.330200 0.000000
0.450014 0.327705 0.000000
0.487241 0.325251 0.000000
0.524527 0.322838 0.000000
0.561870 0.320467 0.000000
0.599270 0.318137 0.000000
0.636728 0.315848 0.000000
0.674242 0.313599 0.000000
0.711813 0.311391 0.000000
0.749441 0.309222 0.000000
0.787124 0.307094 0.000000
0.824864 0.305005 0.000000
0.862659 0.302955 0.000000
0.900510 0.300944 0.000000
0.938416 0.298972 0.000000
0.976377 0.297039 0.000000
0.000000 0.407634 0.000000
0.000000 0.404536 0.000000
0.000000 0.401484 0.000000
0.000000 0.398478 0.000000
0.000000 0.395518 0.000000
0.000000 0.392603 0.000000
0.000000 0.389733 0.000000
0.036282 0.386907 0.000000
0.073057 0.384126 0.000000
0.109892 0.381389 0.000000
0.146787 0.378695 0.000000
0.183742 0.376044 0.000000
0.220756 0.373437 0.000000
0.257829 0.370872 0.000000
0.294961 0.368349 0.000000
0.332152 0.365869 0.000000
0.369400 0.363430 0.000000
0.406706 0.361033 0.000000
0.444070 0.358677 0.000000
0.481492 0.356362 0.000000
0.518970 0.354087 0.000000
0.556505 0.351853 0.000000
0.594097 0.349659 0.000000
0.631745 0.347505 0.000000
0.669449 0.345391 0.000000
0.707209 0.343316 0.000000
0.745024 0.341281 0.000000
0.782895 0.339284 0.000000
0.820821 0.337326 0.000000
0.858802 0.335407 0.000000
0.896837 0.333526 0.000000
0.934927 0.331683 0.000000
0.973071 0.329878 0.000000
0.000000 0.436458 0.000000
0.000000 0.433514 0.000000
0.000000 0.430615 0.000000
0.000000 0.427761 0.000000
0.000000 0.424952 0.000000
0.000000 0.422187 0.000000
0.000000 0.419465 0.000000
0.028825 0.416787 0.000000
0.065802 0.414153 0.000000
0.102838 0.411561 0.000000
0.139932 0.409011 0.000000
0.177085 0.406504 0.000000
0.214297 0.404039 0.000000
0.251566 0.401615 0.000000
0.288894 0.399233 0.000000
0.326279 0.396892 0.000000
0.363721 0.394591 0.000000
0.401220 0.392332 0.000000
0.438776 0.390112 0.000000
0.476388 0.387933 0.000000
0.514056 0.385794 0.000000
0.551781 0.383694 0.000000
0.589561 0.381633 0.000000
0.627396 0.379612 0.000000
0.665287 0.377630 0.000000
0.703233 0.375686 0.000000
0.741234 0.373780 0.000000
0.779289 0.371913 0.000000
0.817399 0.370084 0.000000
0.855563 0.368293 0.000000
0.893781 0.366539 0.000000
0.932052 0.364823 0.000000
0.970378 0.363144 0.000000
0.000000 0.465796 0.000000
0.000000 0.463003 0.000000
0.000000 0.460254 0.000000
0.000000 0.457548 0.000000
0.000000 0.454886 0.000000
0.000000 0.452267 0.000000
0.000000 0.449690 0.000000
0.022043 0.447156 0.000000
0.059217 0.444664 0.000000
0.096450 0.442214 0.000000
0.133741 0.439805 0.000000
0.171089 0.437438 0.000000
0.208495 0.435112 0.000000
0.245957 0.432826 0.000000
0.283477 0.430582 0.000000
0.321054 0.428377 0.000000
0.358686 0.426212 0.000000
0.396375 0.424087 0.000000
0.434120 0.422002 0.000000
0.471920 0.419955 0.000000
0.509776 0.417948 0.000000
0.547687 0.415980 0.000000
0.585653 0.414050 0.000000
0.623673 0.412159 0.000000
0.661749 0.410305 0.000000
0.699878 0.408490 0.000000
0.738062 0.406712 0.000000
0.776299 0.404972 0.000000
0.814590 0.403270 0.000000
0.852935 0.401604 0.000000
0.891333 0.399975 0.000000
0.929784 0.398383 0.000000
0.968288 0.396828 0.000000
0.000000 0.495636 0.000000
0.000000 0.492990 0.000000
0.000000 0.490386 0.000000
0.000000 0.487825 0.000000
0.000000 0.485306 0.000000
0.000000 0.482830 0.000000
0.000000 0.480395 0.000000
0.015922 0.478001 0.000000
0.053292 0.475649 0.000000
0.090718 0.473338 0.000000
0.128202 0.471067 0.000000
0.165742 0.468837 0.000000
0.203339 0.466647 0.000000
0.240992 0.464496 0.000000
0.278701 0.462386 0.000000
0.316466 0.460315 0.000000
0.354287 0.458283 0.000000
0.392163 0.456290 0.000000
0.430094 0.454335 0.000000
0.468080 0.452420 0.000000
0.506120 0.450542 0.000000
0.544215 0.448703 0.000000
0.582364 0.446901 0.000000
0.620568 0.445137 0.000000
0.658825 0.443411 0.000000
0.697135 0.441721 0.000000
0.735499 0.440069 0.000000
0.773917 0.438454 0.000000
0.812387 0.436875 0.000000
0.850910 0.435333 0.000000
0.889486 0.433827 0.000000
0.928114 0.432357 0.000000
0.966795 0.430923 0.000000
0.000000 0.525966 0.000000
0.000000 0.523462 0.000000
0.000000 0.521001 0.000000
0.000000 0.518581 0.000000
0.000000 0.516203 0.000000
0.000000 0.513865 0.000000
0.000000 0.511569 0.000000
0.010454 0.509313 0.000000
0.048014 0.507097 0.000000
0.085632 0.504922 0.000000
0.123305 0.502786 0.000000
0.161035 0.500690 0.000000
0.198820 0.498633 0.000000
0.236661 0.496615 0.000000
0.274557 0.494636 0.000000
0.312508 0.492696 0.000000
0.350514 0.490794 0.000000
0.388574 0.488930 0.000000
0.426689 0.487105 0.000000
0.464858 0.485317 0.000000
0.503081 0.483567 0.000000
0.541357 0.481854 0.000000
0.579687 0.480178 0.000000
0.618071 0.478539 0.000000
0.656507 0.476937 0.000000
0.694997 0.475372 0.000000
0.733539 0.473843 0.000000
0.772134 0.472350 0.000000
0.810782 0.470893 0.000000
0.849481 0.469472 0.000000
0.888233 0.468087 0.000000
0.927037 0.466737 0.000000
0.965892 0.465423 0.000000
0.000000 0.556773 0.000000
0.000000 0.554410 0.000000
0.000000 0.552087 0.000000
0.000000 0.549805 0.000000
0.000000 0.547564 0.000000
0.000000 0.545363 0.000000
0.000000 0.543202 0.000000
0.005626 0.541081 0.000000
0.043376 0.538999 0.000000
0.081182 0.536956 0.000000
0.119042 0.534953 0.000000
0.156958 0.532988 0.000000
0.194929 0.531062 0.000000
0.232955 0.529174 0.000000
0.271035 0.527324 0.000000
0.309170 0.525512 0.000000
0.347358 0.523738 0.000000
0.385601 0.522001 0.000000
0.423897 0.520302 0.000000
0.462246 0.518640 0.000000
0.500649 0.517014 0.000000
0.539105 0.515426 0.000000
0.577614 0.513874 0.000000
0.616176 0.512358 0.000000
0.654790 0.510878 0.000000
0.693456 0.509434 0.000000
0.732175 0.508026 0.000000
0.770945 0.506654 0.000000
0.809768 0.505317 0.000000
0.848642 0.504016 0.000000
0.887567 0.502749 0.000000
0.926544 0.501518 0.000000
0.965572 0.500321 0.000000
0.000000 0.588047 0.000000
0.000000 0.585821 0.000000
0.000000 0.583634 0.000000
0.000000 0.581488 0.000000
0.000000 0.579381 0.000000
0.000000 0.577313 0.000000
0.000000 0.575285 0.000000
0.001431 0.573295 0.000000
0.039367 0.571345 0.000000
0.077358 0.569432 0.000000
0.115404 0.567558 0.000000
0.153504 0.565722 0.000000
0.191658 0.563924 0.000000
0.229866 0.562164 0.000000
0.268128 0.560441 0.000000
0.306444 0.558755 0.000000
0.344813 0.557106 0.000000
0.383235 0.555494 0.000000
0.421710 0.553919 0.000000
0.460238 0.552380 0.000000
0.498819 0.550877 0.000000
0.537452 0.549411 0.000000
0.576137 0.547980 0.000000
0.614875 0.546585 0.000000
0.653664 0.545226 0.000000
0.692506 0.543902 0.000000
0.731398 0.542613 0.000000
0.770342 0.541359 0.000000
0.809338 0.540140 0.000000
0.848384 0.538956 0.000000
0.887482 0.537807 0.000000
0.926630 0.536691 0.000000
0.965829 0.535610 0.000000
0.000000 0.619778 0.000000
0.000000 0.617686 0.000000
0.000000 0.615633 0.000000
0.000000 0.613619 0.000000
0.000000 0.611643 0.000000
0.000000 0.609707 0.000000
0.000000 0.607808 0.000000
0.000000 0.605948 0.000000
0.035979 0.604126 0.000000
0.074153 0.602342 0.000000
0.112381 0.600595 0.000000
0.150662 0.598885 0.000000
0.188998 0.597213 0.000000
0.227386 0.595578 0.000000
0.265827 0.593979 0.000000
0.304322 0.592417 0.000000
0.342869 0.590891 0.000000
0.381469 0.589402 0.000000
0.420121 0.587948 0.000000
0.458826 0.586531 0.000000
0.497582 0.585149 0.000000
0.536390 0.583802 0.000000
0.575250 0.582491 0.000000
0.614162 0.581215 0.000000
0.653125 0.579974 0.000000
0.692139 0.578768 0.000000
0.731204 0.577596 0.000000
0.770320 0.576459 0.000000
0.809486 0.575356 0.000000
0.848703 0.574288 0.000000
0.887971 0.573253 0.000000
0.927289 0.572252 0.000000
0.966657 0.571285 0.000000
0.000000 0.651957 0.000000
0.000000 0.649996 0.000000
0.000000 0.648073 0.000000
0.000000 0.646189 0.000000
0.000000 0.644343 0.000000
0.000000 0.642534 0.000000
0.000000 0.640764 0.000000
0.000000 0.639031 0.000000
0.033204 0.637335 0.000000
0.071558 0.635676 0.000000
0.109966 0.634054 0.000000
0.148427 0.632469 0.000000
0.186941 0.630920 0.000000
0.225507 0.629407 0.000000
0.264126 0.627931 0.000000
0.302797 0.626491 0.000000
0.341521 0.625086 0.000000
0.380296 0.623717 0.000000
0.419123 0.622383 0.000000
0.458002 0.621085 0.000000
0.496932 0.619822 0.000000
0.535914 0.618593 0.000000
0.574946 0.617400 0.000000
0.614030 0.616241 0.000000
0.653164 0.615116 0.000000
0.692349 0.614026 0.000000
0.731585 0.612969 0.000000
0.770871 0.611947 0.000000
0.810207 0.610959 0.000000
0.849593 0.610004 0.000000
0.889029 0.609083 0.000000
0.928514 0.608195 0.000000
0.968050 0.607340 0.000000
0.000000 0.684575 0.000000
0.000000 0.682743 0.000000
0.000000 0.680948 0.000000
0.000000 0.679191 0.000000
0.000000 0.677471 0.000000
0.000000 0.675789 0.000000
0.000000 0.674144 0.000000
0.000000 0.672535 0.000000
0.031034 0.670963 0.000000
0.069567 0.669427 0.000000
0.108152 0.667928 0.000000
0.146790 0.666465 0.000000
0.185480 0.665038 0.000000
0.224223 0.663646 0.000000
0.263017 0.662290 0.000000
0.301863 0.660969 0.000000
0.340760 0.659684 0.000000
0.379709 0.658433 0.000000
0.418709 0.657217 0.000000
0.457760 0.656036 0.000000
0.496863 0.654890 0.000000
0.536015 0.653778 0.000000
0.575219 0.652700 0.000000
