asset_packs/aokigahara_moss_print/mood/grade_33.cube
TITLE "aokigahara_moss_print mood grade"
# Generated by construction_code_v2/gen_asset_packs.py. Domain: display-referred sRGB in, sRGB out.
LUT_3D_SIZE 5
DOMAIN_MIN 0.0 0.0 0.0
DOMAIN_MAX 1.0 1.0 1.0
0.065290 0.022720 0.000000
0.317462 0.000000 0.000000
0.579059 0.000000 0.000000
0.847303 0.000000 0.000000
1.000000 0.000000 0.000000
0.000000 0.174347 0.000000
0.170879 0.138077 0.000000
0.451491 0.105616 0.000000
0.736599 0.076603 0.000000
1.000000 0.050761 0.000000
0.000000 0.379340 0.000000
0.080993 0.354596 0.000000
0.375734 0.332738 0.000000
0.674242 0.313599 0.000000
0.976377 0.297039 0.000000
0.000000 0.619778 0.000000
0.035979 0.604126 0.000000
0.342869 0.590891 0.000000
0.653125 0.579974 0.000000
0.966657 0.571285 0.000000
0.000000 0.889057 0.000000
0.030330 0.881159 0.000000
0.348205 0.875384 0.000000
0.669181 0.871661 0.000000
0.993195 0.869928 0.000000
0.043289 0.002196 0.286186
0.299332 0.000000 0.235559
0.563349 0.000000 0.190725
0.833589 0.000000 0.149933
1.000000 0.000000 0.112349
0.000000 0.161575 0.135911
0.159526 0.126646 0.099356
0.441700 0.095392 0.065341
0.728268 0.067483 0.033539
1.000000 0.042666 0.003697
0.000000 0.370602 0.022459
0.074530 0.346859 0.000000
0.370567 0.325941 0.000000
0.670322 0.307693 0.000000
0.973659 0.291980 0.000000
0.000000 0.614185 0.000000
0.033691 0.599366 0.000000
0.341734 0.586929 0.000000
0.653112 0.576778 0.000000
0.967738 0.568827 0.000000
0.000000 0.886132 0.000000
0.031804 0.878964 0.000000
0.350739 0.873893 0.000000
0.672753 0.870852 0.000000
0.997786 0.869782 0.000000
0.023013 0.000000 0.580634
0.282094 0.000000 0.532305
0.548351 0.000000 0.488970
0.820493 0.000000 0.449340
1.000000 0.000000 0.412718
0.000000 0.149276 0.435687
0.148716 0.115638 0.400038
0.432415 0.085553 0.366807
0.720414 0.058719 0.335696
1.000000 0.034905 0.306471
0.000000 0.362211 0.324848
0.068513 0.339447 0.296261
0.365829 0.319452 0.269309
0.666814 0.302078 0.243846
0.971342 0.287199 0.219744
0.000000 0.608879 0.234919
0.031798 0.594880 0.211285
0.340984 0.583229 0.188866
0.653474 0.573835 0.167569
0.969185 0.566614 0.147313
0.000000 0.883458 0.160078
0.033640 0.877010 0.140182
0.353628 0.872636 0.121226
0.676674 0.870271 0.103148
1.000000 0.869857 0.085886
0.003933 0.000000 0.876027
0.265669 0.000000 0.829613
0.534027 0.000000 0.787638
0.807994 0.000000 0.749092
1.000000 0.000000 0.713379
0.000000 0.137432 0.735787
0.138436 0.105040 0.700998
0.423625 0.076088 0.668517
0.713029 0.050304 0.638070
1.000000 0.027470 0.609440
0.000000 0.354159 0.627446
0.062937 0.332354 0.599432
0.361514 0.313264 0.573002
0.663715 0.296751 0.548014
0.969421 0.282694 0.524348
0.000000 0.603855 0.539251
0.030296 0.590665 0.516040
0.340614 0.579790 0.494012
0.654207 0.571143 0.473077
0.970995 0.564642 0.453157
0.000000 0.881031 0.465711
0.035836 0.875295 0.446142
0.356870 0.871610 0.427491
0.680940 0.869914 0.409697
1.000000 0.870150 0.392700
0.000000 0.000000 1.000000
0.250000 0.000000 1.000000
0.520347 0.000000 1.000000
0.796072 0.000000 1.000000
1.000000 0.000000 1.000000
0.000000 0.126025 1.000000
0.128672 0.094837 1.000000
0.415320 0.066988 0.970460
0.706105 0.042228 0.940653
1.000000 0.020354 0.912598
0.000000 0.346440 0.930245
0.057794 0.325574 0.902786
0.357617 0.307374 0.876860
0.661021 0.291707 0.852334
0.967891 0.278459 0.829093
0.000000 0.599110 0.843730
0.029183 0.586717 0.820931
0.340622 0.576608 0.799284
0.655309 0.568698 0.778702
0.973166 0.562911 0.759109
0.000000 0.878849 0.771458
0.038390 0.873817 0.752208
0.360461 0.870814 0.733855
0.685550 0.869781 0.716338
1.000000 0.870660 0.699600
