asset_packs/ivy_rootlet_macro/mood/grade_33.cube
TITLE "ivy_rootlet_macro mood grade"
# Generated by construction_code_v2/gen_asset_packs.py. Domain: display-referred sRGB in, sRGB out.
LUT_3D_SIZE 5
DOMAIN_MIN 0.0 0.0 0.0
DOMAIN_MAX 1.0 1.0 1.0
0.094057 0.069653 0.044425
0.281869 0.059900 0.037194
0.476488 0.056634 0.036132
0.674297 0.056240 0.037623
0.874394 0.057815 0.040765
0.074097 0.256615 0.038605
0.274903 0.258782 0.042224
0.477429 0.262351 0.046925
0.681438 0.267084 0.052471
0.886761 0.272812 0.058694
0.083231 0.469061 0.054665
0.289001 0.475120 0.061103
0.495925 0.482013 0.068057
0.703914 0.489654 0.075439
0.912899 0.497970 0.083178
0.107074 0.692606 0.078219
0.316405 0.701154 0.086073
0.526655 0.710300 0.094208
0.737776 0.719999 0.102577
0.949729 0.730210 0.111140
0.142034 0.923659 0.105674
0.354281 0.934049 0.114299
0.567314 0.944905 0.123073
0.781105 0.956201 0.131966
0.995628 0.967909 0.140955
0.088358 0.064816 0.240481
0.279587 0.058372 0.236450
0.475446 0.056239 0.236413
0.674101 0.056582 0.238533
0.874861 0.058711 0.242121
0.074158 0.257174 0.239694
0.275582 0.259851 0.243713
0.478634 0.263838 0.248723
0.683105 0.268924 0.254515
0.888846 0.274961 0.260939
0.085055 0.471019 0.256787
0.291228 0.477372 0.263411
0.498522 0.484528 0.270520
0.706857 0.492405 0.278030
0.916166 0.500937 0.285878
0.110137 0.695439 0.280851
0.319786 0.704195 0.288807
0.530336 0.713534 0.297026
0.741744 0.723411 0.305465
0.953972 0.733789 0.314086
0.146103 0.927133 0.308584
0.358620 0.937685 0.317263
0.571914 0.948694 0.326081
0.785956 0.960132 0.335009
1.000000 0.971975 0.344024
0.084600 0.061885 0.438405
0.277798 0.057301 0.436127
0.474721 0.056122 0.436936
0.674146 0.057128 0.439610
0.875526 0.059769 0.443602
0.074442 0.257920 0.440931
0.276448 0.261070 0.445315
0.480002 0.265450 0.450611
0.684918 0.270874 0.456632
0.891063 0.277207 0.463243
0.087019 0.473080 0.458977
0.293584 0.479717 0.465775
0.501240 0.487126 0.473029
0.709912 0.495232 0.480661
0.919539 0.503974 0.488609
0.113309 0.698344 0.483521
0.323270 0.707304 0.491571
0.534116 0.716830 0.499869
0.745806 0.726881 0.508374
0.958305 0.737421 0.517049
0.150265 0.930663 0.511514
0.363049 0.941374 0.520244
0.576600 0.952531 0.529102
0.790891 0.964110 0.538062
1.000000 0.976086 0.547102
0.081728 0.059801 0.637140
0.276421 0.056604 0.636141
0.474279 0.056253 0.637669
0.674415 0.057860 0.640837
0.876379 0.060978 0.645196
0.074935 0.258837 0.642303
0.277492 0.262430 0.647022
0.481526 0.267183 0.652582
0.686873 0.272929 0.658817
0.893410 0.279545 0.665603
0.089121 0.475242 0.661229
0.296065 0.482150 0.668192
0.504074 0.489804 0.675581
0.713077 0.498132 0.683327
0.923016 0.507078 0.691371
0.116590 0.701320 0.686224
0.326856 0.710477 0.694364
0.537994 0.720186 0.702736
0.749962 0.730407 0.711303
0.962727 0.741106 0.720029
0.154519 0.934249 0.714463
0.367567 0.945114 0.723239
0.581371 0.956417 0.732135
0.795908 0.968133 0.741124
1.000000 0.980239 0.750185
0.079476 0.058302 0.836422
0.275398 0.056225 0.836436
0.474098 0.056607 0.838589
0.674893 0.058766 0.842200
0.877411 0.062328 0.846896
0.075625 0.259915 0.843799
0.278705 0.263924 0.848826
0.483202 0.269029 0.854631
0.688965 0.275083 0.861065
0.895883 0.281972 0.868016
0.091355 0.477499 0.863541
0.298670 0.484670 0.870657
0.507024 0.492560 0.878175
0.716350 0.501104 0.886028
0.926595 0.510247 0.894161
0.119976 0.704366 0.888959
0.330543 0.713715 0.897183
0.541967 0.723602 0.905626
0.754209 0.733989 0.914250
0.967238 0.744843 0.923023
0.158863 0.937888 0.917428
0.372171 0.948905 0.926248
0.586227 0.960351 0.935178
0.801007 0.972202 0.944195
1.000000 0.984436 0.953275
