asset_packs/ivy_rootlet_macro/mood/grade_33.cube
TITLE "ivy_rootlet_macro mood grade"
# Generated by construction_code_v2/gen_asset_packs.py. Domain: display-referred sRGB in, sRGB out.
LUT_3D_SIZE 33
DOMAIN_MIN 0.0 0.0 0.0
DOMAIN_MAX 1.0 1.0 1.0
0.094057 0.069653 0.044425
0.116504 0.067422 0.042527
0.139568 0.065803 0.041235
0.162910 0.064457 0.040212
0.186445 0.063298 0.039371
0.210131 0.062286 0.038671
0.233941 0.061393 0.038086
0.257858 0.060602 0.037598
0.281869 0.059900 0.037194
0.305965 0.059277 0.036865
0.330137 0.058726 0.036602
0.354379 0.058241 0.036399
0.378687 0.057815 0.036251
0.403055 0.057445 0.036154
0.427480 0.057127 0.036104
0.451958 0.056858 0.036098
0.476488 0.056634 0.036132
0.501065 0.056454 0.036205
0.525689 0.056314 0.036314
0.550356 0.056214 0.036456
0.575066 0.056151 0.036632
0.599817 0.056123 0.036837
0.624606 0.056130 0.037072
0.649433 0.056169 0.037334
0.674297 0.056240 0.037623
0.699196 0.056341 0.037938
0.724129 0.056471 0.038276
0.749095 0.056630 0.038638
0.774094 0.056815 0.039022
0.799124 0.057028 0.039428
0.824184 0.057266 0.039854
0.849275 0.057528 0.040300
0.874394 0.057815 0.040765
0.087357 0.089016 0.039887
0.110951 0.087915 0.039102
0.134684 0.086948 0.038446
0.158535 0.086094 0.037898
0.182488 0.085337 0.037442
0.206531 0.084665 0.037066
0.230655 0.084069 0.036761
0.254853 0.083542 0.036521
0.279120 0.083079 0.036339
0.303450 0.082674 0.036210
0.327839 0.082324 0.036131
0.352284 0.082024 0.036097
0.376781 0.081771 0.036106
0.401328 0.081563 0.036154
0.425923 0.081398 0.036240
0.450563 0.081273 0.036362
0.475246 0.081187 0.036517
0.499971 0.081137 0.036703
0.524735 0.081122 0.036919
0.549539 0.081141 0.037164
0.574379 0.081191 0.037437
0.599256 0.081273 0.037735
0.624167 0.081385 0.038058
0.649113 0.081526 0.038405
0.674091 0.081694 0.038775
0.699101 0.081890 0.039167
0.724142 0.082111 0.039581
0.749214 0.082358 0.040014
0.774315 0.082630 0.040467
0.799445 0.082926 0.040939
0.824603 0.083244 0.041430
0.849789 0.083586 0.041938
0.875002 0.083949 0.042463
0.083142 0.110808 0.037722
0.107129 0.110083 0.037296
0.131203 0.109439 0.036947
0.155355 0.108870 0.036667
0.179579 0.108367 0.036448
0.203869 0.107925 0.036286
0.228221 0.107540 0.036176
0.252631 0.107209 0.036113
0.277095 0.106926 0.036095
0.301611 0.106690 0.036119
0.326175 0.106499 0.036181
0.350787 0.106348 0.036281
0.375442 0.106238 0.036414
0.400141 0.106164 0.036581
0.424881 0.106127 0.036778
0.449659 0.106125 0.037005
0.474477 0.106155 0.037260
0.499330 0.106218 0.037542
0.524220 0.106311 0.037850
0.549144 0.106433 0.038182
0.574101 0.106584 0.038537
0.599091 0.106762 0.038916
0.624112 0.106967 0.039315
0.649165 0.107198 0.039736
0.674247 0.107454 0.040177
0.699359 0.107735 0.040637
0.724499 0.108039 0.041116
0.749668 0.108366 0.041613
0.774864 0.108716 0.042127
0.800086 0.109087 0.042658
0.825335 0.109480 0.043206
0.850610 0.109893 0.043769
0.875910 0.110327 0.044348
0.080064 0.133679 0.036580
0.104313 0.133199 0.036383
0.128626 0.132779 0.036240
0.152999 0.132414 0.036148
0.177429 0.132100 0.036102
0.201913 0.131835 0.036099
0.226447 0.131616 0.036137
0.251029 0.131439 0.036213
0.275656 0.131303 0.036325
0.300328 0.131207 0.036471
0.325042 0.131147 0.036649
0.349796 0.131123 0.036858
0.374589 0.131132 0.037095
0.399419 0.131174 0.037360
0.424286 0.131248 0.037651
0.449188 0.131352 0.037968
0.474124 0.131485 0.038309
0.499094 0.131646 0.038673
0.524095 0.131834 0.039059
0.549128 0.132049 0.039466
0.574191 0.132289 0.039894
0.599284 0.132554 0.040342
0.624407 0.132843 0.040809
0.649557 0.133155 0.041295
0.674736 0.133491 0.041798
0.699942 0.133848 0.042319
0.725174 0.134227 0.042856
0.750432 0.134628 0.043409
0.775716 0.135049 0.043978
0.801025 0.135490 0.044562
0.826359 0.135950 0.045161
0.851717 0.136430 0.045774
0.877099 0.136929 0.046401
0.077785 0.157294 0.036126
0.102235 0.156998 0.036096
0.126737 0.156750 0.036109
0.151289 0.156546 0.036161
0.175888 0.156385 0.036250
0.200532 0.156264 0.036375
0.225219 0.156181 0.036532
0.249947 0.156134 0.036722
0.274716 0.156122 0.036941
0.299523 0.156144 0.037188
0.324366 0.156198 0.037463
0.349246 0.156282 0.037764
0.374161 0.156397 0.038089
0.399109 0.156540 0.038438
0.424090 0.156711 0.038811
0.449103 0.156909 0.039205
0.474147 0.157133 0.039620
0.499222 0.157382 0.040055
0.524326 0.157656 0.040510
0.549458 0.157954 0.040984
0.574619 0.158275 0.041476
0.599808 0.158618 0.041986
0.625023 0.158984 0.042512
0.650265 0.159371 0.043055
0.675533 0.159779 0.043614
0.700826 0.160207 0.044189
0.726144 0.160655 0.044778
0.751486 0.161123 0.045383
0.776853 0.161609 0.046001
0.802243 0.162115 0.046632
0.827657 0.162638 0.047277
0.853093 0.163180 0.047935
0.878552 0.163739 0.048606
0.076138 0.181483 0.036189
0.100753 0.181336 0.036292
0.125413 0.181229 0.036428
0.150115 0.181160 0.036598
0.174859 0.181126 0.036798
0.199641 0.181126 0.037028
0.224462 0.181160 0.037285
0.249319 0.181225 0.037570
0.274211 0.181321 0.037879
0.299138 0.181446 0.038214
0.324099 0.181599 0.038571
0.349091 0.181780 0.038952
0.374116 0.181988 0.039353
0.399171 0.182221 0.039776
0.424256 0.182479 0.040218
0.449371 0.182762 0.040680
0.474514 0.183068 0.041161
0.499685 0.183397 0.041659
0.524883 0.183749 0.042175
0.550108 0.184122 0.042708
0.575359 0.184517 0.043257
0.600637 0.184932 0.043822
0.625939 0.185368 0.044402
0.651266 0.185823 0.044997
0.676617 0.186298 0.045606
0.701992 0.186791 0.046229
0.727391 0.187303 0.046866
0.752813 0.187834 0.047516
0.778258 0.188382 0.048178
0.803725 0.188947 0.048853
0.829214 0.189529 0.049540
0.854724 0.190128 0.050239
0.880256 0.190744 0.050949
0.075017 0.206143 0.036667
0.099775 0.206122 0.036878
0.124571 0.206135 0.037118
0.149405 0.206180 0.037386
0.174275 0.206256 0.037679
0.199181 0.206363 0.037998
0.224120 0.206498 0.038341
0.249092 0.206662 0.038707
0.274097 0.206853 0.039095
0.299132 0.207070 0.039505
0.324199 0.207312 0.039935
0.349295 0.207579 0.040384
0.374419 0.207871 0.040853
0.399573 0.208185 0.041340
0.424754 0.208523 0.041845
0.449962 0.208882 0.042367
0.475197 0.209263 0.042906
0.500457 0.209666 0.043461
0.525744 0.210088 0.044031
0.551055 0.210531 0.044617
0.576391 0.210994 0.045217
0.601751 0.211475 0.045831
0.627135 0.211976 0.046459
0.652542 0.212494 0.047101
0.677972 0.213031 0.047755
0.703425 0.213585 0.048422
0.728900 0.214157 0.049102
0.754397 0.214746 0.049793
0.779916 0.215351 0.050496
0.805455 0.215972 0.051211
0.831016 0.216610 0.051936
0.856598 0.217263 0.052672
0.882200 0.217931 0.053419
0.074354 0.231204 0.037490
0.099237 0.231292 0.037793
0.124155 0.231409 0.038120
0.149106 0.231555 0.038472
0.174090 0.231728 0.038846
0.199106 0.231929 0.039242
0.224153 0.232155 0.039659
0.249230 0.232407 0.040096
0.274337 0.232683 0.040553
0.299472 0.232983 0.041028
0.324635 0.233306 0.041522
0.349826 0.233651 0.042033
0.375044 0.234019 0.042562
0.400289 0.234407 0.043106
0.425559 0.234817 0.043667
0.450854 0.235247 0.044243
0.476174 0.235697 0.044834
0.501519 0.236167 0.045439
0.526888 0.236655 0.046058
0.552281 0.237162 0.046691
0.577696 0.237688 0.047338
0.603135 0.238231 0.047997
0.628595 0.238792 0.048668
0.654079 0.239369 0.049352
0.679583 0.239964 0.050048
0.705110 0.240575 0.050755
0.730657 0.241202 0.051473
0.756226 0.241846 0.052203
0.781815 0.242504 0.052943
0.807424 0.243179 0.053693
0.833053 0.243868 0.054453
0.858702 0.244572 0.055223
0.884371 0.245291 0.056003
0.074097 0.256615 0.038605
0.099092 0.256798 0.038988
0.124120 0.257008 0.039391
0.149178 0.257244 0.039816
0.174266 0.257504 0.040260
0.199383 0.257789 0.040724
0.224528 0.258098 0.041206
0.249702 0.258429 0.041706
0.274903 0.258782 0.042224
0.300130 0.259158 0.042758
0.325384 0.259554 0.043309
0.350663 0.259971 0.043875
0.375968 0.260409 0.044456
0.401297 0.260866 0.045052
0.426651 0.261342 0.045663
0.452028 0.261838 0.046287
0.477429 0.262351 0.046925
0.502853 0.262883 0.047576
0.528300 0.263433 0.048240
0.553769 0.264000 0.048916
0.579260 0.264584 0.049604
0.604773 0.265185 0.050304
0.630307 0.265802 0.051015
0.655862 0.266435 0.051738
0.681438 0.267084 0.052471
0.707034 0.267748 0.053215
0.732651 0.268428 0.053969
0.758287 0.269122 0.054733
0.783944 0.269832 0.055506
0.809619 0.270556 0.056290
0.835314 0.271294 0.057082
0.861028 0.272046 0.057884
0.886761 0.272812 0.058694
0.074206 0.282336 0.039975
0.099305 0.282605 0.040427
0.124432 0.282899 0.040897
0.149588 0.283215 0.041386
0.174772 0.283555 0.041893
0.199982 0.283917 0.042416
0.225220 0.284300 0.042957
0.250483 0.284704 0.043513
0.275771 0.285128 0.044085
0.301085 0.285573 0.044671
0.326423 0.286037 0.045273
0.351785 0.286521 0.045889
0.377172 0.287023 0.046518
0.402581 0.287543 0.047161
0.428013 0.288081 0.047816
0.453468 0.288637 0.048485
0.478945 0.289211 0.049165
0.504444 0.289801 0.049858
0.529965 0.290407 0.050562
0.555506 0.291030 0.051277
0.581069 0.291669 0.052003
0.606652 0.292324 0.052740
0.632256 0.292994 0.053488
0.657880 0.293679 0.054246
0.683524 0.294379 0.055013
0.709187 0.295094 0.055790
0.734870 0.295823 0.056577
0.760572 0.296566 0.057373
0.786293 0.297323 0.058178
0.812033 0.298094 0.058991
0.837791 0.298879 0.059813
0.863567 0.299677 0.060644
0.889362 0.300487 0.061483
0.074652 0.308336 0.041569
0.099845 0.308684 0.042081
0.125066 0.309054 0.042611
0.150312 0.309444 0.043157
0.175585 0.309856 0.043719
0.200883 0.310288 0.044297
0.226205 0.310740 0.044889
0.251552 0.311211 0.045495
0.276923 0.311701 0.046116
0.302318 0.312210 0.046750
0.327736 0.312737 0.047398
0.353176 0.313282 0.048058
0.378639 0.313844 0.048731
0.404124 0.314423 0.049416
0.429631 0.315020 0.050113
0.455159 0.315632 0.050821
0.480709 0.316261 0.051540
0.506279 0.316906 0.052270
0.531870 0.317566 0.053011
0.557481 0.318242 0.053763
0.583112 0.318932 0.054524
0.608763 0.319638 0.055295
0.634434 0.320358 0.056076
0.660124 0.321092 0.056866
0.685832 0.321840 0.057665
0.711560 0.322602 0.058473
0.737307 0.323378 0.059290
0.763071 0.324168 0.060115
0.788854 0.324970 0.060948
0.814656 0.325786 0.061790
0.840474 0.326614 0.062639
0.866311 0.327456 0.063496
0.892165 0.328309 0.064361
0.075409 0.334592 0.043360
0.100690 0.335011 0.043928
0.125997 0.335450 0.044510
0.151329 0.335909 0.045108
0.176685 0.336387 0.045720
0.202064 0.336884 0.046345
0.227467 0.337400 0.046985
0.252893 0.337933 0.047637
0.278342 0.338485 0.048302
0.303813 0.339053 0.048979
0.329306 0.339639 0.049668
0.354821 0.340241 0.050369
0.380357 0.340859 0.051081
0.405914 0.341494 0.051805
0.431492 0.342144 0.052539
0.457090 0.342810 0.053284
0.482709 0.343491 0.054039
0.508347 0.344187 0.054803
0.534005 0.344898 0.055578
0.559683 0.345623 0.056362
0.585379 0.346363 0.057156
0.611095 0.347116 0.057958
0.636830 0.347883 0.058769
0.662583 0.348664 0.059589
0.688354 0.349458 0.060417
0.714144 0.350266 0.061254
0.739952 0.351086 0.062098
0.765777 0.351919 0.062950
0.791620 0.352765 0.063810
0.817480 0.353623 0.064678
0.843358 0.354494 0.065552
0.869253 0.355376 0.066434
0.895164 0.356271 0.067323
0.076456 0.361081 0.045329
0.101820 0.361566 0.045946
0.127208 0.362070 0.046577
0.152620 0.362592 0.047220
0.178054 0.363132 0.047877
0.203511 0.363690 0.048547
0.228990 0.364264 0.049228
0.254491 0.364856 0.049922
0.280014 0.365464 0.050627
0.305557 0.366089 0.051343
0.331122 0.366729 0.052071
0.356707 0.367385 0.052809
0.382313 0.368056 0.053557
0.407939 0.368743 0.054316
0.433584 0.369444 0.055084
0.459250 0.370160 0.055862
0.484934 0.370891 0.056650
0.510638 0.371635 0.057447
0.536361 0.372394 0.058252
0.562102 0.373166 0.059067
0.587862 0.373952 0.059890
0.613640 0.374751 0.060721
0.639436 0.375563 0.061560
0.665250 0.376388 0.062408
0.691082 0.377226 0.063263
0.716931 0.378076 0.064125
0.742798 0.378939 0.064995
0.768682 0.379813 0.065872
0.794583 0.380700 0.066757
0.820500 0.381599 0.067648
0.846435 0.382510 0.068546
0.872386 0.383432 0.069450
0.898353 0.384365 0.070361
0.077775 0.387786 0.047458
0.103218 0.388333 0.048120
0.128683 0.388897 0.048794
0.154170 0.389478 0.049480
0.179679 0.390075 0.050177
0.205209 0.390690 0.050887
0.230760 0.391320 0.051607
0.256333 0.391966 0.052338
0.281925 0.392628 0.053080
0.307538 0.393305 0.053832
0.333171 0.393997 0.054595
0.358824 0.394703 0.055367
0.384497 0.395425 0.056148
0.410188 0.396160 0.056939
0.435899 0.396910 0.057739
0.461628 0.397673 0.058548
0.487376 0.398451 0.059365
0.513143 0.399241 0.060191
0.538928 0.400045 0.061026
0.564730 0.400862 0.061868
0.590551 0.401691 0.062718
0.616389 0.402534 0.063576
0.642245 0.403389 0.064441
0.668118 0.404256 0.065314
0.694008 0.405135 0.066194
0.719915 0.406026 0.067080
0.745839 0.406929 0.067974
0.771779 0.407844 0.068874
0.797736 0.408770 0.069781
0.823710 0.409708 0.070694
0.849699 0.410657 0.071614
0.875705 0.411617 0.072540
0.901726 0.412587 0.073471
0.079353 0.414693 0.049732
0.104869 0.415297 0.050434
0.130407 0.415917 0.051148
0.155966 0.416553 0.051872
0.181546 0.417205 0.052607
0.207146 0.417872 0.053353
0.232767 0.418555 0.054109
0.258407 0.419252 0.054874
0.284067 0.419964 0.055650
0.309746 0.420691 0.056435
0.335445 0.421432 0.057229
0.361162 0.422186 0.058032
0.386898 0.422955 0.058844
0.412653 0.423737 0.059665
0.438426 0.424532 0.060494
0.464218 0.425341 0.061331
0.490027 0.426162 0.062176
0.515854 0.426997 0.063029
0.541699 0.427844 0.063890
0.567561 0.428703 0.064758
0.593440 0.429574 0.065633
0.619336 0.430458 0.066516
0.645249 0.431354 0.067405
0.671179 0.432261 0.068301
0.697126 0.433180 0.069204
0.723089 0.434110 0.070113
0.749068 0.435052 0.071028
0.775063 0.436005 0.071950
0.801075 0.436969 0.072878
0.827102 0.437944 0.073812
0.853145 0.438929 0.074751
0.879204 0.439925 0.075696
0.905278 0.440932 0.076647
0.081175 0.441789 0.052138
0.106762 0.442446 0.052877
0.132370 0.443119 0.053627
0.157997 0.443807 0.054386
0.183645 0.444510 0.055156
0.209312 0.445227 0.055935
0.234998 0.445959 0.056723
0.260704 0.446705 0.057521
0.286428 0.447464 0.058327
0.312171 0.448238 0.059142
0.337933 0.449025 0.059966
0.363712 0.449825 0.060798
0.389510 0.450638 0.061638
0.415326 0.451465 0.062486
0.441159 0.452304 0.063342
0.467010 0.453155 0.064205
0.492879 0.454019 0.065076
0.518764 0.454895 0.065954
0.544667 0.455783 0.066839
0.570586 0.456683 0.067730
0.596522 0.457594 0.068629
0.622474 0.458517 0.069534
0.648443 0.459452 0.070446
0.674428 0.460398 0.071363
0.700430 0.461355 0.072287
0.726447 0.462322 0.073217
0.752480 0.463301 0.074153
0.778529 0.464291 0.075095
0.804593 0.465291 0.076042
0.830673 0.466301 0.076995
0.856768 0.467322 0.077953
0.882878 0.468353 0.078916
0.909004 0.469394 0.079884
0.083231 0.469061 0.054665
0.108885 0.469769 0.055438
0.134560 0.470492 0.056221
0.160253 0.471229 0.057012
0.185965 0.471980 0.057813
0.211696 0.472744 0.058623
0.237446 0.473523 0.059441
0.263214 0.474315 0.060268
0.289001 0.475120 0.061103
0.314805 0.475938 0.061946
0.340627 0.476769 0.062797
0.366467 0.477612 0.063655
0.392325 0.478468 0.064521
0.418199 0.479336 0.065395
0.444091 0.480217 0.066275
0.469999 0.481109 0.067162
0.495925 0.482013 0.068057
0.521867 0.482929 0.068958
0.547825 0.483856 0.069865
0.573800 0.484795 0.070779
0.599791 0.485745 0.071699
0.625798 0.486706 0.072625
0.651821 0.487678 0.073557
0.677860 0.488660 0.074495
0.703914 0.489654 0.075439
0.729984 0.490657 0.076388
0.756070 0.491672 0.077343
0.782170 0.492696 0.078303
0.808286 0.493731 0.079268
0.834417 0.494776 0.080238
0.860563 0.495831 0.081213
0.886724 0.496896 0.082194
0.912899 0.497970 0.083178
0.085510 0.496501 0.057303
0.111229 0.497257 0.058107
0.136967 0.498026 0.058920
0.162724 0.498810 0.059741
0.188499 0.499606 0.060571
0.214292 0.500416 0.061409
0.240103 0.501239 0.062255
0.265931 0.502074 0.063108
0.291777 0.502922 0.063970
0.317641 0.503783 0.064838
0.343522 0.504655 0.065714
0.369420 0.505540 0.066597
0.395334 0.506437 0.067487
0.421266 0.507345 0.068384
0.447214 0.508265 0.069287
0.473178 0.509197 0.070197
0.499159 0.510139 0.071113
0.525156 0.511093 0.072035
0.551169 0.512058 0.072964
0.577198 0.513034 0.073898
0.603242 0.514021 0.074838
0.629302 0.515018 0.075784
0.655378 0.516025 0.076735
0.681469 0.517044 0.077692
0.707575 0.518072 0.078654
0.733696 0.519110 0.079621
0.759833 0.520159 0.080593
0.785984 0.521217 0.081570
0.812150 0.522286 0.082552
0.838331 0.523363 0.083538
0.864526 0.524451 0.084529
0.890736 0.525548 0.085525
0.916960 0.526655 0.086525
0.088004 0.524098 0.060042
0.113785 0.524900 0.060875
0.139585 0.525714 0.061716
0.165402 0.526541 0.062565
0.191237 0.527382 0.063421
0.217090 0.528234 0.064285
0.242960 0.529099 0.065156
0.268847 0.529976 0.066035
0.294751 0.530865 0.066920
0.320671 0.531766 0.067813
0.346609 0.532679 0.068712
0.372563 0.533603 0.069618
0.398533 0.534539 0.070530
0.424520 0.535485 0.071448
0.450523 0.536443 0.072373
0.476541 0.537412 0.073303
0.502576 0.538392 0.074240
0.528626 0.539382 0.075182
0.554692 0.540383 0.076129
0.580773 0.541395 0.077083
0.606870 0.542417 0.078041
0.632981 0.543449 0.079005
0.659108 0.544491 0.079974
0.685250 0.545543 0.080948
0.711407 0.546605 0.081927
0.737578 0.547677 0.082910
0.763764 0.548758 0.083899
0.789965 0.549849 0.084891
0.816180 0.550950 0.085889
0.842409 0.552060 0.086891
0.868653 0.553179 0.087897
0.894911 0.554307 0.088907
0.921183 0.555444 0.089921
0.090704 0.551846 0.062876
0.116546 0.552690 0.063735
0.142404 0.553548 0.064601
0.168281 0.554417 0.065475
0.194174 0.555298 0.066357
0.220084 0.556192 0.067245
0.246011 0.557097 0.068139
0.271954 0.558014 0.069041
0.297914 0.558942 0.069949
0.323891 0.559882 0.070864
0.349883 0.560833 0.071784
0.375892 0.561795 0.072711
0.401916 0.562768 0.073644
0.427957 0.563751 0.074582
0.454012 0.564746 0.075526
0.480084 0.565750 0.076476
0.506171 0.566766 0.077431
0.532273 0.567791 0.078391
0.558390 0.568827 0.079357
0.584522 0.569873 0.080328
0.610669 0.570929 0.081304
0.636832 0.571994 0.082284
0.663008 0.573069 0.083270
0.689200 0.574154 0.084260
0.715406 0.575249 0.085254
0.741626 0.576353 0.086253
0.767860 0.577466 0.087256
0.794109 0.578588 0.088264
0.820372 0.579720 0.089276
0.846649 0.580861 0.090291
0.872940 0.582010 0.091311
0.899245 0.583169 0.092335
0.925563 0.584336 0.093362
0.093604 0.579736 0.065795
0.119503 0.580622 0.066679
0.145419 0.581520 0.067570
0.171352 0.582430 0.068467
0.197302 0.583351 0.069371
0.223268 0.584283 0.070281
0.249250 0.585227 0.071198
0.275249 0.586182 0.072121
0.301263 0.587148 0.073050
0.327293 0.588125 0.073985
0.353339 0.589112 0.074925
0.379401 0.590110 0.075871
0.405478 0.591119 0.076823
0.431570 0.592138 0.077780
0.457678 0.593167 0.078742
0.483800 0.594207 0.079710
0.509938 0.595256 0.080683
0.536091 0.596315 0.081660
0.562258 0.597385 0.082642
0.588440 0.598463 0.083629
0.614637 0.599552 0.084621
0.640848 0.600650 0.085617
0.667074 0.601757 0.086618
0.693313 0.602874 0.087623
0.719567 0.603999 0.088632
0.745835 0.605134 0.089645
0.772118 0.606278 0.090662
0.798413 0.607431 0.091684
0.824723 0.608593 0.092709
0.851047 0.609763 0.093737
0.877384 0.610942 0.094770
0.903735 0.612130 0.095806
0.930099 0.613326 0.096846
0.096696 0.607764 0.068795
0.122652 0.608689 0.069702
0.148624 0.609625 0.070614
0.174612 0.610573 0.071533
0.200616 0.611532 0.072458
0.226636 0.612502 0.073389
0.252672 0.613483 0.074326
0.278724 0.614474 0.075269
0.304791 0.615476 0.076217
0.330874 0.616489 0.077171
0.356972 0.617511 0.078130
0.383085 0.618544 0.079094
0.409213 0.619588 0.080063
0.435356 0.620641 0.081038
0.461514 0.621703 0.082017
0.487687 0.622776 0.083001
0.513874 0.623859 0.083990
0.540076 0.624950 0.084983
0.566293 0.626052 0.085981
0.592523 0.627162 0.086983
0.618768 0.628282 0.087990
0.645027 0.629412 0.089000
0.671301 0.630550 0.090015
0.697588 0.631697 0.091034
0.723889 0.632853 0.092056
0.750203 0.634018 0.093083
0.776532 0.635191 0.094113
0.802874 0.636374 0.095147
0.829230 0.637564 0.096184
0.855599 0.638764 0.097225
0.881981 0.639971 0.098269
0.908377 0.641187 0.099317
0.934786 0.642411 0.100368
0.099976 0.635921 0.071869
0.125986 0.636884 0.072797
0.152012 0.637858 0.073730
0.178053 0.638843 0.074669
0.204111 0.639838 0.075613
0.230183 0.640844 0.076564
0.256272 0.641860 0.077519
0.282375 0.642886 0.078480
0.308494 0.643923 0.079446
0.334627 0.644970 0.080418
0.360776 0.646026 0.081394
0.386939 0.647093 0.082375
0.413117 0.648169 0.083361
0.439310 0.649255 0.084351
0.465517 0.650350 0.085346
0.491739 0.651455 0.086345
0.517975 0.652569 0.087349
0.544225 0.653692 0.088357
0.570489 0.654825 0.089369
0.596768 0.655966 0.090385
0.623060 0.657117 0.091405
0.649366 0.658276 0.092430
0.675686 0.659444 0.093457
0.702019 0.660621 0.094489
0.728366 0.661806 0.095524
0.754727 0.663000 0.096563
0.781101 0.664202 0.097605
0.807488 0.665413 0.098650
0.833888 0.666632 0.099699
0.860302 0.667859 0.100751
0.886729 0.669094 0.101807
0.913169 0.670338 0.102865
0.939622 0.671589 0.103926
0.103436 0.664204 0.075012
0.129499 0.665203 0.075959
0.155578 0.666212 0.076911
0.181672 0.667232 0.077869
0.207781 0.668263 0.078831
0.233905 0.669303 0.079799
0.260044 0.670353 0.080772
0.286198 0.671414 0.081750
0.312367 0.672484 0.082733
0.338550 0.673563 0.083721
0.364748 0.674653 0.084713
0.390961 0.675751 0.085709
0.417187 0.676860 0.086710
0.443428 0.677977 0.087716
0.469684 0.679104 0.088725
0.495953 0.680239 0.089739
0.522236 0.681384 0.090756
0.548534 0.682538 0.091778
0.574845 0.683700 0.092803
0.601169 0.684871 0.093832
0.627508 0.686051 0.094865
0.653860 0.687240 0.095902
0.680225 0.688437 0.096942
0.706604 0.689642 0.097985
0.732996 0.690856 0.099032
0.759402 0.692078 0.100082
0.785820 0.693308 0.101135
0.812252 0.694546 0.102192
0.838697 0.695792 0.103251
0.865154 0.697046 0.104313
0.891625 0.698309 0.105379
0.918108 0.699578 0.106447
0.944604 0.700856 0.107518
0.107074 0.692606 0.078219
0.133188 0.693640 0.079183
0.159318 0.694684 0.080153
0.185462 0.695738 0.081128
0.211622 0.696802 0.082108
0.237796 0.697876 0.083092
0.263984 0.698959 0.084081
0.290188 0.700052 0.085075
0.316405 0.701154 0.086073
0.342638 0.702265 0.087076
0.368884 0.703386 0.088083
0.395144 0.704516 0.089094
0.421419 0.705655 0.090109
0.447707 0.706803 0.091128
0.474009 0.707960 0.092151
0.500325 0.709126 0.093178
0.526655 0.710300 0.094208
0.552998 0.711483 0.095242
0.579355 0.712675 0.096280
0.605726 0.713875 0.097321
0.632109 0.715083 0.098366
0.658506 0.716300 0.099414
0.684917 0.717524 0.100465
0.711340 0.718758 0.101519
0.737776 0.719999 0.102577
0.764226 0.721248 0.103637
0.790688 0.722505 0.104701
0.817163 0.723770 0.105767
0.843651 0.725043 0.106836
0.870152 0.726323 0.107908
0.896665 0.727611 0.108983
0.923191 0.728907 0.110060
0.949729 0.730210 0.111140
0.110883 0.721124 0.081484
0.137047 0.722192 0.082466
0.163227 0.723269 0.083452
0.189421 0.724356 0.084443
0.215629 0.725452 0.085438
0.241852 0.726557 0.086438
0.268090 0.727672 0.087442
0.294341 0.728796 0.088450
0.320607 0.729930 0.089463
0.346886 0.731072 0.090479
0.373180 0.732223 0.091500
0.399487 0.733383 0.092524
0.425808 0.734552 0.093552
0.452143 0.735730 0.094584
0.478491 0.736916 0.095620
0.504853 0.738110 0.096659
0.531228 0.739313 0.097701
0.557616 0.740525 0.098747
0.584018 0.741745 0.099796
0.610433 0.742972 0.100849
0.636861 0.744208 0.101904
0.663302 0.745453 0.102963
0.689757 0.746705 0.104024
0.716224 0.747965 0.105089
0.742703 0.749232 0.106156
0.769196 0.750508 0.107226
0.795701 0.751791 0.108299
0.822219 0.753082 0.109375
0.848750 0.754381 0.110453
0.875293 0.755687 0.111534
0.901848 0.757000 0.112617
0.928416 0.758321 0.113703
0.954996 0.759649 0.114791
0.114859 0.749754 0.084804
0.141073 0.750853 0.085801
0.167301 0.751962 0.086803
0.193544 0.753080 0.087808
0.219800 0.754208 0.088818
0.246071 0.755345 0.089832
0.272355 0.756490 0.090850
0.298654 0.757645 0.091872
0.324966 0.758808 0.092898
0.351292 0.759980 0.093928
0.377632 0.761160 0.094961
0.403985 0.762350 0.095998
0.430352 0.763547 0.097038
0.456732 0.764754 0.098082
0.483125 0.765968 0.099129
0.509532 0.767191 0.100179
0.535952 0.768422 0.101232
0.562384 0.769660 0.102289
0.588830 0.770907 0.103349
0.615289 0.772162 0.104411
0.641761 0.773425 0.105477
0.668245 0.774696 0.106545
0.694743 0.775974 0.107617
