asset_packs/ivy_rootlet_macro/mood/grade_33.cube
TITLE "ivy_rootlet_macro mood grade"
# Generated by construction_code_v2/gen_asset_packs.py. Domain: display-referred sRGB in, sRGB out.
LUT_3D_SIZE 9
DOMAIN_MIN 0.0 0.0 0.0
DOMAIN_MAX 1.0 1.0 1.0
0.094057 0.069653 0.044425
0.186445 0.063298 0.039371
0.281869 0.059900 0.037194
0.378687 0.057815 0.036251
0.476488 0.056634 0.036132
0.575066 0.056151 0.036632
0.674297 0.056240 0.037623
0.774094 0.056815 0.039022
0.874394 0.057815 0.040765
0.077785 0.157294 0.036126
0.175888 0.156385 0.036250
0.274716 0.156122 0.036941
0.374161 0.156397 0.038089
0.474147 0.157133 0.039620
0.574619 0.158275 0.041476
0.675533 0.159779 0.043614
0.776853 0.161609 0.046001
0.878552 0.163739 0.048606
0.074097 0.256615 0.038605
0.174266 0.257504 0.040260
0.274903 0.258782 0.042224
0.375968 0.260409 0.044456
0.477429 0.262351 0.046925
0.579260 0.264584 0.049604
0.681438 0.267084 0.052471
0.783944 0.269832 0.055506
0.886761 0.272812 0.058694
0.076456 0.361081 0.045329
0.178054 0.363132 0.047877
0.280014 0.365464 0.050627
0.382313 0.368056 0.053557
0.484934 0.370891 0.056650
0.587862 0.373952 0.059890
0.691082 0.377226 0.063263
0.794583 0.380700 0.066757
0.898353 0.384365 0.070361
0.083231 0.469061 0.054665
0.185965 0.471980 0.057813
0.289001 0.475120 0.061103
0.392325 0.478468 0.064521
0.495925 0.482013 0.068057
0.599791 0.485745 0.071699
0.703914 0.489654 0.075439
0.808286 0.493731 0.079268
0.912899 0.497970 0.083178
0.093604 0.579736 0.065795
0.197302 0.583351 0.069371
0.301263 0.587148 0.073050
0.405478 0.591119 0.076823
0.509938 0.595256 0.080683
0.614637 0.599552 0.084621
0.719567 0.603999 0.088632
0.824723 0.608593 0.092709
0.930099 0.613326 0.096846
0.107074 0.692606 0.078219
0.211622 0.696802 0.082108
0.316405 0.701154 0.086073
0.421419 0.705655 0.090109
0.526655 0.710300 0.094208
0.632109 0.715083 0.098366
0.737776 0.719999 0.102577
0.843651 0.725043 0.106836
0.949729 0.730210 0.111140
0.123300 0.807330 0.091594
0.228616 0.812026 0.095715
0.334148 0.816857 0.099893
0.439891 0.821820 0.104122
0.545841 0.826910 0.108398
0.651992 0.832122 0.112717
0.758341 0.837452 0.117074
0.864884 0.842896 0.121466
0.971618 0.848451 0.125889
0.142034 0.923659 0.105674
0.248057 0.928793 0.109966
0.354281 0.934049 0.114299
0.460701 0.939421 0.118669
0.567314 0.944905 0.123073
0.674116 0.950500 0.127506
0.781105 0.956201 0.131966
0.888276 0.962005 0.136450
0.995628 0.967909 0.140955
0.090769 0.066801 0.142024
0.184691 0.061953 0.138450
0.280659 0.059072 0.136763
0.377842 0.057325 0.136131
0.475925 0.056399 0.136240
0.574737 0.056122 0.136918
0.674168 0.056384 0.138056
0.774142 0.057110 0.139578
0.874602 0.058242 0.141427
0.077051 0.156904 0.136096
0.175415 0.156230 0.136428
0.274462 0.156160 0.137284
0.374099 0.156598 0.138569
0.474256 0.157478 0.140216
0.574882 0.158747 0.142172
0.675937 0.160365 0.144399
0.777389 0.162300 0.146862
0.879211 0.164526 0.149536
0.074099 0.256870 0.139130
0.174432 0.257897 0.140895
0.275218 0.259297 0.142954
0.376421 0.261035 0.145269
0.478011 0.263078 0.147813
0.579962 0.265404 0.150558
0.682253 0.267990 0.153484
0.784866 0.270819 0.156573
0.887787 0.273874 0.159809
0.076957 0.361745 0.146170
0.178680 0.363894 0.148790
0.280757 0.366316 0.151603
0.383168 0.368993 0.154590
0.485895 0.371906 0.157734
0.588923 0.375040 0.161021
0.692240 0.378384 0.164436
0.795833 0.381924 0.167969
0.899693 0.385651 0.171609
0.084125 0.470027 0.155718
0.186963 0.473022 0.158915
0.290098 0.476234 0.162250
0.393517 0.479650 0.165709
0.497208 0.483260 0.169282
0.601163 0.487053 0.172959
0.705372 0.491020 0.176730
0.809826 0.495153 0.180587
0.914519 0.499445 0.184524
0.094830 0.580943 0.166997
0.198618 0.584620 0.170609
0.302666 0.588477 0.174321
0.406965 0.592506 0.178124
0.511508 0.596697 0.182012
0.616286 0.601045 0.185975
0.721293 0.605543 0.190009
0.826524 0.610185 0.194107
0.931973 0.614964 0.198263
0.108591 0.694013 0.179530
0.213220 0.698263 0.183446
0.318083 0.702666 0.187436
0.423172 0.707217 0.191494
0.528483 0.711909 0.195614
0.634010 0.716738 0.199790
0.739748 0.721698 0.204018
0.845693 0.726784 0.208293
0.951839 0.731993 0.212611
0.125080 0.808909 0.192987
0.230471 0.813651 0.197128
0.336075 0.818528 0.201324
0.441889 0.823535 0.205569
0.547907 0.828666 0.209860
0.654126 0.833919 0.214193
0.760542 0.839288 0.218562
0.867150 0.844770 0.222965
0.973948 0.850362 0.227397
0.144056 0.925389 0.207127
0.250148 0.930565 0.211433
0.356439 0.935860 0.215779
0.462925 0.941271 0.220161
0.569603 0.946793 0.224575
0.676469 0.952424 0.229018
0.783520 0.958161 0.233487
0.890753 0.963999 0.237978
0.998165 0.969937 0.242488
0.088358 0.064816 0.240481
0.183154 0.060816 0.237727
0.279587 0.058372 0.236450
0.377101 0.056929 0.236095
0.475446 0.056239 0.236413
0.574478 0.056155 0.237257
0.674101 0.056582 0.238533
0.774246 0.057451 0.240172
0.874861 0.058711 0.242121
0.076411 0.156600 0.236142
0.175020 0.156144 0.236665
0.274277 0.156255 0.237676
0.374097 0.156850 0.239091
0.474418 0.157867 0.240848
0.575194 0.159259 0.242900
0.676387 0.160988 0.245210
0.777967 0.163025 0.247748
0.879910 0.165344 0.250488
0.074158 0.257174 0.239694
0.174650 0.258333 0.241563
0.275582 0.259851 0.243713
0.376919 0.261696 0.246109
0.478634 0.263838 0.248723
0.580702 0.266254 0.251532
0.683105 0.268924 0.254515
0.785824 0.271832 0.257656
0.888846 0.274961 0.260939
0.077501 0.362442 0.247037
0.179347 0.364687 0.249724
0.281539 0.367198 0.252599
0.384059 0.369956 0.255641
0.486890 0.372946 0.258835
0.590018 0.376153 0.262167
0.693430 0.379565 0.265623
0.797115 0.383169 0.269193
0.901063 0.386958 0.272867
0.085055 0.471019 0.256787
0.187995 0.474089 0.260033
0.291228 0.477372 0.263411
0.394740 0.480855 0.266910
0.498522 0.484528 0.270520
0.602564 0.488381 0.274229
0.706857 0.492405 0.278030
0.811394 0.496593 0.281916
0.916166 0.500937 0.285878
0.096087 0.582171 0.268212
0.199964 0.585910 0.271859
0.304099 0.589827 0.275603
0.408481 0.593911 0.279435
0.513104 0.598157 0.283349
0.617961 0.602556 0.287338
0.723045 0.607104 0.291394
0.828351 0.611793 0.295512
0.933873 0.616618 0.299687
0.110137 0.695439 0.280851
0.214846 0.699741 0.284793
0.319786 0.704195 0.288807
0.424951 0.708795 0.292886
0.530336 0.713534 0.297026
0.635936 0.718408 0.301221
0.741744 0.723411 0.305465
0.847758 0.728539 0.309755
0.953972 0.733789 0.314086
0.126887 0.810504 0.294387
0.232350 0.815293 0.298547
0.338026 0.820214 0.302760
0.443910 0.825264 0.307022
0.549997 0.830437 0.311327
0.656283 0.835729 0.315672
0.762764 0.841137 0.320053
0.869438 0.846657 0.324467
0.976299 0.852285 0.328909
0.146103 0.927133 0.308584
0.252263 0.932350 0.312905
0.358620 0.937685 0.317263
0.465172 0.943134 0.321657
0.571914 0.948694 0.326081
0.678843 0.954361 0.330533
0.785956 0.960132 0.335009
0.893250 0.966004 0.339508
1.000000 0.971975 0.344024
0.086341 0.063218 0.339314
0.181798 0.059850 0.337167
0.278637 0.057785 0.336242
0.376454 0.056619 0.336136
0.475046 0.056148 0.336646
0.574288 0.056247 0.337646
0.674095 0.056831 0.339052
0.774404 0.057838 0.340801
0.875170 0.059221 0.342847
0.075859 0.156375 0.336258
0.174700 0.156123 0.336958
0.274156 0.156407 0.338115
0.374152 0.157151 0.339652
0.474632 0.158300 0.341514
0.575554 0.159810 0.343657
0.676882 0.161647 0.346048
0.778588 0.163782 0.348657
0.880648 0.166192 0.351461
0.074273 0.257525 0.340294
0.174919 0.258810 0.342263
0.275992 0.260443 0.344500
0.377460 0.262391 0.346974
0.479298 0.264629 0.349656
0.581482 0.267133 0.352526
0.683994 0.269886 0.355565
0.786817 0.272870 0.358755
0.889938 0.276072 0.362084
0.078088 0.363173 0.347927
0.180054 0.365511 0.350681
0.282359 0.368107 0.353614
0.384986 0.370946 0.356710
0.487920 0.374011 0.359952
0.591145 0.377289 0.363327
0.694651 0.380768 0.366823
0.798427 0.384436 0.370430
0.902462 0.388285 0.374137
0.086020 0.472037 0.357874
0.189061 0.475181 0.361166
0.292390 0.478533 0.364587
0.395995 0.482082 0.368124
0.499866 0.485817 0.371769
0.603994 0.489729 0.375510
0.708371 0.493809 0.379341
0.812988 0.498051 0.383253
0.917839 0.502447 0.387239
0.097374 0.583420 0.369439
0.201340 0.587221 0.373120
0.305559 0.591195 0.376895
0.410024 0.595335 0.380756
0.514728 0.599634 0.384696
0.619662 0.604084 0.388708
0.724822 0.608680 0.392786
0.830202 0.613416 0.396924
0.935796 0.618287 0.401117
0.111709 0.696882 0.382182
0.216498 0.701237 0.386149
0.321515 0.705741 0.390185
0.426756 0.710389 0.394286
0.532214 0.715174 0.398445
0.637885 0.720092 0.402657
0.743764 0.725139 0.406917
0.849846 0.730309 0.411221
0.956127 0.735598 0.415566
0.128718 0.812115 0.395793
0.234254 0.816950 0.399972
0.340001 0.821915 0.404202
0.445955 0.827007 0.408479
0.552110 0.832221 0.412799
0.658462 0.837553 0.417156
0.765009 0.842999 0.421549
0.871747 0.848556 0.425972
0.978671 0.854221 0.430424
0.148172 0.928891 0.410047
0.254400 0.934149 0.414381
0.360824 0.939523 0.418752
0.467440 0.945010 0.423156
0.574246 0.950606 0.427590
0.681238 0.956309 0.432051
0.788413 0.962115 0.436535
0.895768 0.968021 0.441040
1.000000 0.974025 0.445562
0.084600 0.061885 0.438405
0.180597 0.059030 0.436743
0.277798 0.057301 0.436127
0.375896 0.056388 0.436248
0.474721 0.056122 0.436936
0.574162 0.056394 0.438082
0.674146 0.057128 0.439610
0.774615 0.058267 0.441465
0.875526 0.059769 0.443602
0.075391 0.156223 0.436439
0.174450 0.156163 0.437304
0.274097 0.156611 0.438597
0.374263 0.157498 0.440250
0.474898 0.158774 0.442212
0.575961 0.160399 0.444443
0.677420 0.162340 0.446911
0.779249 0.164571 0.449588
0.881424 0.167069 0.452454
0.074442 0.257920 0.440931
0.175237 0.259327 0.442995
0.276448 0.261070 0.445315
0.378044 0.263120 0.447862
0.480002 0.265450 0.450611
0.582299 0.268041 0.453540
0.684918 0.270874 0.456632
0.787844 0.273934 0.459871
0.891063 0.277207 0.463243
0.078716 0.363937 0.448841
0.180800 0.366364 0.451658
0.283216 0.369045 0.454648
0.385949 0.371963 0.457795
0.488983 0.375101 0.461084
0.592305 0.378449 0.464502
0.695904 0.381993 0.468036
0.799769 0.385723 0.471678
0.903890 0.389631 0.475418
0.087019 0.473080 0.458977
0.190160 0.476296 0.462314
0.293584 0.479717 0.465775
0.397280 0.483330 0.469350
0.501240 0.487126 0.473029
0.605453 0.491096 0.476801
0.709912 0.495232 0.480661
0.814610 0.499527 0.484599
0.919539 0.503974 0.488609
0.098692 0.584691 0.470678
0.202745 0.588552 0.474392
0.307049 0.592583 0.478197
0.411595 0.596778 0.482085
0.516378 0.601129 0.486051
0.621390 0.605629 0.490086
0.726625 0.610273 0.494185
0.832078 0.615056 0.498342
0.937744 0.619971 0.502553
0.113309 0.698344 0.483521
0.218176 0.702750 0.487512
0.323270 0.707304 0.491571
0.428585 0.711999 0.495692
0.534116 0.716830 0.499869
0.639858 0.721792 0.504098
0.745806 0.726881 0.508374
0.851957 0.732092 0.512692
0.958305 0.737421 0.517049
0.130574 0.813742 0.497206
0.236183 0.818621 0.501403
0.342000 0.823630 0.505650
0.448022 0.828764 0.509942
0.554245 0.834019 0.514274
0.660664 0.839390 0.518644
0.767276 0.844874 0.523048
0.874078 0.850468 0.527481
0.981065 0.856168 0.531941
0.150265 0.930663 0.511514
0.256559 0.935961 0.515861
0.363049 0.941374 0.520244
0.469731 0.946898 0.524659
0.576600 0.952531 0.529102
0.683654 0.958269 0.533571
0.790891 0.964110 0.538062
0.898306 0.970049 0.542574
1.000000 0.976086 0.547102
0.083075 0.060759 0.537692
0.179531 0.058337 0.536436
0.277062 0.056910 0.536096
0.375422 0.056232 0.536424
0.474466 0.056158 0.537278
0.574099 0.056594 0.538561
0.674253 0.057472 0.540206
0.774877 0.058739 0.542161
0.875930 0.060355 0.544385
0.075000 0.156141 0.536680
0.174268 0.156262 0.537699
0.274098 0.156866 0.539121
0.374428 0.157890 0.540884
0.475213 0.159289 0.542941
0.576413 0.161024 0.545256
0.678001 0.163066 0.547798
0.779950 0.165390 0.550542
0.882239 0.167975 0.553467
0.074663 0.258358 0.541601
0.175603 0.259883 0.543756
0.276948 0.261733 0.546156
0.378669 0.263881 0.548774
0.480745 0.266302 0.551587
0.583153 0.268977 0.554573
0.685878 0.271889 0.557716
0.788905 0.275022 0.561002
0.892220 0.278364 0.564417
0.079385 0.364732 0.549777
0.181584 0.367247 0.552655
0.284110 0.370010 0.555700
0.386946 0.373004 0.558897
0.490079 0.376215 0.562231
0.593497 0.379631 0.565689
0.697187 0.383239 0.569262
0.801140 0.387031 0.572938
0.905347 0.390997 0.576708
0.088053 0.474149 0.560095
0.191291 0.477436 0.563476
0.294809 0.480923 0.566977
0.398596 0.484599 0.570588
0.502643 0.488455 0.574300
0.606940 0.492482 0.578103
0.711481 0.496673 0.581989
0.816258 0.501021 0.585953
0.921264 0.505517 0.589986
0.100040 0.585982 0.571928
0.204179 0.589902 0.575674
0.308566 0.593990 0.579508
0.413193 0.598238 0.583424
0.518054 0.602641 0.587413
0.623143 0.607191 0.591471
0.728453 0.611882 0.595590
0.833979 0.616710 0.599766
0.939715 0.621669 0.603994
0.114936 0.699824 0.584868
0.219881 0.704280 0.588883
0.325051 0.708883 0.592964
0.430440 0.713624 0.597104
0.536043 0.718501 0.601300
0.641855 0.723506 0.605545
0.747873 0.728637 0.609836
0.854090 0.733889 0.614168
0.960505 0.739257 0.618537
0.132455 0.815384 0.598626
0.238135 0.820308 0.602840
0.344023 0.825360 0.607102
0.450113 0.830535 0.611409
0.556403 0.835830 0.615755
0.662888 0.841240 0.620136
0.769565 0.846762 0.624550
0.876430 0.852392 0.628993
0.983480 0.858128 0.633461
0.152380 0.932449 0.612986
0.258742 0.937786 0.617346
0.365297 0.943237 0.621740
0.472043 0.948799 0.626164
0.578975 0.954468 0.630617
0.686092 0.960242 0.635094
0.793389 0.966116 0.639592
0.900864 0.972089 0.644110
1.000000 0.978157 0.648643
0.081728 0.059801 0.637140
0.178588 0.057756 0.636233
0.276421 0.056604 0.636141
0.375026 0.056145 0.636661
0.474279 0.056253 0.637669
0.574096 0.056846 0.639082
0.674415 0.057860 0.640837
0.775188 0.059250 0.642888
0.876379 0.060978 0.645196
0.074684 0.156123 0.636976
0.174151 0.156417 0.638140
0.274157 0.157169 0.639684
0.374646 0.158325 0.641552
0.475575 0.159842 0.643700
0.576910 0.161684 0.646095
0.678623 0.163825 0.648708
0.780690 0.166239 0.651516
0.883091 0.168909 0.654498
0.074935 0.258837 0.642303
0.176016 0.260476 0.644545
0.277492 0.262430 0.647022
0.379336 0.264673 0.649709
0.481526 0.267183 0.652582
0.584044 0.269940 0.655624
0.686873 0.272929 0.658817
0.789999 0.276134 0.662148
0.893410 0.279545 0.665603
0.080094 0.365557 0.650734
0.182406 0.368159 0.653671
0.285039 0.371002 0.656769
0.387978 0.374071 0.660014
0.491209 0.377353 0.663392
0.594720 0.380835 0.666890
0.698500 0.384507 0.670499
0.802541 0.388359 0.674208
0.906832 0.392382 0.678009
0.089121 0.475242 0.661229
0.192455 0.478598 0.664652
0.296065 0.482150 0.668192
0.399942 0.485889 0.671838
0.504074 0.489804 0.675581
0.608456 0.493888 0.679414
0.713077 0.498132 0.683327
0.817933 0.502531 0.687315
0.923016 0.507078 0.691371
0.101417 0.587294 0.673190
0.205641 0.591272 0.676967
0.310111 0.595415 0.680829
0.414818 0.599716 0.684771
0.519757 0.604170 0.688784
0.624922 0.608768 0.692863
0.730305 0.613507 0.697003
0.835903 0.618380 0.701197
0.941711 0.623382 0.705441
0.116590 0.701320 0.686224
0.221612 0.705827 0.690262
0.326856 0.710477 0.694364
0.432319 0.715265 0.698523
0.537994 0.720186 0.702736
0.643876 0.725235 0.706998
0.749962 0.730407 0.711303
0.856247 0.735699 0.715648
0.962727 0.741106 0.720029
0.134360 0.817042 0.700051
0.240111 0.822010 0.704282
0.346068 0.827104 0.708560
0.452227 0.832320 0.712880
0.558584 0.837654 0.717239
0.665134 0.843103 0.721632
0.771875 0.848662 0.726056
0.878803 0.854328 0.730508
0.985915 0.860099 0.734984
0.154519 0.934249 0.714463
0.260946 0.939625 0.718834
0.367567 0.945114 0.723239
0.474376 0.950713 0.727674
0.581371 0.956417 0.732135
0.688550 0.962225 0.736619
0.795908 0.968133 0.741124
0.903443 0.974139 0.745647
1.000000 0.980239 0.750185
0.080534 0.058988 0.736723
0.177755 0.057277 0.736123
0.275868 0.056378 0.736256
0.374705 0.056123 0.736953
0.474157 0.056404 0.738107
0.574151 0.057146 0.739642
0.674628 0.058292 0.741502
0.775548 0.059801 0.743644
0.876873 0.061636 0.746034
0.074439 0.156167 0.737325
0.174096 0.156624 0.738625
0.274271 0.157519 0.740284
0.374914 0.158802 0.742252
0.475985 0.160432 0.744487
0.577451 0.162379 0.746959
0.679286 0.164615 0.749641
0.781469 0.167118 0.752510
0.883979 0.169870 0.755547
0.075256 0.259357 0.743036
0.176474 0.261106 0.745361
0.278078 0.263161 0.747912
0.380042 0.265497 0.750665
0.482345 0.268092 0.753597
0.584971 0.270930 0.756692
0.687902 0.273994 0.759933
0.791126 0.277270 0.763308
0.894631 0.280747 0.766803
0.080842 0.366412 0.751712
0.183265 0.369098 0.754706
0.286003 0.372020 0.757856
0.389043 0.375162 0.761147
0.492370 0.378513 0.764567
0.595974 0.382061 0.768104
0.699844 0.385795 0.771748
0.803970 0.389706 0.775489
0.908346 0.393786 0.779319
0.090221 0.476359 0.762378
0.193651 0.479783 0.765842
0.297352 0.483399 0.769419
0.401317 0.487199 0.773099
0.505535 0.491172 0.776873
0.609999 0.495312 0.780734
0.714700 0.499609 0.784673
0.819634 0.504059 0.788685
0.924793 0.508654 0.792763
0.102824 0.588626 0.774462
0.207132 0.592660 0.778269
0.311683 0.596858 0.782159
0.416470 0.601212 0.786126
0.521486 0.605715 0.790162
0.626726 0.610362 0.794262
0.732183 0.615147 0.798421
0.837852 0.620064 0.802633
0.943730 0.625110 0.806893
0.118270 0.702835 0.787588
0.223368 0.707391 0.791648
0.328687 0.712088 0.795770
0.434222 0.716922 0.799948
0.539968 0.721887 0.804178
0.645920 0.726978 0.808455
0.752074 0.732191 0.812774
0.858426 0.737523 0.817132
0.964972 0.742968 0.821524
0.136290 0.818715 0.801483
0.242112 0.823726 0.805730
0.348138 0.828862 0.810023
0.454364 0.834119 0.814356
0.560787 0.839492 0.818727
0.667402 0.844978 0.823131
0.774207 0.850574 0.827565
0.881198 0.856277 0.832025
0.988372 0.862082 0.836509
0.156680 0.936062 0.815943
0.263173 0.941477 0.820327
0.369858 0.947003 0.824742
0.476731 0.952638 0.829186
0.583789 0.958378 0.833655
0.691028 0.964221 0.838147
0.798447 0.970162 0.842659
0.906042 0.976200 0.847187
1.000000 0.982332 0.851730
0.079476 0.058302 0.836422
0.177024 0.056891 0.836096
0.275398 0.056225 0.836436
0.374454 0.056162 0.837298
0.474098 0.056607 0.838589
0.574261 0.057492 0.840240
0.674893 0.058766 0.842200
0.775954 0.060389 0.844430
0.877411 0.062328 0.846896
0.074260 0.156269 0.837722
0.174100 0.156881 0.839151
0.274439 0.157913 0.840920
0.375231 0.159318 0.842982
0.476440 0.161060 0.845302
0.578034 0.163107 0.847847
0.679990 0.165436 0.850595
0.782285 0.168026 0.853523
0.884903 0.170857 0.856614
0.075625 0.259915 0.843799
0.176977 0.261771 0.846204
0.278705 0.263924 0.848826
0.380787 0.266350 0.851641
0.483202 0.269029 0.854631
0.585933 0.271945 0.857777
0.688965 0.275083 0.861065
0.792285 0.278429 0.864482
0.895883 0.281972 0.868016
0.081628 0.367297 0.852710
0.184160 0.370065 0.855759
0.287002 0.373063 0.858958
0.390141 0.376278 0.862295
0.493564 0.379697 0.865756
0.597259 0.383309 0.869330
0.701217 0.387104 0.873008
0.805429 0.391073 0.876780
0.909886 0.395208 0.880639
0.091355 0.477499 0.863541
0.194878 0.480990 0.867044
0.298670 0.484670 0.870657
0.402721 0.488529 0.874370
0.507024 0.492560 0.878175
0.611569 0.496754 0.882063
0.716350 0.501104 0.886028
0.821361 0.505603 0.890063
0.926595 0.510247 0.894161
0.104259 0.589977 0.875745
0.208651 0.594068 0.879581
0.313283 0.598320 0.883498
0.418148 0.602725 0.887489
0.523241 0.607278 0.891548
0.628555 0.611972 0.895668
0.734085 0.616802 0.899846
0.839825 0.621764 0.904074
0.945772 0.626852 0.908350
0.119976 0.704366 0.888959
0.225150 0.708970 0.893041
0.330543 0.713715 0.897183
0.436150 0.718594 0.901379
0.541967 0.723602 0.905626
0.647988 0.728735 0.909917
0.754209 0.733989 0.914250
0.860627 0.739359 0.918620
0.967238 0.744843 0.923023
0.138244 0.820402 0.902920
0.244135 0.825456 0.907183
0.350230 0.830634 0.911490
0.456523 0.835931 0.915837
0.563012 0.841343 0.920219
0.669692 0.846867 0.924634
0.776561 0.852499 0.929077
0.883614 0.858237 0.933546
0.990849 0.864077 0.938037
0.158863 0.937888 0.917428
0.265422 0.943341 0.921823
0.372171 0.948905 0.926248
0.479107 0.954576 0.930701
0.586227 0.960351 0.935178
0.693528 0.966227 0.939677
0.801007 0.972202 0.944195
0.908661 0.978272 0.948728
1.000000 0.984436 0.953275
