asset_packs/park_conifer_dapple/mood/grade_33.cube
TITLE "park_conifer_dapple mood grade"
# Generated by construction_code_v2/gen_asset_packs.py. Domain: display-referred sRGB in, sRGB out.
LUT_3D_SIZE 33
DOMAIN_MIN 0.0 0.0 0.0
DOMAIN_MAX 1.0 1.0 1.0
0.018994 0.025896 0.029932
0.041965 0.023775 0.027753
0.065499 0.022216 0.026131
0.089282 0.020904 0.024748
0.113234 0.019762 0.023528
0.137318 0.018749 0.022432
0.161509 0.017843 0.021435
0.185793 0.017029 0.020523
0.210157 0.016294 0.019683
0.234592 0.015629 0.018908
0.259092 0.015028 0.018189
0.283652 0.014485 0.017521
0.308265 0.013996 0.016900
0.332929 0.013555 0.016322
0.357640 0.013161 0.015783
0.382396 0.012811 0.015280
0.407193 0.012500 0.014812
0.432029 0.012229 0.014375
0.456903 0.011994 0.013967
0.481813 0.011793 0.013588
0.506756 0.011626 0.013235
0.531733 0.011490 0.012907
0.556740 0.011385 0.012603
0.581778 0.011308 0.012320
0.606845 0.011260 0.012059
0.631940 0.011239 0.011819
0.657061 0.011244 0.011597
0.682209 0.011273 0.011394
0.707383 0.011328 0.011209
0.732581 0.011406 0.011041
0.757803 0.011507 0.010888
0.783048 0.011630 0.010751
0.808316 0.011775 0.010629
0.013883 0.045471 0.024288
0.037887 0.044379 0.023116
0.062012 0.043408 0.022058
0.086238 0.042537 0.021094
0.110552 0.041753 0.020209
0.134943 0.041044 0.019394
0.159403 0.040403 0.018640
0.183925 0.039824 0.017940
0.208505 0.039301 0.017290
0.233137 0.038830 0.016685
0.257819 0.038407 0.016121
0.282546 0.038029 0.015596
0.307317 0.037693 0.015106
0.332129 0.037397 0.014649
0.356979 0.037139 0.014223
0.381866 0.036917 0.013826
0.406788 0.036728 0.013457
0.431744 0.036573 0.013113
0.456732 0.036448 0.012794
0.481751 0.036353 0.012497
0.506799 0.036287 0.012223
0.531876 0.036249 0.011970
0.556981 0.036237 0.011736
0.582112 0.036252 0.011521
0.607270 0.036290 0.011325
0.632452 0.036354 0.011146
0.657659 0.036440 0.010983
0.682889 0.036549 0.010837
0.708143 0.036680 0.010705
0.733419 0.036833 0.010588
0.758716 0.037006 0.010486
0.784035 0.037199 0.010397
0.809375 0.037413 0.010320
0.010979 0.067242 0.020763
0.035322 0.066486 0.019905
0.059739 0.065803 0.019113
0.084222 0.065185 0.018379
0.108766 0.064627 0.017698
0.133365 0.064124 0.017065
0.158016 0.063670 0.016475
0.182714 0.063264 0.015926
0.207458 0.062902 0.015413
0.232244 0.062581 0.014936
0.257070 0.062299 0.014490
0.281934 0.062054 0.014075
0.306834 0.061844 0.013689
0.331768 0.061668 0.013329
0.356736 0.061524 0.012994
0.381735 0.061410 0.012683
0.406765 0.061326 0.012395
0.431824 0.061270 0.012128
0.456911 0.061242 0.011882
0.482026 0.061240 0.011656
0.507167 0.061263 0.011448
0.532333 0.061311 0.011258
0.557525 0.061382 0.011085
0.582740 0.061477 0.010928
0.607979 0.061594 0.010787
0.633241 0.061733 0.010661
0.658524 0.061893 0.010549
0.683830 0.062074 0.010452
0.709156 0.062275 0.010367
0.734504 0.062495 0.010296
0.759871 0.062735 0.010237
0.785258 0.062993 0.010189
0.810664 0.063269 0.010153
0.009049 0.089976 0.018125
0.033614 0.089438 0.017462
0.058232 0.088953 0.016845
0.082901 0.088517 0.016270
0.107616 0.088127 0.015735
0.132375 0.087780 0.015236
0.157176 0.087474 0.014770
0.182016 0.087206 0.014336
0.206893 0.086974 0.013931
0.231806 0.086776 0.013555
0.256753 0.086612 0.013204
0.281732 0.086479 0.012878
0.306742 0.086376 0.012576
0.331783 0.086303 0.012295
0.356852 0.086257 0.012036
0.381950 0.086238 0.011798
0.407074 0.086245 0.011578
0.432224 0.086277 0.011377
0.457400 0.086334 0.011193
0.482600 0.086414 0.011026
0.507824 0.086517 0.010875
0.533072 0.086642 0.010740
0.558341 0.086789 0.010619
0.583633 0.086957 0.010512
0.608946 0.087145 0.010420
0.634280 0.087353 0.010340
0.659635 0.087580 0.010273
0.685009 0.087827 0.010218
0.710403 0.088091 0.010175
0.735816 0.088374 0.010143
0.761248 0.088675 0.010122
0.786698 0.088993 0.010112
0.812166 0.089328 0.010112
0.007792 0.113370 0.016071
0.032523 0.112996 0.015549
0.057298 0.112664 0.015062
0.082113 0.112372 0.014608
0.106967 0.112117 0.014185
0.131857 0.111898 0.013791
0.156783 0.111713 0.013424
0.181741 0.111560 0.013082
0.206732 0.111438 0.012765
0.231754 0.111346 0.012471
0.256805 0.111283 0.012199
0.281885 0.111247 0.011947
0.306992 0.111238 0.011715
0.332126 0.111254 0.011503
0.357285 0.111295 0.011308
0.382470 0.111361 0.011130
0.407679 0.111449 0.010969
0.432912 0.111560 0.010824
0.458167 0.111693 0.010694
0.483445 0.111848 0.010578
0.508745 0.112023 0.010477
0.534066 0.112218 0.010389
0.559407 0.112433 0.010314
0.584769 0.112668 0.010251
0.610151 0.112921 0.010201
0.635551 0.113192 0.010162
0.660971 0.113482 0.010134
0.686410 0.113789 0.010117
0.711866 0.114113 0.010111
0.737341 0.114454 0.010114
0.762832 0.114811 0.010127
0.788341 0.115185 0.010150
0.813867 0.115574 0.010181
0.007056 0.137275 0.014451
0.031923 0.137033 0.014039
0.056826 0.136827 0.013654
0.081764 0.136653 0.013297
0.106734 0.136512 0.012964
0.131737 0.136401 0.012656
0.156769 0.136320 0.012370
0.181831 0.136267 0.012105
0.206921 0.136241 0.011861
0.232038 0.136241 0.011636
0.257181 0.136266 0.011430
0.282350 0.136316 0.011241
0.307543 0.136390 0.011070
0.332761 0.136487 0.010914
0.358002 0.136606 0.010775
0.383266 0.136747 0.010650
0.408552 0.136909 0.010540
0.433859 0.137092 0.010443
0.459188 0.137294 0.010360
0.484537 0.137516 0.010290
0.509906 0.137758 0.010232
0.535294 0.138018 0.010185
0.560702 0.138296 0.010151
0.586129 0.138592 0.010127
0.611574 0.138905 0.010114
0.637037 0.139235 0.010111
0.662518 0.139582 0.010118
0.688016 0.139946 0.010134
0.713531 0.140325 0.010160
0.739063 0.140720 0.010195
0.764611 0.141130 0.010238
0.790175 0.141556 0.010290
0.815755 0.141997 0.010350
0.006749 0.161598 0.013173
0.031732 0.161468 0.012849
0.056745 0.161368 0.012549
0.081788 0.161297 0.012271
0.106860 0.161254 0.012014
0.131960 0.161238 0.011777
0.157087 0.161247 0.011559
0.182240 0.161282 0.011359
0.207417 0.161340 0.011177
0.232620 0.161423 0.011011
0.257846 0.161528 0.010862
0.283096 0.161655 0.010728
0.308367 0.161804 0.010608
0.333661 0.161973 0.010503
0.358976 0.162163 0.010412
0.384312 0.162373 0.010333
0.409669 0.162602 0.010267
0.435045 0.162850 0.010213
0.460441 0.163117 0.010171
0.485855 0.163401 0.010141
0.511289 0.163704 0.010121
0.536740 0.164023 0.010111
0.562210 0.164360 0.010112
0.587697 0.164713 0.010123
0.613201 0.165082 0.010143
0.638722 0.165467 0.010172
0.664260 0.165868 0.010210
0.689814 0.166284 0.010256
0.715385 0.166715 0.010311
0.740970 0.167161 0.010374
0.766572 0.167621 0.010444
0.792188 0.168095 0.010522
0.817820 0.168584 0.010607
0.006811 0.186278 0.012175
0.031893 0.186245 0.011925
0.057003 0.186238 0.011695
0.082139 0.186257 0.011484
0.107301 0.186300 0.011291
0.132488 0.186368 0.011115
0.157700 0.186458 0.010955
0.182934 0.186572 0.010811
0.208192 0.186707 0.010683
0.233472 0.186863 0.010569
0.258773 0.187040 0.010468
0.284096 0.187237 0.010382
0.309440 0.187454 0.010308
0.334803 0.187690 0.010246
0.360187 0.187945 0.010197
0.385589 0.188218 0.010159
0.411011 0.188509 0.010132
0.436451 0.188818 0.010116
0.461909 0.189144 0.010110
0.487385 0.189486 0.010115
0.512879 0.189845 0.010129
0.538389 0.190220 0.010152
0.563916 0.190611 0.010185
0.589460 0.191017 0.010226
0.615020 0.191439 0.010275
0.640596 0.191875 0.010333
0.666188 0.192326 0.010398
0.691795 0.192792 0.010472
0.717417 0.193272 0.010552
0.743054 0.193765 0.010640
0.768705 0.194273 0.010735
0.794372 0.194793 0.010836
0.820052 0.195327 0.010944
0.007195 0.211270 0.011412
0.032367 0.211322 0.011225
0.057563 0.211398 0.011055
0.082782 0.211497 0.010901
0.108025 0.211618 0.010763
0.133291 0.211761 0.010639
0.158579 0.211925 0.010530
0.183888 0.212109 0.010435
0.209219 0.212314 0.010353
0.234570 0.212538 0.010284
0.259941 0.212781 0.010227
0.285331 0.213043 0.010182
0.310741 0.213322 0.010148
0.336169 0.213620 0.010125
0.361616 0.213935 0.010113
0.387080 0.214266 0.010111
0.412563 0.214615 0.010119
0.438062 0.214980 0.010136
0.463579 0.215361 0.010163
0.489112 0.215757 0.010198
0.514662 0.216169 0.010243
0.540228 0.216596 0.010295
0.565810 0.217038 0.010356
0.591407 0.217494 0.010424
0.617019 0.217965 0.010500
0.642647 0.218450 0.010583
0.668289 0.218948 0.010674
0.693946 0.219461 0.010771
0.719618 0.219986 0.010875
0.745303 0.220525 0.010985
0.771003 0.221077 0.011102
0.796716 0.221642 0.011224
0.822443 0.222219 0.011352
0.007868 0.236539 0.010849
0.033120 0.236668 0.010716
0.058394 0.236818 0.010598
0.083689 0.236990 0.010494
0.109006 0.237182 0.010404
0.134344 0.237393 0.010327
0.159702 0.237624 0.010262
0.185081 0.237874 0.010209
0.210478 0.238142 0.010168
0.235894 0.238429 0.010138
0.261330 0.238732 0.010119
0.286783 0.239053 0.010111
0.312254 0.239391 0.010113
0.337743 0.239746 0.010124
0.363249 0.240117 0.010145
0.388771 0.240503 0.010175
0.414311 0.240905 0.010214
0.439866 0.241323 0.010261
0.465438 0.241755 0.010316
0.491025 0.242202 0.010380
0.516628 0.242664 0.010451
0.542246 0.243140 0.010530
0.567879 0.243630 0.010616
0.593527 0.244133 0.010708
0.619189 0.244650 0.010808
0.644866 0.245181 0.010914
0.670556 0.245725 0.011027
0.696261 0.246281 0.011145
0.721979 0.246850 0.011270
0.747711 0.247432 0.011401
0.773456 0.248026 0.011536
0.799215 0.248632 0.011678
0.824986 0.249251 0.011824
0.008802 0.262057 0.010460
0.034127 0.262256 0.010374
0.059472 0.262475 0.010302
0.084838 0.262713 0.010241
0.110223 0.262970 0.010193
0.135627 0.263244 0.010156
0.161051 0.263537 0.010130
0.186493 0.263847 0.010115
0.211952 0.264175 0.010110
0.237430 0.264519 0.010116
0.262925 0.264879 0.010131
0.288437 0.265256 0.010155
0.313966 0.265648 0.010188
0.339511 0.266056 0.010230
0.365073 0.266478 0.010280
0.390650 0.266916 0.010339
0.416243 0.267369 0.010405
0.441851 0.267836 0.010479
0.467475 0.268317 0.010560
0.493113 0.268811 0.010649
0.518766 0.269320 0.010744
0.544434 0.269842 0.010846
0.570115 0.270377 0.010954
0.595811 0.270926 0.011069
0.621521 0.271487 0.011190
0.647244 0.272061 0.011317
0.672981 0.272647 0.011449
0.698731 0.273245 0.011587
0.724494 0.273856 0.011731
0.750270 0.274479 0.011879
0.776059 0.275113 0.012033
0.801860 0.275759 0.012191
0.827674 0.276417 0.012354
0.009976 0.287804 0.010222
0.035368 0.288068 0.010178
0.060779 0.288349 0.010145
0.086209 0.288648 0.010124
0.111658 0.288965 0.010112
0.137124 0.289298 0.010111
0.162608 0.289648 0.010120
0.188109 0.290014 0.010138
0.213628 0.290397 0.010166
0.239162 0.290794 0.010202
0.264714 0.291208 0.010247
0.290281 0.291636 0.010300
0.315864 0.292079 0.010362
0.341463 0.292537 0.010431
0.367076 0.293009 0.010508
0.392705 0.293495 0.010592
0.418349 0.293995 0.010682
0.444008 0.294509 0.010780
0.469680 0.295035 0.010885
0.495367 0.295575 0.010996
0.521068 0.296128 0.011113
0.546783 0.296694 0.011236
0.572511 0.297273 0.011364
0.598252 0.297863 0.011499
0.624007 0.298466 0.011639
0.649775 0.299081 0.011784
0.675556 0.299708 0.011934
0.701349 0.300347 0.012090
0.727155 0.300997 0.012250
0.752973 0.301659 0.012415
0.778804 0.302332 0.012584
0.804647 0.303016 0.012757
0.830502 0.303711 0.012935
0.011371 0.313761 0.010118
0.036826 0.314084 0.010111
0.062298 0.314423 0.010113
0.087789 0.314779 0.010126
0.113296 0.315152 0.010147
0.138820 0.315540 0.010178
0.164361 0.315943 0.010218
0.189918 0.316362 0.010266
0.215491 0.316796 0.010322
0.241080 0.317244 0.010386
0.266684 0.317707 0.010458
0.292304 0.318184 0.010537
0.317938 0.318676 0.010624
0.343587 0.319180 0.010717
0.369251 0.319699 0.010818
0.394929 0.320231 0.010924
0.420621 0.320775 0.011037
0.446327 0.321333 0.011157
0.472046 0.321903 0.011282
0.497779 0.322486 0.011413
0.523526 0.323081 0.011549
0.549285 0.323689 0.011691
0.575058 0.324308 0.011838
0.600843 0.324939 0.011990
0.626641 0.325582 0.012147
0.652452 0.326237 0.012309
0.678274 0.326902 0.012476
0.704109 0.327579 0.012646
0.729957 0.328267 0.012822
0.755816 0.328966 0.013001
0.781686 0.329676 0.013184
0.807569 0.330396 0.013371
0.833463 0.331127 0.013562
0.012971 0.339913 0.010132
0.038485 0.340291 0.010157
0.064015 0.340685 0.010191
0.089562 0.341094 0.010234
0.115125 0.341518 0.010285
0.140704 0.341957 0.010344
0.166298 0.342411 0.010411
0.191908 0.342879 0.010486
0.217533 0.343362 0.010568
0.243173 0.343858 0.010657
0.268827 0.344368 0.010753
0.294496 0.344891 0.010856
0.320179 0.345427 0.010965
0.345876 0.345977 0.011080
0.371587 0.346539 0.011202
0.397311 0.347114 0.011329
0.423049 0.347702 0.011462
0.448801 0.348301 0.011600
0.474565 0.348913 0.011744
0.500342 0.349537 0.011893
0.526132 0.350172 0.012047
0.551935 0.350819 0.012206
0.577750 0.351478 0.012369
0.603577 0.352148 0.012537
0.629417 0.352829 0.012710
0.655268 0.353520 0.012886
0.681131 0.354223 0.013067
0.707006 0.354937 0.013252
0.732893 0.355661 0.013440
0.758791 0.356396 0.013633
0.784701 0.357141 0.013829
0.810622 0.357896 0.014028
0.836553 0.358662 0.014231
0.014765 0.366247 0.010252
0.040334 0.366676 0.010306
0.065919 0.367121 0.010368
0.091519 0.367580 0.010438
0.117134 0.368053 0.010515
0.142764 0.368541 0.010600
0.168409 0.369042 0.010691
0.194069 0.369557 0.010790
0.219743 0.370085 0.010895
0.245431 0.370626 0.011006
0.271133 0.371180 0.011124
0.296849 0.371747 0.011247
0.322579 0.372327 0.011377
0.348321 0.372918 0.011512
0.374077 0.373523 0.011652
0.399846 0.374139 0.011798
0.425628 0.374767 0.011949
0.451423 0.375406 0.012104
0.477230 0.376058 0.012265
0.503050 0.376720 0.012430
0.528881 0.377394 0.012600
0.554725 0.378079 0.012774
0.580581 0.378775 0.012952
0.606449 0.379482 0.013134
0.632328 0.380199 0.013320
0.658219 0.380927 0.013510
0.684121 0.381666 0.013704
0.710035 0.382415 0.013901
0.735959 0.383174 0.014101
0.761895 0.383943 0.014305
0.787842 0.384722 0.014512
0.813800 0.385511 0.014723
0.839768 0.386310 0.014936
0.016741 0.392751 0.010465
0.042362 0.393229 0.010545
0.067997 0.393722 0.010632
0.093648 0.394228 0.010726
0.119313 0.394747 0.010827
0.144992 0.395280 0.010935
0.170685 0.395826 0.011048
0.196392 0.396385 0.011168
0.222113 0.396957 0.011294
0.247847 0.397541 0.011425
0.273595 0.398137 0.011562
0.299356 0.398745 0.011705
0.325130 0.399366 0.011852
0.350916 0.399998 0.012005
0.376715 0.400642 0.012162
0.402527 0.401298 0.012324
0.428351 0.401964 0.012491
0.454187 0.402642 0.012662
0.480035 0.403331 0.012838
0.505895 0.404031 0.013018
0.531767 0.404742 0.013201
0.557651 0.405463 0.013389
0.583546 0.406195 0.013580
0.609452 0.406937 0.013775
0.635370 0.407690 0.013973
0.661299 0.408453 0.014175
0.687239 0.409225 0.014380
0.713190 0.410008 0.014589
0.739151 0.410800 0.014800
0.765124 0.411603 0.015014
0.791107 0.412414 0.015231
0.817100 0.413236 0.015451
0.843104 0.414067 0.015674
0.018888 0.419415 0.010762
0.044558 0.419940 0.010866
0.070243 0.420477 0.010975
0.095941 0.421028 0.011091
0.121653 0.421592 0.011213
0.147379 0.422168 0.011341
0.173118 0.422756 0.011474
0.198871 0.423357 0.011613
0.224636 0.423970 0.011758
0.250414 0.424595 0.011907
0.276206 0.425231 0.012061
0.302009 0.425879 0.012221
0.327825 0.426539 0.012385
0.353654 0.427210 0.012553
0.379495 0.427892 0.012726
0.405347 0.428585 0.012903
0.431212 0.429289 0.013084
0.457088 0.430003 0.013269
0.482975 0.430728 0.013458
0.508875 0.431464 0.013651
0.534785 0.432210 0.013847
0.560707 0.432966 0.014047
0.586640 0.433733 0.014250
0.612584 0.434509 0.014456
0.638538 0.435295 0.014665
0.664504 0.436091 0.014878
0.690480 0.436897 0.015093
0.716467 0.437712 0.015311
0.742464 0.438537 0.015532
0.768472 0.439371 0.015755
0.794490 0.440215 0.015981
0.820518 0.441067 0.016210
0.846556 0.441929 0.016440
0.021199 0.446232 0.011135
0.046916 0.446800 0.011259
0.072647 0.447381 0.011389
0.098391 0.447974 0.011524
0.124148 0.448579 0.011665
0.149918 0.449196 0.011811
0.175701 0.449825 0.011963
0.201497 0.450466 0.012119
0.227305 0.451118 0.012280
0.253126 0.451782 0.012445
0.278959 0.452457 0.012615
0.304804 0.453143 0.012790
0.330660 0.453840 0.012968
0.356529 0.454548 0.013151
0.382410 0.455266 0.013337
0.408301 0.455995 0.013528
0.434205 0.456735 0.013722
0.460119 0.457484 0.013919
0.486045 0.458244 0.014120
0.511982 0.459014 0.014324
0.537930 0.459794 0.014532
0.563889 0.460584 0.014742
0.589858 0.461384 0.014956
0.615838 0.462193 0.015172
0.641829 0.463012 0.015391
0.667830 0.463840 0.015613
0.693841 0.464677 0.015837
0.719863 0.465524 0.016064
0.745895 0.466380 0.016293
0.771936 0.467245 0.016525
0.797988 0.468119 0.016758
0.824050 0.469002 0.016994
0.850121 0.469893 0.017232
0.023665 0.473193 0.011575
0.049427 0.473802 0.011718
0.075202 0.474424 0.011866
0.100989 0.475057 0.012019
0.126790 0.475702 0.012177
0.152602 0.476359 0.012340
0.178428 0.477026 0.012507
0.204265 0.477705 0.012678
0.230114 0.478395 0.012854
0.255975 0.479096 0.013034
0.281848 0.479808 0.013218
0.307733 0.480530 0.013406
0.333629 0.481263 0.013598
0.359537 0.482006 0.013793
0.385455 0.482760 0.013992
0.411385 0.483523 0.014194
0.437326 0.484297 0.014399
0.463278 0.485081 0.014608
0.489240 0.485874 0.014820
0.515214 0.486677 0.015034
0.541198 0.487490 0.015251
0.567192 0.488312 0.015472
0.593197 0.489144 0.015694
0.619212 0.489984 0.015920
0.645237 0.490835 0.016147
0.671273 0.491694 0.016377
0.697318 0.492562 0.016610
0.723373 0.493439 0.016844
0.749439 0.494325 0.017081
0.775513 0.495220 0.017319
0.801598 0.496123 0.017560
0.827692 0.497035 0.017802
0.853796 0.497956 0.018046
0.026279 0.500291 0.012076
0.052084 0.500940 0.012236
0.077901 0.501600 0.012400
0.103731 0.502272 0.012569
0.129573 0.502955 0.012742
0.155426 0.503649 0.012919
0.181292 0.504354 0.013101
0.207169 0.505070 0.013286
0.233058 0.505796 0.013476
0.258958 0.506532 0.013669
0.284870 0.507279 0.013865
0.310792 0.508037 0.014065
0.336726 0.508804 0.014268
0.362671 0.509581 0.014475
0.388627 0.510368 0.014685
0.414594 0.511165 0.014897
0.440571 0.511972 0.015113
0.466559 0.512788 0.015331
0.492557 0.513614 0.015552
0.518565 0.514449 0.015776
0.544584 0.515293 0.016002
0.570613 0.516146 0.016231
0.596652 0.517009 0.016462
0.622701 0.517880 0.016695
0.648760 0.518761 0.016930
0.674829 0.519650 0.017167
0.700907 0.520548 0.017406
0.726995 0.521454 0.017648
0.753093 0.522370 0.017890
0.779200 0.523293 0.018135
0.805317 0.524225 0.018381
0.831443 0.525166 0.018629
0.857578 0.526114 0.018879
0.029036 0.527520 0.012631
0.054882 0.528207 0.012806
0.080740 0.528905 0.012985
0.106610 0.529613 0.013168
0.132491 0.530333 0.013355
0.158384 0.531063 0.013545
0.184289 0.531803 0.013740
0.210204 0.532554 0.013938
0.236131 0.533315 0.014139
0.262069 0.534086 0.014343
0.288018 0.534867 0.014551
0.313978 0.535657 0.014762
0.339948 0.536458 0.014975
0.365929 0.537268 0.015192
0.391921 0.538088 0.015411
0.417923 0.538917 0.015633
0.443935 0.539755 0.015858
0.469958 0.540603 0.016085
0.495990 0.541459 0.016314
0.522033 0.542325 0.016546
0.548085 0.543200 0.016780
0.574148 0.544083 0.017016
0.600220 0.544976 0.017254
0.626302 0.545877 0.017494
0.652394 0.546787 0.017736
0.678495 0.547705 0.017979
0.704606 0.548632 0.018225
0.730725 0.549567 0.018471
0.756855 0.550510 0.018720
0.782993 0.551462 0.018970
0.809141 0.552421 0.019221
0.835298 0.553389 0.019474
0.861463 0.554365 0.019727
0.031929 0.554874 0.013236
0.057815 0.555597 0.013424
0.083712 0.556331 0.013616
0.109621 0.557075 0.013811
0.135541 0.557830 0.014010
0.161471 0.558594 0.014213
0.187413 0.559369 0.014419
0.213366 0.560153 0.014627
0.239330 0.560948 0.014839
0.265304 0.561752 0.015054
0.291289 0.562565 0.015272
0.317284 0.563388 0.015492
0.343290 0.564221 0.015715
0.369306 0.565062 0.015940
0.395332 0.565913 0.016168
0.421369 0.566773 0.016399
0.447415 0.567642 0.016631
0.473471 0.568520 0.016866
0.499537 0.569407 0.017102
0.525613 0.570303 0.017341
0.551699 0.571207 0.017582
0.577794 0.572120 0.017824
0.603898 0.573041 0.018068
0.630012 0.573971 0.018314
0.656136 0.574909 0.018562
0.682268 0.575856 0.018811
0.708410 0.576810 0.019061
0.734561 0.577773 0.019313
0.760721 0.578744 0.019566
0.786890 0.579722 0.019820
0.813068 0.580709 0.020076
0.839255 0.581704 0.020332
0.865450 0.582706 0.020590
0.034954 0.582349 0.013883
0.060878 0.583107 0.014084
0.086813 0.583875 0.014287
0.112759 0.584653 0.014494
0.138716 0.585441 0.014704
0.164683 0.586239 0.014917
0.190661 0.587047 0.015133
0.216650 0.587864 0.015352
0.242649 0.588690 0.015573
0.268659 0.589526 0.015797
0.294679 0.590371 0.016023
0.320708 0.591225 0.016252
0.346748 0.592089 0.016483
0.372798 0.592961 0.016716
0.398858 0.593842 0.016952
0.424928 0.594732 0.017189
0.451007 0.595631 0.017429
0.477096 0.596538 0.017670
0.503195 0.597454 0.017913
0.529303 0.598379 0.018158
0.555420 0.599312 0.018404
0.581547 0.600253 0.018652
0.607683 0.601202 0.018902
0.633828 0.602160 0.019153
0.659982 0.603125 0.019405
0.686145 0.604099 0.019658
0.712318 0.605081 0.019913
0.738499 0.606070 0.020169
0.764689 0.607068 0.020426
0.790887 0.608073 0.020684
0.817095 0.609086 0.020942
0.843311 0.610106 0.021202
0.869536 0.611135 0.021463
0.038106 0.609939 0.014570
0.064067 0.610731 0.014781
0.090038 0.611532 0.014995
0.116020 0.612343 0.015212
0.142013 0.613164 0.015432
0.168016 0.613993 0.015654
0.194029 0.614833 0.015879
0.220052 0.615681 0.016106
0.246086 0.616539 0.016336
0.272129 0.617405 0.016568
0.298183 0.618281 0.016802
0.324246 0.619165 0.017038
0.350320 0.620058 0.017276
0.376402 0.620960 0.017516
0.402495 0.621871 0.017758
0.428597 0.622790 0.018002
0.454708 0.623717 0.018247
0.480829 0.624653 0.018494
0.506959 0.625597 0.018743
0.533099 0.626550 0.018993
0.559247 0.627510 0.019244
0.585405 0.628479 0.019497
0.611571 0.629456 0.019751
0.637747 0.630440 0.020006
0.663931 0.631433 0.020262
0.690124 0.632433 0.020519
0.716326 0.633441 0.020778
0.742537 0.634457 0.021037
0.768756 0.635480 0.021297
0.794984 0.636511 0.021558
0.821220 0.637549 0.021819
0.847464 0.638595 0.022081
0.873717 0.639648 0.022344
0.041380 0.637641 0.015292
0.067377 0.638465 0.015512
0.093383 0.639298 0.015736
0.119400 0.640141 0.015961
0.145427 0.640992 0.016189
0.171465 0.641853 0.016420
0.197512 0.642723 0.016653
0.223569 0.643602 0.016887
0.249636 0.644489 0.017124
0.275713 0.645386 0.017363
0.301799 0.646291 0.017604
0.327895 0.647204 0.017847
0.354000 0.648127 0.018091
0.380115 0.649057 0.018337
0.406240 0.649996 0.018585
0.432373 0.650943 0.018834
0.458516 0.651899 0.019084
0.484667 0.652862 0.019336
0.510828 0.653834 0.019589
0.536998 0.654813 0.019844
0.563177 0.655801 0.020099
0.589364 0.656796 0.020356
0.615561 0.657799 0.020613
0.641766 0.658810 0.020872
0.667979 0.659828 0.021131
0.694202 0.660854 0.021392
0.720433 0.661888 0.021653
0.746672 0.662929 0.021915
0.772920 0.663977 0.022177
0.799176 0.665033 0.022440
0.825440 0.666096 0.022704
0.851713 0.667167 0.022968
0.877993 0.668244 0.023232
0.044773 0.665450 0.016044
0.070804 0.666305 0.016273
0.096845 0.667169 0.016504
0.122896 0.668042 0.016738
0.148956 0.668924 0.016973
0.175027 0.669815 0.017211
0.201107 0.670714 0.017451
0.227197 0.671622 0.017692
0.253296 0.672539 0.017935
0.279405 0.673464 0.018180
0.305524 0.674398 0.018427
0.331651 0.675340 0.018675
0.357788 0.676290 0.018925
0.383934 0.677248 0.019176
0.410089 0.678215 0.019428
0.436253 0.679189 0.019682
0.462426 0.680172 0.019936
0.488608 0.681162 0.020192
0.514799 0.682160 0.020449
0.540998 0.683166 0.020707
0.567207 0.684180 0.020966
0.593423 0.685201 0.021226
0.619649 0.686230 0.021487
0.645883 0.687266 0.021748
0.672125 0.688310 0.022010
0.698376 0.689361 0.022273
0.724635 0.690420 0.022536
0.750902 0.691485 0.022800
0.777178 0.692558 0.023064
0.803462 0.693639 0.023329
0.829754 0.694726 0.023594
0.856054 0.695820 0.023859
0.882362 0.696922 0.024124
0.048281 0.693362 0.016823
0.074345 0.694247 0.017060
0.100419 0.695141 0.017298
0.126503 0.696044 0.017538
0.152596 0.696955 0.017781
0.178699 0.697875 0.018024
0.204811 0.698803 0.018270
0.230933 0.699740 0.018517
0.257064 0.700685 0.018766
0.283204 0.701638 0.019016
0.309353 0.702599 0.019267
0.335512 0.703569 0.019520
0.361679 0.704546 0.019774
0.387855 0.705531 0.020030
0.414041 0.706524 0.020286
0.440235 0.707525 0.020543
0.466437 0.708534 0.020802
0.492649 0.709551 0.021061
0.518869 0.710575 0.021321
0.545097 0.711606 0.021582
0.571334 0.712645 0.021843
0.597580 0.713692 0.022106
0.623833 0.714746 0.022369
