asset_packs/park_conifer_dapple/mood/grade_33.cube
TITLE "park_conifer_dapple mood grade"
# Generated by construction_code_v2/gen_asset_packs.py. Domain: display-referred sRGB in, sRGB out.
LUT_3D_SIZE 5
DOMAIN_MIN 0.0 0.0 0.0
DOMAIN_MAX 1.0 1.0 1.0
0.018994 0.025896 0.029932
0.210157 0.016294 0.019683
0.407193 0.012500 0.014812
0.606845 0.011260 0.012059
0.808316 0.011775 0.010629
0.007195 0.211270 0.011412
0.209219 0.212314 0.010353
0.412563 0.214615 0.010119
0.617019 0.217965 0.010500
0.822443 0.222219 0.011352
0.018888 0.419415 0.010762
0.224636 0.423970 0.011758
0.431212 0.429289 0.013084
0.638538 0.435295 0.014665
0.846556 0.441929 0.016440
0.041380 0.637641 0.015292
0.249636 0.644489 0.017124
0.458516 0.651899 0.019084
0.667979 0.659828 0.021131
0.877993 0.668244 0.023232
0.071563 0.862838 0.021892
0.281770 0.871423 0.024005
0.492488 0.880457 0.026132
0.703692 0.889913 0.028249
0.915361 0.899771 0.030334
0.014607 0.021257 0.225121
0.208771 0.014633 0.217705
0.406835 0.011846 0.213693
0.607165 0.011262 0.211450
0.809153 0.012272 0.210368
0.007718 0.211467 0.210943
0.210219 0.212967 0.210193
0.413960 0.215643 0.210188
0.618759 0.219314 0.210743
0.824485 0.223849 0.211729
0.020742 0.420871 0.211058
0.226780 0.425695 0.212175
0.433619 0.431255 0.213596
0.641187 0.437481 0.215249
0.849426 0.444315 0.217078
0.044111 0.639901 0.215897
0.252584 0.646945 0.217778
0.461666 0.654535 0.219771
0.671320 0.662633 0.221840
0.881514 0.671208 0.223953
0.074970 0.865702 0.222606
0.285354 0.874442 0.224727
0.496239 0.883622 0.226853
0.707604 0.893217 0.228961
0.919426 0.903206 0.231031
0.011955 0.018344 0.421988
0.207798 0.013379 0.416083
0.406732 0.011441 0.412772
0.607674 0.011447 0.410973
0.810142 0.012915 0.410202
0.008413 0.211830 0.410590
0.211361 0.213754 0.410119
0.415478 0.216786 0.410321
0.620605 0.220763 0.411035
0.826623 0.225568 0.412144
0.022698 0.422422 0.411398
0.229017 0.427504 0.412627
0.436110 0.433298 0.414134
0.643912 0.439736 0.415853
0.852369 0.446766 0.417730
0.046918 0.642229 0.416521
0.255602 0.649463 0.418444
0.464882 0.657230 0.420467
0.674723 0.665493 0.422554
0.885094 0.674223 0.424675
0.078439 0.868619 0.423324
0.288995 0.877512 0.425449
0.500046 0.886835 0.427572
0.711568 0.896566 0.429670
0.923542 0.906685 0.431722
0.010067 0.016189 0.619563
0.207166 0.012457 0.614744
0.406857 0.011255 0.612022
0.608358 0.011798 0.610612
0.811274 0.013693 0.610121
0.009270 0.212346 0.610342
0.212637 0.214669 0.610121
0.417113 0.218037 0.610512
0.622554 0.222307 0.611372
0.828853 0.227371 0.612594
0.024752 0.424063 0.611780
0.231343 0.429396 0.613112
0.438683 0.435415 0.614697
0.646713 0.442059 0.616475
0.855382 0.449280 0.618396
0.049797 0.644624 0.617160
0.258688 0.652043 0.619122
0.468163 0.659982 0.621171
0.678187 0.668407 0.623272
0.888731 0.677289 0.625397
0.081967 0.871589 0.624045
0.292694 0.880631 0.626172
0.503907 0.890095 0.628288
0.715585 0.899960 0.630373
0.927707 0.910206 0.632405
0.008707 0.014554 0.817607
0.206823 0.011818 0.813637
0.407188 0.011268 0.811420
0.609203 0.012304 0.810357
0.812541 0.014599 0.810118
0.010278 0.213007 0.810187
0.214041 0.215704 0.810193
0.418858 0.219392 0.810758
0.624601 0.223942 0.811751
0.831172 0.229257 0.813076
0.026902 0.425793 0.812199
0.233755 0.431366 0.813625
0.441336 0.437604 0.815282
0.649588 0.444449 0.817114
0.858464 0.451855 0.819073
0.052749 0.647083 0.817814
0.261842 0.654683 0.819810
0.471507 0.662790 0.821880
0.681711 0.671374 0.823993
0.892426 0.680405 0.826120
0.085554 0.874611 0.824767
0.296449 0.883799 0.826893
0.507822 0.893401 0.829001
0.719653 0.903398 0.831070
0.931922 0.913769 0.833081
