asset_packs/park_conifer_dapple/mood/grade_33.cube
TITLE "park_conifer_dapple mood grade"
# Generated by construction_code_v2/gen_asset_packs.py. Domain: display-referred sRGB in, sRGB out.
LUT_3D_SIZE 9
DOMAIN_MIN 0.0 0.0 0.0
DOMAIN_MAX 1.0 1.0 1.0
0.018994 0.025896 0.029932
0.113234 0.019762 0.023528
0.210157 0.016294 0.019683
0.308265 0.013996 0.016900
0.407193 0.012500 0.014812
0.506756 0.011626 0.013235
0.606845 0.011260 0.012059
0.707383 0.011328 0.011209
0.808316 0.011775 0.010629
0.007792 0.113370 0.016071
0.106967 0.112117 0.014185
0.206732 0.111438 0.012765
0.306992 0.111238 0.011715
0.407679 0.111449 0.010969
0.508745 0.112023 0.010477
0.610151 0.112921 0.010201
0.711866 0.114113 0.010111
0.813867 0.115574 0.010181
0.007195 0.211270 0.011412
0.108025 0.211618 0.010763
0.209219 0.212314 0.010353
0.310741 0.213322 0.010148
0.412563 0.214615 0.010119
0.514662 0.216169 0.010243
0.617019 0.217965 0.010500
0.719618 0.219986 0.010875
0.822443 0.222219 0.011352
0.011371 0.313761 0.010118
0.113296 0.315152 0.010147
0.215491 0.316796 0.010322
0.317938 0.318676 0.010624
0.420621 0.320775 0.011037
0.523526 0.323081 0.011549
0.626641 0.325582 0.012147
0.729957 0.328267 0.012822
0.833463 0.331127 0.013562
0.018888 0.419415 0.010762
0.121653 0.421592 0.011213
0.224636 0.423970 0.011758
0.327825 0.426539 0.012385
0.431212 0.429289 0.013084
0.534785 0.432210 0.013847
0.638538 0.435295 0.014665
0.742464 0.438537 0.015532
0.846556 0.441929 0.016440
0.029036 0.527520 0.012631
0.132491 0.530333 0.013355
0.236131 0.533315 0.014139
0.339948 0.536458 0.014975
0.443935 0.539755 0.015858
0.548085 0.543200 0.016780
0.652394 0.546787 0.017736
0.756855 0.550510 0.018720
0.861463 0.554365 0.019727
0.041380 0.637641 0.015292
0.145427 0.640992 0.016189
0.249636 0.644489 0.017124
0.354000 0.648127 0.018091
0.458516 0.651899 0.019084
0.563177 0.655801 0.020099
0.667979 0.659828 0.021131
0.772920 0.663977 0.022177
0.877993 0.668244 0.023232
0.055627 0.749484 0.018450
0.160196 0.753304 0.019451
0.264909 0.757253 0.020473
0.369762 0.761325 0.021511
0.474752 0.765517 0.022560
0.579873 0.769826 0.023618
0.685124 0.774249 0.024681
0.790500 0.778780 0.025745
0.895999 0.783419 0.026807
0.071563 0.862838 0.021892
0.176601 0.867073 0.022945
0.281770 0.871423 0.024005
0.387067 0.875886 0.025068
0.492488 0.880457 0.026132
0.598030 0.885134 0.027193
0.703692 0.889913 0.028249
0.809470 0.894793 0.029296
0.915361 0.899771 0.030334
0.016403 0.023180 0.127136
0.112016 0.018413 0.122064
0.209406 0.015407 0.118644
0.307820 0.013409 0.116124
0.406980 0.012140 0.114225
0.506732 0.011449 0.112795
0.606980 0.011237 0.111737
0.707658 0.011439 0.110984
0.808714 0.012005 0.110486
0.007438 0.112872 0.115371
0.106827 0.111828 0.113656
0.206769 0.111320 0.112371
0.307180 0.111266 0.111431
0.408001 0.111605 0.110776
0.509186 0.112293 0.110361
0.610700 0.113294 0.110151
0.712515 0.114580 0.110118
0.814608 0.116128 0.110238
0.007434 0.211347 0.111162
0.108392 0.211817 0.110599
0.209700 0.212623 0.110262
0.311327 0.213731 0.110120
0.413246 0.215114 0.110145
0.515435 0.216753 0.110316
0.617875 0.218627 0.110615
0.720552 0.220721 0.111026
0.823452 0.223023 0.111536
0.011993 0.314204 0.110111
0.114012 0.315682 0.110191
0.216295 0.317409 0.110411
0.318823 0.319365 0.110752
0.421583 0.321536 0.111201
0.524561 0.323910 0.111743
0.627745 0.326474 0.112368
0.731126 0.329219 0.113066
0.834696 0.332137 0.113827
0.019802 0.420131 0.110904
0.122642 0.422377 0.111388
0.225697 0.424822 0.111962
0.328954 0.427453 0.112614
0.432405 0.430262 0.113336
0.536040 0.433240 0.114119
0.639853 0.436379 0.114954
0.743835 0.439673 0.115836
0.847982 0.443114 0.116757
0.030188 0.528456 0.112870
0.133707 0.531327 0.113615
0.237408 0.534365 0.114417
0.341283 0.537561 0.115270
0.445326 0.540909 0.116167
0.549531 0.544402 0.117101
0.653892 0.548036 0.118067
0.758403 0.551805 0.119060
0.863061 0.555704 0.120074
0.042736 0.638762 0.115592
0.146839 0.642164 0.116503
0.251101 0.645709 0.117449
0.355517 0.649393 0.118426
0.460082 0.653209 0.119427
0.564792 0.657154 0.120448
0.669642 0.661224 0.121485
0.774628 0.665414 0.122535
0.879746 0.669720 0.123592
0.057162 0.750767 0.118787
0.161781 0.754631 0.119796
0.266542 0.758622 0.120824
0.371442 0.762735 0.121866
0.476476 0.766968 0.122919
0.581642 0.771316 0.123979
0.686935 0.775775 0.125042
0.792354 0.780344 0.126106
0.897893 0.785018 0.127167
0.073259 0.864263 0.122248
0.178342 0.868538 0.123304
0.283555 0.872927 0.124365
0.388894 0.877426 0.125429
0.494357 0.882033 0.126493
0.599940 0.886745 0.127552
0.705641 0.891559 0.128606
0.811458 0.896473 0.129650
0.917387 0.901483 0.130683
0.014607 0.021257 0.225121
0.110987 0.017251 0.220773
0.208771 0.014633 0.217705
0.307461 0.012906 0.215419
0.406835 0.011846 0.213693
0.506764 0.011327 0.212398
0.607165 0.011262 0.211450
0.707976 0.011593 0.210789
0.809153 0.012272 0.210368
0.007162 0.112451 0.214734
0.106750 0.111600 0.213177
0.206859 0.111254 0.212016
0.307415 0.111340 0.211179
0.408364 0.111802 0.210610
0.509664 0.112599 0.210268
0.611284 0.113700 0.210121
0.713195 0.115078 0.210142
0.815378 0.116710 0.210310
0.007718 0.211467 0.210943
0.108799 0.212055 0.210461
0.210219 0.212967 0.210193
0.311947 0.214171 0.210110
0.413960 0.215643 0.210188
0.516236 0.217364 0.210404
0.618759 0.219314 0.210743
0.721513 0.221480 0.211189
0.824485 0.223849 0.211729
0.012648 0.314677 0.210121
0.114759 0.316242 0.210251
0.217127 0.318048 0.210514
0.319735 0.320079 0.210893
0.422570 0.322320 0.211375
0.525619 0.324760 0.211947
0.628872 0.327387 0.212598
0.732318 0.330191 0.213318
0.835949 0.333165 0.214099
0.020742 0.420871 0.211058
0.123656 0.423186 0.211573
0.226780 0.425695 0.212175
0.330104 0.428388 0.212852
0.433619 0.431255 0.213596
0.537315 0.434288 0.214397
0.641187 0.437481 0.215249
0.745226 0.440825 0.216145
0.849426 0.444315 0.217078
0.031362 0.529412 0.213116
0.134944 0.532340 0.213881
0.238705 0.535432 0.214702
0.342638 0.538681 0.215570
0.446737 0.542079 0.216480
0.550995 0.545621 0.217426
0.655407 0.549301 0.218401
0.759969 0.553114 0.219402
0.864675 0.557056 0.220423
0.044111 0.639901 0.215897
0.148269 0.643352 0.216821
0.252584 0.646945 0.217778
0.357051 0.650674 0.218763
0.461666 0.654535 0.219771
0.566424 0.658523 0.220799
0.671320 0.662633 0.221840
0.776351 0.666863 0.222893
0.881514 0.671208 0.223953
0.058714 0.752065 0.219128
0.163382 0.755972 0.220143
0.268190 0.760005 0.221176
0.373136 0.764160 0.222223
0.478216 0.768432 0.223278
0.583425 0.772818 0.224339
0.688762 0.777315 0.225403
0.794221 0.781919 0.226467
0.899802 0.786629 0.227526
0.074970 0.865702 0.222606
0.180098 0.870016 0.223664
0.285354 0.874442 0.224727
0.390735 0.878979 0.225791
0.496239 0.883622 0.226853
0.601863 0.888369 0.227911
0.707604 0.893217 0.228961
0.813459 0.898163 0.230002
0.919426 0.903206 0.231031
0.013161 0.019681 0.323442
0.110112 0.016241 0.319623
0.208238 0.013961 0.316855
0.307179 0.012479 0.314778
0.406753 0.011614 0.313210
0.506851 0.011257 0.312041
0.607397 0.011333 0.311196
0.708337 0.011786 0.310621
0.809629 0.012576 0.310274
0.006958 0.112099 0.314155
0.106733 0.111430 0.312742
0.207001 0.111238 0.311699
0.307696 0.111457 0.310958
0.408768 0.112037 0.310470
0.510180 0.112941 0.310198
0.611901 0.114138 0.310110
0.713907 0.115604 0.310184
0.816177 0.117319 0.310397
0.008045 0.211628 0.310753
0.109245 0.212330 0.310348
0.210772 0.213344 0.310146
0.312600 0.214642 0.310120
0.414704 0.216201 0.310246
0.517066 0.218001 0.310506
0.619669 0.220026 0.310883
0.722498 0.222263 0.311362
0.825542 0.224698 0.311932
0.013335 0.315180 0.310149
0.115535 0.316829 0.310326
0.217986 0.318713 0.310631
0.320673 0.320817 0.311046
0.423582 0.323127 0.311560
0.526702 0.325631 0.312159
0.630021 0.328320 0.312835
0.733531 0.331183 0.313577
0.837223 0.334212 0.314377
0.021707 0.421635 0.311223
0.124694 0.424017 0.311769
0.227887 0.426589 0.312397
0.331277 0.429342 0.313098
0.434854 0.432267 0.313862
0.538611 0.435355 0.314681
0.642540 0.438600 0.315549
0.746634 0.441994 0.316458
0.850889 0.445533 0.317402
0.032558 0.530387 0.313369
0.136201 0.533372 0.314154
0.240022 0.536518 0.314992
0.344012 0.539818 0.315875
0.448165 0.543266 0.316798
0.552476 0.546855 0.317754
0.656940 0.550581 0.318739
0.761551 0.554439 0.319747
0.866306 0.558424 0.320773
0.045505 0.641057 0.316207
0.149717 0.644557 0.317142
0.254084 0.648196 0.318109
0.358602 0.651971 0.319103
0.463266 0.655875 0.320118
0.568071 0.659905 0.321151
0.673014 0.664057 0.322197
0.778090 0.668326 0.323252
0.883297 0.672709 0.324313
0.060283 0.753377 0.319470
0.164999 0.757328 0.320493
0.269855 0.761403 0.321530
0.374847 0.765597 0.322580
0.479971 0.769909 0.323638
0.585224 0.774333 0.324701
0.690602 0.778867 0.325765
0.796103 0.783507 0.326827
0.901724 0.788252 0.327885
0.076697 0.867154 0.322965
0.181868 0.871506 0.324025
0.287167 0.875971 0.325088
0.392591 0.880544 0.326152
0.498136 0.885223 0.327213
0.603800 0.890004 0.328269
0.709579 0.894886 0.329316
0.815473 0.899865 0.330353
0.921477 0.904940 0.331377
0.011955 0.018344 0.421988
0.109368 0.015361 0.418589
0.207798 0.013379 0.416083
0.306970 0.012122 0.414195
0.406732 0.011441 0.412772
0.506989 0.011238 0.411720
0.607674 0.011447 0.410973
0.708738 0.012019 0.410479
0.810142 0.012915 0.410202
0.006821 0.111814 0.413629
0.106772 0.111315 0.412350
0.207192 0.111269 0.411416
0.308020 0.111615 0.410766
0.409211 0.112309 0.410355
0.510731 0.113316 0.410149
0.612552 0.114607 0.410119
0.714650 0.116160 0.410242
0.817005 0.117954 0.410498
0.008413 0.211830 0.410590
0.109728 0.212641 0.410258
0.211361 0.213754 0.410119
0.313284 0.215143 0.410147
0.415478 0.216786 0.410321
0.517924 0.218664 0.410622
0.620605 0.220763 0.411035
0.723509 0.223068 0.411546
0.826623 0.225568 0.412144
0.014053 0.315713 0.410194
0.116340 0.317443 0.410416
0.218873 0.319404 0.410760
0.321637 0.321579 0.411210
0.424619 0.323956 0.411754
0.527807 0.326524 0.412381
0.631192 0.329273 0.413080
0.734764 0.332193 0.413842
0.838517 0.335278 0.414660
0.022698 0.422422 0.411398
0.125756 0.424869 0.411973
0.229017 0.427504 0.412627
0.332471 0.430316 0.413351
0.436110 0.433298 0.414134
0.539926 0.436440 0.414971
0.643912 0.439736 0.415853
0.748062 0.443180 0.416775
0.852369 0.446766 0.417730
0.033775 0.531383 0.413629
0.137479 0.534423 0.414433
0.241358 0.537622 0.415287
0.345404 0.540973 0.416184
0.449612 0.544469 0.417119
0.553975 0.548106 0.418085
0.658490 0.551877 0.419078
0.763150 0.555778 0.420093
0.867952 0.559805 0.421126
0.046918 0.642229 0.416521
0.151183 0.645777 0.417467
0.255602 0.649463 0.418444
0.360170 0.653282 0.419446
0.464882 0.657230 0.420467
0.569735 0.661302 0.421505
0.674723 0.665493 0.422554
0.779844 0.669802 0.423612
0.885094 0.674223 0.424675
0.061869 0.754705 0.419816
0.166633 0.758698 0.420843
0.271535 0.762814 0.421886
0.376572 0.767049 0.422939
0.481740 0.771399 0.423999
0.587036 0.775860 0.425062
0.692457 0.780431 0.426126
0.797999 0.785107 0.427187
0.903660 0.789886 0.428243
0.078439 0.868619 0.423324
0.183654 0.873010 0.424385
0.288995 0.877512 0.425449
0.394460 0.882121 0.426513
0.500046 0.886835 0.427572
0.605750 0.891651 0.428625
0.711568 0.896566 0.429670
0.817500 0.901578 0.430703
0.923542 0.906685 0.431722
0.010935 0.017191 0.520706
0.108739 0.014593 0.517656
0.207443 0.012880 0.515382
0.306829 0.011832 0.513665
0.406768 0.011322 0.512377
0.507177 0.011265 0.511435
0.607995 0.011602 0.510779
0.709178 0.012288 0.510362
0.810690 0.013288 0.510151
0.006747 0.111589 0.513151
0.106866 0.111252 0.511998
0.207430 0.111345 0.511166
0.308385 0.111814 0.510601
0.409692 0.112617 0.510263
0.511317 0.113724 0.510120
0.613234 0.115106 0.510144
0.715422 0.116743 0.510315
0.817861 0.118616 0.510613
0.008822 0.212069 0.510454
0.110248 0.212987 0.510190
0.211982 0.214196 0.510110
0.314000 0.215673 0.510190
0.416281 0.217398 0.510409
0.518808 0.219353 0.510750
0.621567 0.221523 0.511198
0.724543 0.223896 0.511740
0.827727 0.226459 0.512365
0.014801 0.316274 0.510255
0.117174 0.318084 0.510520
0.219787 0.320119 0.510902
0.322626 0.322364 0.511385
0.425679 0.324807 0.511958
0.528935 0.327438 0.512611
0.632385 0.330246 0.513332
0.736019 0.333223 0.514114
0.839831 0.336361 0.514950
0.023713 0.423231 0.511584
0.126841 0.425744 0.512187
0.230169 0.428440 0.512866
0.333687 0.431310 0.513610
0.437387 0.434347 0.514413
0.541261 0.437542 0.515265
0.645303 0.440889 0.516162
0.749507 0.444382 0.517096
0.853867 0.448015 0.518061
0.035013 0.532397 0.513896
0.138777 0.535492 0.514718
0.242714 0.538743 0.515587
0.346815 0.542144 0.516498
0.451077 0.545689 0.517444
0.555492 0.549372 0.518420
0.660056 0.553187 0.519421
0.764765 0.557132 0.520442
0.869614 0.561201 0.521479
0.048348 0.643418 0.516838
0.152666 0.647014 0.517796
0.257137 0.650746 0.518782
0.361754 0.654609 0.519791
0.466515 0.658599 0.520818
0.571414 0.662712 0.521860
0.676447 0.666944 0.522913
0.781612 0.671291 0.523973
0.886905 0.675750 0.525036
0.063471 0.756047 0.520163
0.168282 0.760082 0.521196
0.273231 0.764239 0.522242
0.378313 0.768513 0.523298
0.483525 0.772901 0.524359
0.588863 0.777400 0.525423
0.694325 0.782007 0.526487
0.799908 0.786718 0.527546
0.905609 0.791532 0.528600
0.080195 0.870098 0.523684
0.185454 0.874527 0.524747
0.290838 0.879065 0.525811
0.396344 0.883710 0.526873
0.501970 0.888459 0.527931
0.607713 0.893309 0.528981
0.713570 0.898257 0.530022
0.819539 0.903302 0.531050
0.925618 0.908440 0.532064
0.010067 0.016189 0.619563
0.108212 0.013926 0.616810
0.207166 0.012457 0.614744
0.306751 0.011603 0.613184
0.406857 0.011255 0.612022
0.507411 0.011338 0.611183
0.608358 0.011798 0.610612
0.709656 0.012594 0.610269
0.811274 0.013693 0.610121
0.006734 0.111422 0.612720
0.107010 0.111239 0.611682
0.207713 0.111464 0.610946
0.308792 0.112051 0.610463
0.410210 0.112961 0.610194
0.511936 0.114163 0.610110
0.613948 0.115634 0.610187
0.716223 0.117353 0.610403
0.818744 0.119303 0.610741
0.009270 0.212346 0.610342
0.110804 0.213366 0.610144
0.212637 0.214669 0.610121
0.314746 0.216232 0.610250
0.417113 0.218037 0.610512
0.519720 0.220067 0.610891
0.622554 0.222307 0.611372
0.725602 0.224745 0.611943
0.828853 0.227371 0.612594
0.015579 0.316862 0.610331
0.118035 0.318751 0.610637
0.220726 0.320858 0.611055
0.323639 0.323172 0.611570
0.426762 0.325680 0.612172
0.530085 0.328372 0.612848
0.633598 0.331238 0.613591
0.737294 0.334271 0.614392
0.841164 0.337462 0.615244
0.024752 0.424063 0.611780
0.127949 0.426639 0.612410
0.231343 0.429396 0.613112
0.334923 0.432323 0.613877
0.438683 0.435415 0.614697
0.542615 0.438662 0.615565
0.646713 0.442059 0.616475
0.750970 0.445600 0.617420
0.855382 0.449280 0.618396
0.036272 0.533430 0.614169
0.140095 0.536579 0.615008
0.244088 0.539882 0.615892
0.348245 0.543332 0.616815
0.452559 0.546924 0.617772
0.557025 0.550653 0.618757
0.661639 0.554513 0.619766
0.766396 0.558500 0.620793
0.871292 0.562610 0.621835
0.049797 0.644624 0.617160
0.154168 0.648266 0.618128
0.258688 0.652043 0.619122
0.363355 0.655950 0.620138
0.468163 0.659982 0.621171
0.573108 0.664136 0.622217
0.678187 0.668407 0.623272
0.783396 0.672793 0.624333
0.888731 0.677289 0.625397
0.065089 0.757404 0.620512
0.169948 0.761481 0.621550
0.274942 0.765678 0.622600
0.380068 0.769991 0.623658
0.485324 0.774417 0.624721
0.590705 0.778953 0.625785
0.696208 0.783595 0.626847
0.801831 0.788342 0.627905
0.907571 0.793189 0.628956
0.081967 0.871589 0.624045
0.187268 0.876056 0.625108
0.292694 0.880631 0.626172
0.398241 0.885312 0.627233
0.503907 0.890095 0.628288
0.609689 0.894979 0.629336
0.715585 0.899960 0.630373
0.821591 0.905036 0.631396
0.927707 0.910206 0.632405
0.009330 0.015316 0.718535
0.107777 0.013349 0.716043
0.206960 0.012105 0.714164
0.306733 0.011433 0.712749
0.406998 0.011238 0.711704
0.507691 0.011454 0.710961
0.608761 0.012033 0.710472
0.710171 0.012935 0.710199
0.811891 0.014131 0.710110
0.006776 0.111310 0.712330
0.107204 0.111272 0.711401
0.208039 0.111625 0.710756
0.309237 0.112325 0.710349
0.410763 0.113337 0.710146
0.512589 0.114634 0.710119
0.614692 0.116191 0.710245
0.717052 0.117990 0.710504
0.819653 0.120014 0.710880
0.009756 0.212659 0.710253
0.111394 0.213778 0.710118
0.213323 0.215172 0.710149
0.315522 0.216819 0.710325
0.417972 0.218702 0.710629
0.520658 0.220804 0.711044
0.623565 0.223113 0.711557
0.726683 0.225616 0.712156
0.830002 0.228304 0.712831
0.016386 0.317478 0.710422
0.118923 0.319443 0.710768
0.221691 0.321622 0.711220
0.324677 0.324003 0.711765
0.427869 0.326574 0.712393
0.531257 0.329326 0.713094
0.634833 0.332250 0.713857
0.738589 0.335337 0.714676
0.842517 0.338581 0.715544
0.025816 0.424917 0.711985
0.129080 0.427556 0.712640
0.232538 0.430371 0.713365
0.336180 0.433355 0.714149
0.440000 0.436500 0.714987
0.543989 0.439799 0.715870
0.648141 0.443246 0.716792
0.752452 0.446835 0.717749
0.856914 0.450560 0.718733
0.037551 0.534482 0.714449
0.141432 0.537684 0.715303
0.245482 0.541037 0.716202
0.349693 0.544536 0.717137
0.454059 0.548175 0.718104
0.558576 0.551949 0.719097
0.663239 0.555853 0.720113
0.768044 0.559882 0.721145
0.872986 0.564033 0.722191
0.051264 0.645845 0.717486
0.155686 0.649534 0.718463
0.260257 0.653355 0.719465
0.364972 0.657305 0.720487
0.469827 0.661379 0.721525
0.574818 0.665573 0.722574
0.679941 0.669884 0.723632
0.785194 0.674308 0.724695
0.890571 0.678841 0.725759
0.066724 0.758774 0.720863
0.171629 0.762893 0.721906
0.276668 0.767129 0.722959
0.381839 0.771482 0.724019
0.487137 0.775945 0.725082
0.592560 0.780518 0.726146
0.698104 0.785196 0.727207
0.803767 0.789977 0.728263
0.909546 0.794858 0.729310
0.083753 0.873094 0.724405
0.189097 0.877598 0.725469
0.294564 0.882209 0.726533
0.400152 0.886925 0.727592
0.505858 0.891742 0.728645
0.611679 0.896659 0.729689
0.717612 0.901673 0.730722
0.823656 0.906782 0.731741
0.929809 0.911982 0.732744
0.008707 0.014554 0.817607
0.107426 0.012855 0.815345
0.206823 0.011818 0.813637
0.306771 0.011317 0.812357
0.407188 0.011268 0.811420
0.508014 0.011612 0.810769
0.609203 0.012304 0.810357
0.710722 0.013309 0.810149
0.812541 0.014599 0.810118
0.006872 0.111250 0.811979
0.107444 0.111351 0.811153
0.208407 0.111826 0.810593
0.309720 0.112636 0.810259
0.411350 0.113747 0.810119
0.513273 0.115134 0.810146
0.615465 0.116776 0.810319
0.717909 0.118653 0.810620
0.820589 0.120750 0.811032
0.010278 0.213007 0.810187
0.112018 0.214222 0.810111
0.214041 0.215704 0.810193
0.316327 0.217433 0.810415
0.418858 0.219392 0.810758
0.521621 0.221566 0.811207
0.624601 0.223942 0.811751
0.727788 0.226509 0.812377
0.831172 0.229257 0.813076
0.017221 0.318120 0.810526
0.119838 0.320159 0.810910
0.222681 0.322408 0.811395
0.325738 0.324855 0.811970
0.428998 0.327489 0.812624
0.532451 0.330300 0.813346
0.636089 0.333280 0.814130
0.739904 0.336421 0.814966
0.843889 0.339717 0.815848
0.026902 0.425793 0.812199
0.130233 0.428492 0.812879
0.233755 0.431366 0.813625
0.337458 0.434406 0.814428
0.441336 0.437604 0.815282
0.545381 0.440954 0.816179
0.649588 0.444449 0.817114
0.753950 0.448085 0.818080
0.858464 0.451855 0.819073
0.038850 0.535552 0.814734
0.142789 0.538806 0.815604
0.246894 0.542210 0.816515
0.351158 0.545757 0.817462
0.455576 0.549442 0.818439
0.560144 0.553260 0.819440
0.664855 0.557207 0.820462
0.769707 0.561278 0.821499
0.874694 0.565469 0.822548
0.052749 0.647083 0.817814
0.157222 0.650817 0.818801
0.261842 0.654683 0.819810
0.366605 0.658675 0.820838
0.471507 0.662790 0.821880
0.576543 0.667024 0.822933
0.681711 0.671374 0.823993
0.787006 0.675835 0.825056
0.892426 0.680405 0.826120
0.068374 0.760159 0.821216
0.173325 0.764318 0.822262
0.278410 0.768595 0.823318
0.383624 0.772985 0.824379
0.488965 0.777486 0.825443
0.594429 0.782095 0.826507
0.700014 0.786808 0.827566
0.805717 0.791623 0.828619
0.911535 0.796538 0.829664
0.085554 0.874611 0.824767
0.190940 0.879152 0.825831
0.296449 0.883799 0.826893
0.402077 0.888549 0.827950
0.507822 0.893401 0.829001
0.613681 0.898351 0.830041
0.719653 0.903398 0.831070
0.825734 0.908538 0.832083
0.931922 0.913769 0.833081
