asset_packs/decayed_log_litter/mood/grade_33.cube
TITLE "decayed_log_litter mood grade"
# Generated by construction_code_v2/gen_asset_packs.py. Domain: display-referred sRGB in, sRGB out.
LUT_3D_SIZE 33
DOMAIN_MIN 0.0 0.0 0.0
DOMAIN_MAX 1.0 1.0 1.0
0.066901 0.042013 0.042360
0.092543 0.042983 0.043324
0.118019 0.043779 0.044113
0.143438 0.044512 0.044836
0.168821 0.045202 0.045516
0.194180 0.045862 0.046162
0.219521 0.046496 0.046781
0.244847 0.047110 0.047377
0.270162 0.047705 0.047954
0.295468 0.048284 0.048512
0.320766 0.048849 0.049055
0.346058 0.049401 0.049582
0.371345 0.049942 0.050096
0.396628 0.050471 0.050597
0.421907 0.050990 0.051085
0.447184 0.051500 0.051563
0.472458 0.052000 0.052029
0.497730 0.052492 0.052485
0.523001 0.052976 0.052931
0.548271 0.053452 0.053368
0.573541 0.053921 0.053795
0.598810 0.054383 0.054213
0.624079 0.054839 0.054622
0.649348 0.055287 0.055024
0.674618 0.055730 0.055417
0.699888 0.056166 0.055802
0.725160 0.056596 0.056179
0.750432 0.057021 0.056548
0.775706 0.057441 0.056911
0.800981 0.057854 0.057266
0.826257 0.058263 0.057613
0.851535 0.058667 0.057954
0.876815 0.059065 0.058288
0.068581 0.069767 0.045088
0.093954 0.070446 0.045754
0.119306 0.071095 0.046390
0.144641 0.071722 0.047001
0.169963 0.072328 0.047589
0.195275 0.072918 0.048159
0.220577 0.073491 0.048712
0.245873 0.074052 0.049248
0.271163 0.074599 0.049771
0.296449 0.075136 0.050280
0.321730 0.075661 0.050776
0.347008 0.076177 0.051261
0.372284 0.076683 0.051734
0.397557 0.077180 0.052196
0.422829 0.077669 0.052649
0.448100 0.078150 0.053091
0.473369 0.078624 0.053524
0.498639 0.079090 0.053948
0.523908 0.079550 0.054363
0.549177 0.080003 0.054769
0.574446 0.080449 0.055168
0.599716 0.080889 0.055558
0.624987 0.081323 0.055940
0.650259 0.081752 0.056314
0.675532 0.082175 0.056681
0.700806 0.082592 0.057041
0.726081 0.083004 0.057393
0.751358 0.083411 0.057738
0.776637 0.083812 0.058077
0.801917 0.084209 0.058408
0.827200 0.084601 0.058733
0.852484 0.084989 0.059051
0.877771 0.085372 0.059363
0.069760 0.096945 0.047217
0.095078 0.097545 0.047799
0.120386 0.098128 0.048362
0.145686 0.098697 0.048909
0.170980 0.099253 0.049440
0.196268 0.099796 0.049958
0.221552 0.100328 0.050462
0.246832 0.100850 0.050954
0.272109 0.101362 0.051434
0.297383 0.101865 0.051903
0.322656 0.102359 0.052362
0.347928 0.102845 0.052811
0.373198 0.103324 0.053250
0.398467 0.103795 0.053679
0.423737 0.104258 0.054100
0.449006 0.104715 0.054512
0.474275 0.105166 0.054915
0.499545 0.105610 0.055311
0.524815 0.106048 0.055698
0.550086 0.106480 0.056077
0.575358 0.106906 0.056449
0.600631 0.107327 0.056813
0.625906 0.107742 0.057170
0.651182 0.108153 0.057520
0.676459 0.108558 0.057862
0.701739 0.108958 0.058198
0.727020 0.109353 0.058527
0.752303 0.109743 0.058850
0.777588 0.110129 0.059165
0.802876 0.110510 0.059475
0.828166 0.110886 0.059778
0.853458 0.111259 0.060074
0.878752 0.111627 0.060365
0.070794 0.123901 0.049104
0.096085 0.124452 0.049630
0.121372 0.124991 0.050143
0.146654 0.125519 0.050642
0.171933 0.126037 0.051130
0.197209 0.126546 0.051606
0.222483 0.127046 0.052072
0.247755 0.127537 0.052527
0.273026 0.128020 0.052972
0.298296 0.128496 0.053407
0.323565 0.128964 0.053834
0.348835 0.129426 0.054251
0.374104 0.129880 0.054660
0.399373 0.130328 0.055060
0.424643 0.130770 0.055452
0.449913 0.131206 0.055837
0.475185 0.131636 0.056213
0.500457 0.132060 0.056582
0.525731 0.132479 0.056944
0.551006 0.132892 0.057298
0.576283 0.133301 0.057645
0.601561 0.133704 0.057985
0.626841 0.134102 0.058319
0.652123 0.134495 0.058645
0.677407 0.134884 0.058965
0.702693 0.135268 0.059279
0.727981 0.135647 0.059586
0.753272 0.136022 0.059886
0.778565 0.136393 0.060181
0.803860 0.136760 0.060469
0.829158 0.137122 0.060751
0.854458 0.137480 0.061027
0.879761 0.137834 0.061297
0.071756 0.150709 0.050821
0.097034 0.151224 0.051305
0.122309 0.151729 0.051777
0.147582 0.152226 0.052238
0.172854 0.152714 0.052690
0.198124 0.153194 0.053131
0.223394 0.153667 0.053564
0.248663 0.154133 0.053987
0.273933 0.154592 0.054401
0.299202 0.155044 0.054807
0.324471 0.155490 0.055204
0.349741 0.155929 0.055593
0.375012 0.156363 0.055975
0.400284 0.156791 0.056348
0.425557 0.157213 0.056715
0.450831 0.157630 0.057074
0.476107 0.158042 0.057425
0.501384 0.158448 0.057770
0.526663 0.158849 0.058108
0.551943 0.159246 0.058438
0.577226 0.159637 0.058763
0.602511 0.160024 0.059080
0.627798 0.160407 0.059391
0.653087 0.160784 0.059696
0.678378 0.161158 0.059994
0.703672 0.161527 0.060286
0.728968 0.161892 0.060572
0.754267 0.162253 0.060852
0.779568 0.162609 0.061126
0.804873 0.162962 0.061394
0.830179 0.163311 0.061656
0.855489 0.163655 0.061913
0.880802 0.163996 0.062163
0.072681 0.177404 0.052404
0.097953 0.177890 0.052852
0.123223 0.178367 0.053290
0.148492 0.178838 0.053719
0.173761 0.179301 0.054138
0.199031 0.179757 0.054549
0.224300 0.180207 0.054952
0.249569 0.180651 0.055347
0.274840 0.181088 0.055733
0.300111 0.181520 0.056112
0.325383 0.181945 0.056483
0.350657 0.182366 0.056846
0.375931 0.182780 0.057202
0.401207 0.183190 0.057551
0.426485 0.183595 0.057894
0.451765 0.183994 0.058229
0.477046 0.184389 0.058557
0.502329 0.184779 0.058879
0.527615 0.185164 0.059194
0.552903 0.185545 0.059503
0.578192 0.185921 0.059805
0.603485 0.186293 0.060101
0.628779 0.186660 0.060391
0.654077 0.187024 0.060675
0.679376 0.187383 0.060953
0.704679 0.187738 0.061224
0.729984 0.188089 0.061490
0.755292 0.188437 0.061750
0.780603 0.188780 0.062005
0.805917 0.189120 0.062253
0.831233 0.189455 0.062496
0.856553 0.189788 0.062733
0.881876 0.190116 0.062965
0.073590 0.204007 0.053872
0.098859 0.204468 0.054289
0.124129 0.204922 0.054697
0.149398 0.205369 0.055097
0.174668 0.205811 0.055488
0.199938 0.206246 0.055872
0.225210 0.206675 0.056248
0.250483 0.207099 0.056616
0.275756 0.207517 0.056977
0.301032 0.207930 0.057330
0.326308 0.208338 0.057677
0.351587 0.208741 0.058016
0.376867 0.209138 0.058349
0.402149 0.209531 0.058675
0.427433 0.209920 0.058994
0.452719 0.210303 0.059307
0.478008 0.210682 0.059614
0.503299 0.211057 0.059914
0.528592 0.211427 0.060208
0.553887 0.211793 0.060495
0.579185 0.212155 0.060777
0.604486 0.212513 0.061052
0.629790 0.212867 0.061322
0.655096 0.213216 0.061586
0.680405 0.213562 0.061844
0.705717 0.213904 0.062096
0.731031 0.214242 0.062342
0.756349 0.214577 0.062583
0.781670 0.214908 0.062818
0.806994 0.215235 0.063048
0.832321 0.215558 0.063272
0.857652 0.215878 0.063491
0.882985 0.216195 0.063704
0.074496 0.230531 0.055240
0.099766 0.230970 0.055629
0.125037 0.231403 0.056009
0.150309 0.231830 0.056382
0.175582 0.232252 0.056748
0.200856 0.232668 0.057106
0.226132 0.233079 0.057457
0.251409 0.233485 0.057801
0.276689 0.233886 0.058138
0.301969 0.234282 0.058469
0.327252 0.234673 0.058792
0.352537 0.235060 0.059109
0.377824 0.235442 0.059420
0.403113 0.235819 0.059724
0.428405 0.236192 0.060021
0.453699 0.236561 0.060313
0.478995 0.236925 0.060598
0.504295 0.237286 0.060878
0.529596 0.237642 0.061151
0.554901 0.237994 0.061419
0.580208 0.238343 0.061680
0.605518 0.238687 0.061936
0.630831 0.239028 0.062186
0.656147 0.239365 0.062431
0.681466 0.239698 0.062669
0.706788 0.240027 0.062903
0.732113 0.240353 0.063130
0.757441 0.240675 0.063352
0.782773 0.240994 0.063569
0.808107 0.241309 0.063781
0.833445 0.241621 0.063987
0.858787 0.241929 0.064187
0.884131 0.242235 0.064383
0.075408 0.256984 0.056516
0.100682 0.257404 0.056879
0.125957 0.257818 0.057235
0.151233 0.258228 0.057583
0.176511 0.258632 0.057925
0.201791 0.259031 0.058259
0.227072 0.259425 0.058587
0.252356 0.259814 0.058908
0.277641 0.260199 0.059223
0.302929 0.260580 0.059531
0.328219 0.260955 0.059833
0.353512 0.261327 0.060128
0.378807 0.261694 0.060418
0.404104 0.262057 0.060701
0.429404 0.262416 0.060978
0.454707 0.262771 0.061249
0.480012 0.263122 0.061515
0.505320 0.263468 0.061774
0.530632 0.263812 0.062028
0.555946 0.264151 0.062276
0.581263 0.264486 0.062518
0.606583 0.264818 0.062755
0.631906 0.265146 0.062986
0.657232 0.265471 0.063212
0.682561 0.265792 0.063432
0.707894 0.266109 0.063647
0.733230 0.266423 0.063856
0.758569 0.266734 0.064060
0.783912 0.267041 0.064259
0.809258 0.267345 0.064453
0.834607 0.267645 0.064641
0.859960 0.267943 0.064824
0.885316 0.268237 0.065002
0.076334 0.283375 0.057708
0.101612 0.283778 0.058047
0.126893 0.284175 0.058379
0.152175 0.284567 0.058705
0.177459 0.284955 0.059024
0.202746 0.285338 0.059336
0.228034 0.285717 0.059642
0.253325 0.286091 0.059941
0.278619 0.286461 0.060234
0.303915 0.286827 0.060521
0.329213 0.287188 0.060802
0.354514 0.287546 0.061077
0.379818 0.287899 0.061347
0.405124 0.288248 0.061610
0.430433 0.288594 0.061867
0.455746 0.288935 0.062119
0.481061 0.289273 0.062365
0.506379 0.289607 0.062605
0.531700 0.289938 0.062840
0.557024 0.290265 0.063069
0.582352 0.290588 0.063293
0.607682 0.290908 0.063511
0.633016 0.291224 0.063724
0.658353 0.291537 0.063931
0.683693 0.291846 0.064133
0.709037 0.292152 0.064330
0.734384 0.292455 0.064522
0.759735 0.292754 0.064708
0.785089 0.293050 0.064890
0.810447 0.293343 0.065066
0.835808 0.293633 0.065237
0.861173 0.293919 0.065403
0.886541 0.294203 0.065564
0.077278 0.309709 0.058822
0.102563 0.310095 0.059138
0.127851 0.310477 0.059448
0.153140 0.310854 0.059751
0.178432 0.311226 0.060049
0.203726 0.311595 0.060340
0.229023 0.311959 0.060624
0.254322 0.312319 0.060903
0.279624 0.312675 0.061176
0.304929 0.313027 0.061443
0.330236 0.313375 0.061704
0.355547 0.313719 0.061959
0.380860 0.314059 0.062209
0.406176 0.314395 0.062453
0.431495 0.314728 0.062691
0.456818 0.315057 0.062924
0.482143 0.315383 0.063151
0.507472 0.315705 0.063373
0.532803 0.316023 0.063589
0.558138 0.316338 0.063800
0.583477 0.316650 0.064005
0.608818 0.316958 0.064206
0.634163 0.317263 0.064401
0.659512 0.317564 0.064590
0.684864 0.317862 0.064775
0.710219 0.318157 0.064954
0.735578 0.318449 0.065129
0.760940 0.318737 0.065298
0.786306 0.319023 0.065462
0.811676 0.319305 0.065621
0.837049 0.319584 0.065776
0.862426 0.319861 0.065925
0.887807 0.320134 0.066069
0.078246 0.335990 0.059860
0.103539 0.336361 0.060155
0.128834 0.336728 0.060444
0.154132 0.337090 0.060727
0.179432 0.337449 0.061003
0.204735 0.337803 0.061274
0.230041 0.338154 0.061539
0.255349 0.338500 0.061798
0.280660 0.338843 0.062051
0.305975 0.339182 0.062298
0.331292 0.339517 0.062540
0.356612 0.339848 0.062776
0.381936 0.340176 0.063007
0.407262 0.340500 0.063232
0.432592 0.340821 0.063452
0.457925 0.341138 0.063666
0.483261 0.341452 0.063875
0.508601 0.341762 0.064079
0.533943 0.342069 0.064277
0.559290 0.342373 0.064470
0.584639 0.342673 0.064658
0.609993 0.342970 0.064841
0.635349 0.343264 0.065019
0.660709 0.343554 0.065191
0.686073 0.343842 0.065358
0.711441 0.344126 0.065521
0.736811 0.344407 0.065678
0.762186 0.344685 0.065831
0.787564 0.344960 0.065978
0.812946 0.345232 0.066120
0.838332 0.345502 0.066258
0.863722 0.345768 0.066391
0.889115 0.346031 0.066519
0.079241 0.362221 0.060828
0.104542 0.362578 0.061103
0.129846 0.362931 0.061371
0.155153 0.363280 0.061634
0.180462 0.363625 0.061891
0.205774 0.363967 0.062142
0.231090 0.364304 0.062387
0.256408 0.364638 0.062627
0.281730 0.364968 0.062861
0.307054 0.365295 0.063090
0.332382 0.365618 0.063313
0.357713 0.365937 0.063531
0.383047 0.366253 0.063743
0.408384 0.366565 0.063950
0.433725 0.366874 0.064152
0.459069 0.367180 0.064348
0.484417 0.367482 0.064539
0.509768 0.367781 0.064725
0.535122 0.368077 0.064906
0.560480 0.368370 0.065082
0.585841 0.368659 0.065253
0.611206 0.368946 0.065418
0.636575 0.369229 0.065579
0.661947 0.369509 0.065734
0.687323 0.369786 0.065885
0.712703 0.370060 0.066030
0.738086 0.370331 0.066171
0.763474 0.370599 0.066307
0.788864 0.370864 0.066438
0.814259 0.371126 0.066564
0.839658 0.371385 0.066685
0.865060 0.371641 0.066802
0.890466 0.371895 0.066914
0.080265 0.388406 0.061728
0.105575 0.388750 0.061983
0.130889 0.389090 0.062232
0.156205 0.389426 0.062475
0.181525 0.389759 0.062713
0.206847 0.390087 0.062945
0.232173 0.390413 0.063172
0.257502 0.390734 0.063393
0.282834 0.391052 0.063609
0.308169 0.391367 0.063819
0.333508 0.391678 0.064024
0.358850 0.391986 0.064224
0.384195 0.392290 0.064418
0.409544 0.392592 0.064608
0.434896 0.392890 0.064792
0.460252 0.393184 0.064971
0.485611 0.393476 0.065145
0.510974 0.393764 0.065313
0.536340 0.394049 0.065477
0.561710 0.394331 0.065636
0.587084 0.394610 0.065790
0.612461 0.394886 0.065938
0.637842 0.395159 0.066082
0.663227 0.395429 0.066221
0.688615 0.395696 0.066355
0.714008 0.395960 0.066484
0.739404 0.396221 0.066609
0.764804 0.396479 0.066728
0.790207 0.396734 0.066843
0.815615 0.396986 0.066953
0.841027 0.397236 0.067059
0.866442 0.397483 0.067159
0.891861 0.397727 0.067255
0.081321 0.414548 0.062562
0.106642 0.414879 0.062798
0.131966 0.415206 0.063028
0.157292 0.415530 0.063253
0.182622 0.415850 0.063472
0.207956 0.416167 0.063686
0.233292 0.416481 0.063894
0.258632 0.416791 0.064097
0.283975 0.417097 0.064295
0.309322 0.417400 0.064488
0.334672 0.417700 0.064675
0.360025 0.417997 0.064858
0.385382 0.418291 0.065035
0.410743 0.418581 0.065207
0.436107 0.418868 0.065374
0.461475 0.419152 0.065536
0.486846 0.419433 0.065692
0.512221 0.419711 0.065844
0.537599 0.419986 0.065991
0.562982 0.420257 0.066133
0.588368 0.420526 0.066271
0.613758 0.420792 0.066403
0.639151 0.421055 0.066530
0.664549 0.421315 0.066653
0.689950 0.421572 0.066771
0.715355 0.421826 0.066884
0.740764 0.422078 0.066992
0.766177 0.422326 0.067096
0.791594 0.422572 0.067195
0.817015 0.422815 0.067289
0.842440 0.423055 0.067378
0.867869 0.423293 0.067463
0.893302 0.423527 0.067543
0.082412 0.440647 0.063333
0.107743 0.440966 0.063550
0.133078 0.441282 0.063762
0.158416 0.441594 0.063969
0.183757 0.441903 0.064170
0.209101 0.442208 0.064366
0.234449 0.442510 0.064557
0.259800 0.442809 0.064742
0.285155 0.443104 0.064923
0.310513 0.443397 0.065098
0.335875 0.443686 0.065268
0.361240 0.443972 0.065433
0.386609 0.444255 0.065593
0.411982 0.444534 0.065748
0.437358 0.444811 0.065898
0.462738 0.445085 0.066044
0.488122 0.445356 0.066184
0.513509 0.445623 0.066319
0.538901 0.445888 0.066450
0.564296 0.446150 0.066575
0.589695 0.446409 0.066696
0.615097 0.446665 0.066812
0.640504 0.446918 0.066924
0.665914 0.447168 0.067030
0.691329 0.447416 0.067132
0.716747 0.447661 0.067229
0.742169 0.447903 0.067322
0.767596 0.448142 0.067410
0.793026 0.448378 0.067493
0.818460 0.448612 0.067571
0.843898 0.448843 0.067645
0.869341 0.449072 0.067715
0.894787 0.449297 0.067780
0.083539 0.466707 0.064043
0.108882 0.467014 0.064242
0.134227 0.467318 0.064436
0.159576 0.467619 0.064625
0.184929 0.467917 0.064808
0.210285 0.468211 0.064987
0.235644 0.468502 0.065160
0.261008 0.468790 0.065329
0.286374 0.469075 0.065492
0.311745 0.469357 0.065650
0.337119 0.469636 0.065804
0.362496 0.469911 0.065952
0.387878 0.470184 0.066095
0.413263 0.470453 0.066234
0.438651 0.470720 0.066367
0.464044 0.470984 0.066496
0.489440 0.471244 0.066620
0.514841 0.471502 0.066739
0.540245 0.471757 0.066854
0.565653 0.472010 0.066963
0.591065 0.472259 0.067068
0.616481 0.472505 0.067168
0.641900 0.472749 0.067264
0.667324 0.472990 0.067354
0.692752 0.473228 0.067441
0.718183 0.473464 0.067522
0.743619 0.473697 0.067599
0.769059 0.473927 0.067671
0.794503 0.474154 0.067739
0.819951 0.474379 0.067802
0.845403 0.474601 0.067861
0.870859 0.474820 0.067915
0.896319 0.475037 0.067964
0.084704 0.492728 0.064692
0.110058 0.493024 0.064874
0.135415 0.493318 0.065051
0.160776 0.493608 0.065222
0.186141 0.493894 0.065389
0.211509 0.494178 0.065550
0.236880 0.494459 0.065707
0.262256 0.494736 0.065858
0.287635 0.495011 0.066005
0.313017 0.495282 0.066146
0.338404 0.495551 0.066283
0.363794 0.495816 0.066415
0.389188 0.496079 0.066542
0.414586 0.496339 0.066664
0.439987 0.496596 0.066781
0.465393 0.496850 0.066894
0.490802 0.497101 0.067002
0.516216 0.497349 0.067105
0.541633 0.497594 0.067203
0.567054 0.497837 0.067297
0.592479 0.498077 0.067386
0.617908 0.498314 0.067471
0.643342 0.498549 0.067551
0.668779 0.498781 0.067626
0.694220 0.499010 0.067696
0.719665 0.499236 0.067762
0.745115 0.499460 0.067824
0.770568 0.499681 0.067881
0.796026 0.499900 0.067933
0.821487 0.500116 0.067981
0.846953 0.500329 0.068025
0.872423 0.500540 0.068064
0.897897 0.500748 0.068098
0.085908 0.518712 0.065283
0.111274 0.518998 0.065448
0.136644 0.519281 0.065608
0.162016 0.519560 0.065762
0.187393 0.519837 0.065912
0.212773 0.520110 0.066057
0.238158 0.520380 0.066197
0.263545 0.520648 0.066332
0.288937 0.520912 0.066462
0.314332 0.521174 0.066587
0.339732 0.521433 0.066707
0.365135 0.521688 0.066823
0.390542 0.521941 0.066934
0.415952 0.522191 0.067040
0.441367 0.522439 0.067141
0.466786 0.522683 0.067238
0.492208 0.522925 0.067330
0.517635 0.523164 0.067418
0.543066 0.523400 0.067500
0.568500 0.523634 0.067578
0.593939 0.523864 0.067652
0.619382 0.524093 0.067721
0.644828 0.524318 0.067785
0.670279 0.524541 0.067845
0.695734 0.524761 0.067900
0.721193 0.524979 0.067951
0.746657 0.525194 0.067997
0.772124 0.525406 0.068039
0.797595 0.525616 0.068077
0.823071 0.525823 0.068109
0.848551 0.526028 0.068138
0.874035 0.526230 0.068162
0.899523 0.526430 0.068181
0.087153 0.544661 0.065817
0.112531 0.544936 0.065965
0.137913 0.545209 0.066108
0.163298 0.545478 0.066246
0.188687 0.545744 0.066379
0.214080 0.546008 0.066508
0.239477 0.546268 0.066631
0.264878 0.546526 0.066750
0.290282 0.546781 0.066864
0.315691 0.547033 0.066973
0.341103 0.547282 0.067077
0.366519 0.547528 0.067177
0.391939 0.547771 0.067272
0.417363 0.548012 0.067363
0.442791 0.548250 0.067448
0.468223 0.548485 0.067529
0.493660 0.548718 0.067606
0.519100 0.548948 0.067678
0.544544 0.549175 0.067745
0.569992 0.549399 0.067808
0.595444 0.549621 0.067866
0.620901 0.549841 0.067919
0.646361 0.550057 0.067969
0.671826 0.550271 0.068013
0.697295 0.550483 0.068053
0.722768 0.550692 0.068089
0.748245 0.550898 0.068120
0.773727 0.551102 0.068147
0.799212 0.551303 0.068169
0.824702 0.551502 0.068187
0.850196 0.551698 0.068201
0.875695 0.551892 0.068210
0.901197 0.552084 0.068215
0.088440 0.570575 0.066295
0.113830 0.570841 0.066427
0.139224 0.571103 0.066553
0.164623 0.571363 0.066675
0.190025 0.571619 0.066792
0.215431 0.571873 0.066904
0.240840 0.572124 0.067012
0.266254 0.572372 0.067114
0.291672 0.572617 0.067212
0.317093 0.572859 0.067306
0.342519 0.573099 0.067394
0.367948 0.573336 0.067478
0.393382 0.573570 0.067558
0.418819 0.573802 0.067632
0.444261 0.574031 0.067703
0.469707 0.574257 0.067768
0.495156 0.574481 0.067829
0.520610 0.574701 0.067886
0.546068 0.574920 0.067938
0.571530 0.575135 0.067985
0.596996 0.575349 0.068028
0.622467 0.575559 0.068067
0.647941 0.575767 0.068101
0.673420 0.575973 0.068131
0.698903 0.576176 0.068156
0.724390 0.576376 0.068177
0.749882 0.576574 0.068193
0.775377 0.576769 0.068205
0.800877 0.576962 0.068212
0.826381 0.577153 0.068216
0.851890 0.577341 0.068215
0.877402 0.577527 0.068209
0.902919 0.577710 0.068199
0.089769 0.596456 0.066718
0.115172 0.596712 0.066833
0.140579 0.596964 0.066944
0.165990 0.597214 0.067050
0.191406 0.597461 0.067151
0.216825 0.597706 0.067247
0.242248 0.597947 0.067338
0.267675 0.598186 0.067425
0.293106 0.598422 0.067508
0.318541 0.598655 0.067585
0.343980 0.598886 0.067659
0.369423 0.599113 0.067727
0.394870 0.599339 0.067791
0.420321 0.599561 0.067850
0.445776 0.599781 0.067905
0.471236 0.599999 0.067956
0.496699 0.600213 0.068002
0.522167 0.600426 0.068043
0.547639 0.600635 0.068080
0.573115 0.600842 0.068112
0.598595 0.601047 0.068140
0.624080 0.601249 0.068164
0.649569 0.601448 0.068183
0.675061 0.601645 0.068198
0.700559 0.601840 0.068208
0.726060 0.602032 0.068214
0.751566 0.602222 0.068216
0.777076 0.602409 0.068213
0.802590 0.602594 0.068206
0.828109 0.602776 0.068195
0.853632 0.602956 0.068179
0.879159 0.603133 0.068159
0.904690 0.603308 0.068135
0.091141 0.622305 0.067087
0.116558 0.622551 0.067186
0.141978 0.622794 0.067281
0.167403 0.623034 0.067371
0.192831 0.623272 0.067456
0.218263 0.623507 0.067537
0.243700 0.623739 0.067613
0.269140 0.623969 0.067684
0.294585 0.624196 0.067751
0.320034 0.624420 0.067813
0.345486 0.624642 0.067871
0.370943 0.624861 0.067924
0.396404 0.625077 0.067973
0.421869 0.625291 0.068017
0.447338 0.625502 0.068057
0.472812 0.625711 0.068092
0.498289 0.625917 0.068123
0.523771 0.626121 0.068149
0.549257 0.626322 0.068171
0.574748 0.626520 0.068189
0.600242 0.626716 0.068202
0.625741 0.626910 0.068211
0.651244 0.627101 0.068215
0.676751 0.627290 0.068215
0.702262 0.627476 0.068211
0.727778 0.627660 0.068202
0.753299 0.627842 0.068189
0.778823 0.628021 0.068172
0.804352 0.628197 0.068151
0.829885 0.628372 0.068125
0.855423 0.628543 0.068095
0.880964 0.628713 0.068060
0.906511 0.628880 0.068022
0.092558 0.648121 0.067402
0.117988 0.648358 0.067486
0.143422 0.648592 0.067565
0.168860 0.648823 0.067639
0.194302 0.649052 0.067709
0.219748 0.649278 0.067774
0.245198 0.649501 0.067835
0.270652 0.649722 0.067891
0.296111 0.649940 0.067942
0.321573 0.650155 0.067989
0.347040 0.650368 0.068032
0.372510 0.650578 0.068070
0.397985 0.650786 0.068104
0.423464 0.650991 0.068133
0.448948 0.651194 0.068158
0.474435 0.651394 0.068178
0.499927 0.651592 0.068194
0.525423 0.651787 0.068206
0.550923 0.651980 0.068213
0.576428 0.652170 0.068216
0.601937 0.652358 0.068214
0.627450 0.652544 0.068208
0.652967 0.652726 0.068198
0.678489 0.652907 0.068184
0.704015 0.653085 0.068165
0.729545 0.653261 0.068142
0.755080 0.653434 0.068114
0.780619 0.653605 0.068083
0.806163 0.653774 0.068047
0.831711 0.653940 0.068006
0.857263 0.654104 0.067962
0.882820 0.654266 0.067913
0.908381 0.654426 0.067860
0.094020 0.673907 0.067665
0.119464 0.674134 0.067733
0.144911 0.674359 0.067797
0.170363 0.674582 0.067856
0.195819 0.674801 0.067910
0.221278 0.675018 0.067960
0.246742 0.675233 0.068006
0.272210 0.675445 0.068046
0.297683 0.675654 0.068083
0.323159 0.675861 0.068115
0.348640 0.676066 0.068143
0.374125 0.676267 0.068166
0.399614 0.676467 0.068185
0.425107 0.676663 0.068199
0.450605 0.676858 0.068209
0.476107 0.677050 0.068214
0.501613 0.677239 0.068216
0.527123 0.677426 0.068213
0.552638 0.677610 0.068205
0.578157 0.677793 0.068193
0.603680 0.677972 0.068177
0.629208 0.678150 0.068157
0.654740 0.678324 0.068132
0.680276 0.678497 0.068103
0.705817 0.678667 0.068070
0.731362 0.678835 0.068032
0.756911 0.679000 0.067991
0.782465 0.679164 0.067945
0.808023 0.679324 0.067894
0.833586 0.679483 0.067840
0.859153 0.679639 0.067781
0.884725 0.679793 0.067719
0.910301 0.679945 0.067652
0.095528 0.699662 0.067876
0.120986 0.699881 0.067929
0.146447 0.700097 0.067977
0.171912 0.700310 0.068021
0.197382 0.700522 0.068060
0.222856 0.700730 0.068095
0.248334 0.700936 0.068126
0.273816 0.701139 0.068152
0.299302 0.701340 0.068173
0.324793 0.701539 0.068190
0.350288 0.701734 0.068203
0.375787 0.701928 0.068211
0.401290 0.702119 0.068215
0.426798 0.702307 0.068215
0.452310 0.702493 0.068210
0.477826 0.702677 0.068201
0.503347 0.702858 0.068188
0.528872 0.703037 0.068170
0.554401 0.703213 0.068148
0.579934 0.703388 0.068122
0.605472 0.703559 0.068092
0.631015 0.703729 0.068057
0.656561 0.703896 0.068018
0.682112 0.704060 0.067974
0.707668 0.704222 0.067927
0.733228 0.704382 0.067875
0.758792 0.704540 0.067819
0.784361 0.704695 0.067759
0.809934 0.704849 0.067695
0.835511 0.704999 0.067626
0.861093 0.705148 0.067553
0.886680 0.705294 0.067476
0.912271 0.705438 0.067395
0.097083 0.725388 0.068036
0.122554 0.725598 0.068073
0.148029 0.725805 0.068107
0.173509 0.726010 0.068136
0.198992 0.726213 0.068160
0.224480 0.726413 0.068180
0.249973 0.726610 0.068195
0.275469 0.726805 0.068207
0.300970 0.726998 0.068213
0.326475 0.727188 0.068216
0.351984 0.727375 0.068214
0.377497 0.727560 0.068208
0.403015 0.727743 0.068197
0.428537 0.727924 0.068182
0.454064 0.728102 0.068163
0.479595 0.728277 0.068139
0.505130 0.728450 0.068111
0.530669 0.728621 0.068079
0.556213 0.728790 0.068043
0.581761 0.728956 0.068002
0.607314 0.729119 0.067958
0.632871 0.729281 0.067909
0.658433 0.729440 0.067855
