asset_packs/decayed_log_litter/mood/grade_33.cube
TITLE "decayed_log_litter mood grade"
# Generated by construction_code_v2/gen_asset_packs.py. Domain: display-referred sRGB in, sRGB out.
LUT_3D_SIZE 5
DOMAIN_MIN 0.0 0.0 0.0
DOMAIN_MAX 1.0 1.0 1.0
0.066901 0.042013 0.042360
0.270162 0.047705 0.047954
0.472458 0.052000 0.052029
0.674618 0.055730 0.055417
0.876815 0.059065 0.058288
0.075408 0.256984 0.056516
0.277641 0.260199 0.059223
0.480012 0.263122 0.061515
0.682561 0.265792 0.063432
0.885316 0.268237 0.065002
0.083539 0.466707 0.064043
0.286374 0.469075 0.065492
0.489440 0.471244 0.066620
0.692752 0.473228 0.067441
0.896319 0.475037 0.067964
0.094020 0.673907 0.067665
0.297683 0.675654 0.068083
0.501613 0.677239 0.068216
0.705817 0.678667 0.068070
0.910301 0.679945 0.067652
0.107416 0.879149 0.067949
0.312004 0.880373 0.067432
0.516877 0.881453 0.066650
0.722041 0.882393 0.065605
0.927499 0.883197 0.064302
0.068323 0.044309 0.244637
0.270976 0.049246 0.249434
0.473195 0.053318 0.253245
0.675355 0.056902 0.256445
0.877585 0.060124 0.259162
0.076155 0.258112 0.257485
0.278429 0.261222 0.260045
0.480856 0.264055 0.262206
0.683473 0.266646 0.264003
0.886302 0.269020 0.265460
0.084477 0.467534 0.264572
0.287389 0.469833 0.265910
0.490537 0.471938 0.266933
0.693934 0.473862 0.267651
0.897590 0.475614 0.268076
0.095235 0.674519 0.267839
0.298987 0.676210 0.268160
0.503009 0.677741 0.268197
0.707308 0.679118 0.267958
0.911888 0.680345 0.267448
0.108942 0.879582 0.267804
0.313626 0.880756 0.267196
0.518598 0.881788 0.266324
0.723862 0.882681 0.265191
0.929420 0.883439 0.263801
0.069330 0.046140 0.446433
0.271750 0.050697 0.450810
0.473926 0.054582 0.454392
0.676100 0.058032 0.457417
0.878371 0.061150 0.459988
0.076912 0.259202 0.458402
0.279234 0.262213 0.460822
0.481722 0.264961 0.462856
0.684409 0.267476 0.464535
0.887315 0.269780 0.465881
0.085440 0.468338 0.465063
0.288431 0.470569 0.466292
0.491662 0.472611 0.467210
0.695146 0.474475 0.467828
0.898892 0.476171 0.468155
0.096479 0.675112 0.467980
0.300322 0.676748 0.468204
0.504438 0.678226 0.468147
0.708831 0.679551 0.467815
0.913508 0.680729 0.467214
0.110501 0.879997 0.467627
0.315282 0.881122 0.466930
0.520353 0.882107 0.465969
0.725716 0.882954 0.464748
0.931376 0.883666 0.463271
0.070209 0.047793 0.648039
0.272499 0.052075 0.652098
0.474659 0.055796 0.655475
0.676857 0.059125 0.658338
0.879175 0.062143 0.660767
0.077685 0.260257 0.659270
0.280058 0.263174 0.661554
0.482611 0.265840 0.663465
0.685370 0.268281 0.665029
0.888355 0.270517 0.666266
0.086430 0.469118 0.665516
0.289500 0.471283 0.666638
0.492816 0.473264 0.667453
0.696388 0.475070 0.667971
0.900225 0.476710 0.668202
0.097754 0.675686 0.668088
0.301689 0.677267 0.668215
0.505898 0.678693 0.668065
0.710388 0.679967 0.667641
0.915162 0.681097 0.666950
0.112093 0.880395 0.667420
0.316972 0.881472 0.666633
0.522141 0.882410 0.665583
0.727605 0.883211 0.664275
0.933366 0.883878 0.662712
0.071020 0.049329 0.849513
0.273235 0.053390 0.853310
0.475396 0.056965 0.856500
0.677628 0.060182 0.859209
0.879998 0.063106 0.861503
0.078473 0.261278 0.860089
0.280904 0.264106 0.862243
0.483524 0.266693 0.864034
0.686358 0.269062 0.865485
0.889423 0.271233 0.866615
0.087446 0.469875 0.865932
0.290599 0.471976 0.866949
0.494000 0.473896 0.867662
0.697661 0.475645 0.868081
0.901590 0.477230 0.868216
0.099060 0.676241 0.868163
0.303088 0.677769 0.868195
0.507391 0.679142 0.867951
0.711977 0.680367 0.867436
0.916849 0.681448 0.866655
0.113717 0.880777 0.867182
0.318694 0.881806 0.866305
0.523963 0.882697 0.865168
0.729528 0.883452 0.863773
0.935390 0.884075 0.862123
