asset_packs/decayed_log_litter/mood/grade_33.cube
TITLE "decayed_log_litter mood grade"
# Generated by construction_code_v2/gen_asset_packs.py. Domain: display-referred sRGB in, sRGB out.
LUT_3D_SIZE 9
DOMAIN_MIN 0.0 0.0 0.0
DOMAIN_MAX 1.0 1.0 1.0
0.066901 0.042013 0.042360
0.168821 0.045202 0.045516
0.270162 0.047705 0.047954
0.371345 0.049942 0.050096
0.472458 0.052000 0.052029
0.573541 0.053921 0.053795
0.674618 0.055730 0.055417
0.775706 0.057441 0.056911
0.876815 0.059065 0.058288
0.071756 0.150709 0.050821
0.172854 0.152714 0.052690
0.273933 0.154592 0.054401
0.375012 0.156363 0.055975
0.476107 0.158042 0.057425
0.577226 0.159637 0.058763
0.678378 0.161158 0.059994
0.779568 0.162609 0.061126
0.880802 0.163996 0.062163
0.075408 0.256984 0.056516
0.176511 0.258632 0.057925
0.277641 0.260199 0.059223
0.378807 0.261694 0.060418
0.480012 0.263122 0.061515
0.581263 0.264486 0.062518
0.682561 0.265792 0.063432
0.783912 0.267041 0.064259
0.885316 0.268237 0.065002
0.079241 0.362221 0.060828
0.180462 0.363625 0.061891
0.281730 0.364968 0.062861
0.383047 0.366253 0.063743
0.484417 0.367482 0.064539
0.585841 0.368659 0.065253
0.687323 0.369786 0.065885
0.788864 0.370864 0.066438
0.890466 0.371895 0.066914
0.083539 0.466707 0.064043
0.184929 0.467917 0.064808
0.286374 0.469075 0.065492
0.387878 0.470184 0.066095
0.489440 0.471244 0.066620
0.591065 0.472259 0.067068
0.692752 0.473228 0.067441
0.794503 0.474154 0.067739
0.896319 0.475037 0.067964
0.088440 0.570575 0.066295
0.190025 0.571619 0.066792
0.291672 0.572617 0.067212
0.393382 0.573570 0.067558
0.495156 0.574481 0.067829
0.596996 0.575349 0.068028
0.698903 0.576176 0.068156
0.800877 0.576962 0.068212
0.902919 0.577710 0.068199
0.094020 0.673907 0.067665
0.195819 0.674801 0.067910
0.297683 0.675654 0.068083
0.399614 0.676467 0.068185
0.501613 0.677239 0.068216
0.603680 0.677972 0.068177
0.705817 0.678667 0.068070
0.808023 0.679324 0.067894
0.910301 0.679945 0.067652
0.100334 0.776752 0.068204
0.202357 0.777510 0.068210
0.304450 0.778230 0.068146
0.406612 0.778911 0.068014
0.508844 0.779555 0.067814
0.611147 0.780162 0.067546
0.713522 0.780732 0.067212
0.815968 0.781267 0.066812
0.918487 0.781767 0.066346
0.107416 0.879149 0.067949
0.209674 0.879780 0.067724
0.312004 0.880373 0.067432
0.414404 0.880931 0.067074
0.516877 0.881453 0.066650
0.619423 0.881941 0.066160
0.722041 0.882393 0.065605
0.824733 0.882812 0.064986
0.927499 0.883197 0.064302
0.067723 0.043278 0.143617
0.169304 0.046092 0.146387
0.270576 0.048488 0.148709
0.371728 0.050658 0.150773
0.472827 0.052667 0.152646
0.573906 0.054547 0.154361
0.674986 0.056321 0.155938
0.776080 0.058002 0.157391
0.877198 0.059599 0.158731
0.072133 0.151406 0.151475
0.173221 0.153365 0.153287
0.274298 0.155205 0.154950
0.375382 0.156943 0.156481
0.476484 0.158592 0.157892
0.577613 0.160162 0.159192
0.678778 0.161658 0.160390
0.779982 0.163087 0.161489
0.881231 0.164454 0.162495
0.075780 0.257553 0.157008
0.176891 0.259173 0.158378
0.278033 0.260715 0.159640
0.379211 0.262186 0.160801
0.480432 0.263592 0.161866
0.581698 0.264936 0.162838
0.683014 0.266222 0.163722
0.784383 0.267453 0.164521
0.885806 0.268631 0.165236
0.079650 0.362705 0.161199
0.180887 0.364088 0.162230
0.282171 0.365411 0.163170
0.383506 0.366676 0.164023
0.484894 0.367888 0.164791
0.586338 0.369047 0.165476
0.687840 0.370157 0.166081
0.789402 0.371219 0.166608
0.891024 0.372235 0.167058
0.084005 0.467124 0.164312
0.185413 0.468316 0.165050
0.286878 0.469457 0.165706
0.388402 0.470549 0.166282
0.489985 0.471594 0.166781
0.591631 0.472593 0.167203
0.693339 0.473548 0.167550
0.795112 0.474459 0.167824
0.896951 0.475328 0.168024
0.088971 0.570935 0.166473
0.190577 0.571963 0.166943
0.292245 0.572946 0.167338
0.393977 0.573884 0.167658
0.495774 0.574780 0.167905
0.597636 0.575634 0.168080
0.699566 0.576447 0.168183
0.801563 0.577221 0.168216
0.903629 0.577955 0.168179
0.094624 0.674215 0.167756
0.196444 0.675096 0.167977
0.298331 0.675935 0.168125
0.400285 0.676733 0.168203
0.502307 0.677492 0.168210
0.604398 0.678212 0.168148
0.706558 0.678895 0.168018
0.808789 0.679539 0.167820
0.911090 0.680147 0.167554
0.101013 0.777014 0.168214
0.203060 0.777759 0.168196
0.305176 0.778465 0.168109
0.407362 0.779134 0.167954
0.509618 0.779765 0.167731
0.611946 0.780359 0.167440
0.714345 0.780918 0.167084
0.816816 0.781441 0.166661
0.919359 0.781929 0.166173
0.108175 0.879368 0.167880
0.210457 0.879985 0.167633
0.312811 0.880567 0.167318
0.415236 0.881112 0.166937
0.517733 0.881623 0.166491
0.620304 0.882098 0.165979
0.722947 0.882539 0.165402
0.825664 0.882946 0.164761
0.928456 0.883320 0.164055
0.068323 0.044309 0.244637
0.169756 0.046938 0.247211
0.270976 0.049246 0.249434
0.372106 0.051356 0.251429
0.473195 0.053318 0.253245
0.574272 0.055161 0.254911
0.675355 0.056902 0.256445
0.776456 0.058553 0.257858
0.877585 0.060124 0.259162
0.072505 0.152086 0.252109
0.173587 0.154002 0.253868
0.274665 0.155806 0.255484
0.375753 0.157513 0.256973
0.476864 0.159134 0.258345
0.578005 0.160678 0.259610
0.679182 0.162151 0.260774
0.780401 0.163558 0.261841
0.881667 0.164904 0.262816
0.076155 0.258112 0.257485
0.177275 0.259705 0.258818
0.278429 0.261222 0.260045
0.379621 0.262671 0.261173
0.480856 0.264055 0.262206
0.582139 0.265379 0.263148
0.683473 0.266646 0.264003
0.784860 0.267859 0.264773
0.886302 0.269020 0.265460
0.080065 0.363182 0.261560
0.181318 0.364544 0.262559
0.282619 0.365847 0.263470
0.383971 0.367094 0.264293
0.485378 0.368287 0.265033
0.586842 0.369430 0.265691
0.688364 0.370523 0.266269
0.789946 0.371569 0.266769
0.891590 0.372569 0.267193
0.084477 0.467534 0.264572
0.185904 0.468709 0.265282
0.287389 0.469833 0.265910
0.388933 0.470909 0.266460
0.490537 0.471938 0.266933
0.592204 0.472922 0.267329
0.693934 0.473862 0.267651
0.795729 0.474759 0.267900
0.897590 0.475614 0.268076
0.089510 0.571289 0.266641
0.191136 0.572302 0.267086
0.292826 0.573269 0.267455
0.394580 0.574193 0.267750
0.496399 0.575075 0.267972
0.598284 0.575915 0.268123
0.700236 0.576714 0.268202
0.802257 0.577474 0.268211
0.904346 0.578195 0.268151
0.095235 0.674519 0.267839
0.197078 0.675385 0.268035
0.298987 0.676210 0.268160
0.400964 0.676995 0.268213
0.503009 0.677741 0.268197
0.605124 0.678448 0.268112
0.707308 0.679118 0.267958
0.809562 0.679750 0.267737
0.911888 0.680345 0.267448
0.101701 0.777271 0.268215
0.203771 0.778003 0.268174
0.305911 0.778696 0.268064
0.408120 0.779352 0.267885
0.510401 0.779971 0.267639
0.612752 0.780553 0.267327
0.715176 0.781100 0.266948
0.817671 0.781611 0.266503
0.920240 0.782087 0.265992
0.108942 0.879582 0.267804
0.211249 0.880187 0.267533
0.313626 0.880756 0.267196
0.416076 0.881290 0.266793
0.518598 0.881788 0.266324
0.621193 0.882252 0.265790
0.723862 0.882681 0.265191
0.826604 0.883077 0.264528
0.929420 0.883439 0.263801
0.068849 0.045253 0.345565
0.170186 0.047749 0.347996
0.271367 0.049982 0.350134
0.372478 0.052037 0.352064
0.473561 0.053956 0.353826
0.574638 0.055763 0.355446
0.675726 0.057472 0.356938
0.776836 0.059095 0.358313
0.877976 0.060641 0.359581
0.072874 0.152750 0.352723
0.173953 0.154626 0.354432
0.275033 0.156395 0.356003
0.376127 0.158072 0.357451
0.477247 0.159667 0.358787
0.578400 0.161186 0.360016
0.679591 0.162636 0.361147
0.780826 0.164022 0.362182
0.882107 0.165347 0.363126
0.076532 0.258662 0.357950
0.177663 0.260228 0.359246
0.278829 0.261722 0.360439
0.380035 0.263148 0.361534
0.481287 0.264511 0.362536
0.582586 0.265816 0.363448
0.683938 0.267064 0.364274
0.785343 0.268259 0.365016
0.886805 0.269402 0.365676
0.080485 0.363651 0.361910
0.181754 0.364993 0.362878
0.283072 0.366276 0.363759
0.384443 0.367505 0.364553
0.485869 0.368681 0.365265
0.587352 0.369807 0.365896
0.688894 0.370884 0.366448
0.790497 0.371914 0.366922
0.892162 0.372899 0.367320
0.084956 0.467939 0.364822
0.186402 0.469096 0.365504
0.287906 0.470204 0.366106
0.389470 0.471264 0.366629
0.491096 0.472278 0.367076
0.592784 0.473246 0.367447
0.694536 0.474171 0.367744
0.796354 0.475054 0.367968
0.898237 0.475895 0.368120
0.090055 0.571638 0.366801
0.191703 0.572635 0.367219
0.293415 0.573588 0.367563
0.395190 0.574497 0.367834
0.497032 0.575365 0.368031
0.598940 0.576191 0.368157
0.700915 0.576977 0.368213
0.802958 0.577723 0.368198
0.905071 0.578432 0.368115
0.095853 0.674818 0.367914
0.197718 0.675670 0.368086
0.299651 0.676481 0.368186
0.401651 0.677253 0.368216
0.503720 0.677986 0.368176
0.605858 0.678680 0.368067
0.708065 0.679336 0.367891
0.810344 0.679956 0.367646
0.912694 0.680539 0.367335
0.102396 0.777524 0.368209
0.204490 0.778243 0.368144
0.306653 0.778923 0.368011
0.408887 0.779566 0.367809
0.511191 0.780173 0.367541
0.613567 0.780743 0.367205
0.716015 0.781277 0.366804
0.818536 0.781776 0.366337
0.921129 0.782241 0.365804
0.109718 0.879791 0.367719
0.212048 0.880384 0.367426
0.314450 0.880941 0.367067
0.416924 0.881463 0.366641
0.519471 0.881949 0.366150
0.622091 0.882402 0.365594
0.724785 0.882819 0.364973
0.827552 0.883204 0.364289
0.930394 0.883555 0.363540
0.069330 0.046140 0.446433
0.170598 0.048531 0.448749
0.271750 0.050697 0.450810
0.372848 0.052703 0.452680
0.473926 0.054582 0.454392
0.575006 0.056353 0.455966
0.676100 0.058032 0.457417
0.777220 0.059629 0.458755
0.878371 0.061150 0.459988
0.073242 0.153400 0.453320
0.174319 0.155238 0.454980
0.275402 0.156975 0.456508
0.376505 0.158623 0.457917
0.477635 0.160191 0.459216
0.578800 0.161686 0.460411
0.680005 0.163114 0.461509
0.781255 0.164479 0.462513
0.882554 0.165784 0.463427
0.076912 0.259202 0.458402
0.178055 0.260743 0.459663
0.279234 0.262213 0.460822
0.380455 0.263618 0.461885
0.481722 0.264961 0.462856
0.583039 0.266246 0.463738
0.684409 0.267476 0.464535
0.785833 0.268653 0.465249
0.887315 0.269780 0.465881
0.080911 0.364114 0.462249
0.182196 0.365435 0.463187
0.283532 0.366700 0.464038
0.384921 0.367910 0.464804
0.486366 0.369069 0.465488
0.587869 0.370178 0.466092
0.689432 0.371239 0.466617
0.791055 0.372253 0.467066
0.892742 0.373223 0.467439
0.085440 0.468338 0.465063
0.186906 0.469478 0.465717
0.288431 0.470569 0.466292
0.390016 0.471613 0.466789
0.491662 0.472611 0.467210
0.593372 0.473565 0.467556
0.695146 0.474475 0.467828
0.796986 0.475344 0.468027
0.898892 0.476171 0.468155
0.090608 0.571982 0.466951
0.192277 0.572964 0.467345
0.294010 0.573901 0.467663
0.395808 0.574796 0.467909
0.497672 0.575650 0.468082
0.599603 0.576462 0.468184
0.701601 0.577235 0.468216
0.803668 0.577968 0.468178
0.905804 0.578663 0.468071
0.096479 0.675112 0.467980
0.198367 0.675950 0.468128
0.300322 0.676748 0.468204
0.402346 0.677506 0.468210
0.504438 0.678226 0.468147
0.606599 0.678907 0.468015
0.708831 0.679551 0.467815
0.811134 0.680158 0.467548
0.913508 0.680729 0.467214
0.103099 0.777773 0.468195
0.205217 0.778478 0.468107
0.307404 0.779146 0.467950
0.409661 0.779776 0.467726
0.511990 0.780370 0.467434
0.614390 0.780928 0.467076
0.716863 0.781451 0.466652
0.819408 0.781938 0.466163
0.922026 0.782391 0.465609
0.110501 0.879997 0.467627
0.212856 0.880577 0.467312
0.315282 0.881122 0.466930
0.417781 0.881632 0.466482
0.520353 0.882107 0.465969
0.622998 0.882547 0.465391
0.725716 0.882954 0.464748
0.828509 0.883327 0.464041
0.931376 0.883666 0.463271
0.069780 0.046984 0.547255
0.170998 0.049288 0.549474
0.272126 0.051394 0.551464
0.373215 0.053354 0.553278
0.474292 0.055194 0.554941
0.575375 0.056933 0.556472
0.676477 0.058583 0.557884
0.777607 0.060153 0.559185
0.878771 0.061650 0.560383
0.073607 0.154037 0.553899
0.174685 0.155839 0.555513
0.275774 0.157544 0.557000
0.376885 0.159164 0.558370
0.478026 0.160706 0.559633
0.579205 0.162178 0.560795
0.680425 0.163584 0.561860
0.781691 0.164929 0.562833
0.883006 0.166215 0.563718
0.077297 0.259734 0.558842
0.178451 0.261250 0.560067
0.279644 0.262697 0.561193
0.380880 0.264081 0.562225
0.482164 0.265403 0.563165
0.583498 0.266669 0.564018
0.684886 0.267881 0.564787
0.786330 0.269041 0.565473
0.887831 0.270151 0.566078
0.081342 0.364569 0.562577
0.182644 0.365871 0.563486
0.283997 0.367117 0.564308
0.385405 0.368309 0.565046
0.486870 0.369451 0.565702
0.588393 0.370543 0.566279
0.689976 0.371588 0.566778
0.791621 0.372588 0.567201
0.893329 0.373542 0.567548
0.085932 0.468731 0.565294
0.187417 0.469854 0.565921
0.288962 0.470929 0.566470
0.390568 0.471957 0.566941
0.492236 0.472940 0.567336
0.593967 0.473879 0.567657
0.695763 0.474775 0.567904
0.797626 0.475629 0.568079
0.899555 0.476443 0.568182
0.091168 0.572320 0.567093
0.192859 0.573287 0.567461
0.294614 0.574210 0.567755
0.396434 0.575091 0.567976
0.498320 0.575930 0.568125
0.600274 0.576729 0.568203
0.702295 0.577488 0.568211
0.804386 0.578209 0.568149
0.906546 0.578891 0.568019
0.097113 0.675401 0.568038
0.199024 0.676226 0.568161
0.301002 0.677010 0.568214
0.403048 0.677755 0.568196
0.505164 0.678461 0.568110
0.607350 0.679130 0.567955
0.709605 0.679761 0.567732
0.811932 0.680356 0.567442
0.914331 0.680915 0.567086
0.103811 0.778016 0.568173
0.205952 0.778709 0.568061
0.308163 0.779364 0.567881
0.410444 0.779982 0.567634
0.512797 0.780564 0.567320
0.615222 0.781110 0.566940
0.717719 0.781620 0.566494
0.820289 0.782096 0.565982
0.922932 0.782537 0.565406
0.111293 0.880198 0.567528
0.213672 0.880767 0.567189
0.316123 0.881299 0.566785
0.418646 0.881797 0.566315
0.521243 0.882260 0.565780
0.623913 0.882689 0.565180
0.726656 0.883084 0.564515
0.829474 0.883446 0.563787
0.932366 0.883774 0.562995
0.070209 0.047793 0.648039
0.171388 0.050022 0.650172
0.272499 0.052075 0.652098
0.373581 0.053991 0.653858
0.474659 0.055796 0.655475
0.575747 0.057503 0.656965
0.676857 0.059125 0.658338
0.777998 0.060669 0.659603
0.879175 0.062143 0.660767
0.073973 0.154660 0.654462
0.175053 0.156428 0.656031
0.276148 0.158103 0.657478
0.377269 0.159696 0.658811
0.478422 0.161214 0.660039
0.579614 0.162663 0.661167
0.680849 0.164047 0.662201
0.782132 0.165372 0.663143
0.883465 0.166639 0.663998
0.077685 0.260257 0.659270
0.178851 0.261749 0.660461
0.280058 0.263174 0.661554
0.381311 0.264536 0.662554
0.482611 0.265840 0.663465
0.583964 0.267087 0.664289
0.685370 0.268281 0.665029
0.786833 0.269424 0.665687
0.888355 0.270517 0.666266
0.081778 0.365018 0.662896
0.183097 0.366300 0.663774
0.284469 0.367528 0.664568
0.385896 0.368703 0.665278
0.487380 0.369827 0.665907
0.588924 0.370903 0.666457
0.690528 0.371933 0.666930
0.792194 0.372917 0.667327
0.893924 0.373857 0.667650
0.086430 0.469118 0.665516
0.187935 0.470225 0.666116
0.289500 0.471283 0.666638
0.391127 0.472296 0.667083
0.492816 0.473264 0.667453
0.594570 0.474188 0.667749
0.696388 0.475070 0.667971
0.798273 0.475910 0.668122
0.900225 0.476710 0.668202
0.091735 0.572654 0.667227
0.193447 0.573605 0.667569
0.295224 0.574514 0.667838
0.397067 0.575380 0.668034
0.498976 0.576206 0.668159
0.600953 0.576991 0.668213
0.702998 0.577737 0.668197
0.805111 0.578444 0.668112
0.907295 0.579114 0.667959
0.097754 0.675686 0.668088
0.199688 0.676496 0.668187
0.301689 0.677267 0.668215
0.403759 0.677999 0.668174
0.505898 0.678693 0.668065
0.608108 0.679348 0.667887
0.710388 0.679967 0.667641
0.812739 0.680550 0.667329
0.915162 0.681097 0.666950
0.104530 0.778256 0.668142
0.206695 0.778936 0.668008
0.308930 0.779578 0.667805
0.411235 0.780184 0.667535
0.513613 0.780753 0.667198
0.616062 0.781287 0.666796
0.718584 0.781785 0.666327
0.821178 0.782249 0.665793
0.923846 0.782679 0.665195
0.112093 0.880395 0.667420
0.214496 0.880951 0.667059
0.316972 0.881472 0.666633
0.419520 0.881958 0.666140
0.522141 0.882410 0.665583
0.624836 0.882827 0.664961
0.727605 0.883211 0.664275
0.830448 0.883561 0.663525
0.933366 0.883878 0.662712
0.070621 0.048573 0.748790
0.171771 0.050736 0.750847
0.272868 0.052739 0.752713
0.373947 0.054616 0.754422
0.475026 0.056386 0.755995
0.576121 0.058063 0.757444
0.677241 0.059658 0.758779
0.778393 0.061177 0.760010
0.879584 0.062628 0.761141
0.074339 0.155272 0.755010
0.175423 0.157007 0.756536
0.276526 0.158653 0.757943
0.377656 0.160219 0.759239
0.478822 0.161713 0.760433
0.580028 0.163140 0.761528
0.681279 0.164504 0.762531
0.782579 0.165808 0.763443
0.883930 0.167057 0.764269
0.078076 0.260771 0.759685
0.179256 0.262240 0.760843
0.280478 0.263644 0.761904
0.381747 0.264985 0.762873
0.483065 0.266269 0.763754
0.584435 0.267498 0.764549
0.685861 0.268674 0.765261
0.787343 0.269800 0.765893
0.888885 0.270878 0.766445
0.082221 0.365459 0.763204
0.183557 0.366723 0.764053
0.284948 0.367932 0.764818
0.386394 0.369090 0.765500
0.487898 0.370198 0.766103
0.589461 0.371258 0.766626
0.691087 0.372272 0.767073
0.792774 0.373241 0.767445
0.894526 0.374166 0.767742
0.086934 0.469499 0.765729
0.188460 0.470589 0.766302
0.290046 0.471633 0.766798
0.391694 0.472630 0.767217
0.493405 0.473583 0.767562
0.595180 0.474492 0.767832
0.697021 0.475360 0.768030
0.798929 0.476186 0.768157
0.900903 0.476972 0.768213
0.092309 0.572982 0.767351
0.194044 0.573919 0.767669
0.295843 0.574813 0.767913
0.397708 0.575665 0.768085
0.499640 0.576477 0.768185
0.601639 0.577249 0.768216
0.703708 0.577982 0.768176
0.805845 0.578676 0.768068
0.908053 0.579333 0.767892
0.098403 0.675966 0.768130
0.200360 0.676763 0.768204
0.302384 0.677520 0.768209
0.404478 0.678239 0.768145
0.506641 0.678919 0.768012
0.608874 0.679563 0.767811
0.711178 0.680169 0.767542
0.813554 0.680740 0.767207
0.916001 0.681274 0.766806
0.105257 0.778491 0.768104
0.207446 0.779158 0.767946
0.309705 0.779788 0.767721
0.412035 0.780381 0.767428
0.514436 0.780938 0.767069
0.616910 0.781460 0.766644
0.719457 0.781947 0.766153
0.822076 0.782399 0.765597
0.924769 0.782817 0.764977
0.112901 0.880588 0.767305
0.215329 0.881132 0.766922
0.317829 0.881641 0.766473
0.420402 0.882115 0.765958
0.523048 0.882555 0.765379
0.625768 0.882961 0.764735
0.728562 0.883333 0.764027
0.831430 0.883672 0.763256
0.934374 0.883979 0.762421
0.071020 0.049329 0.849513
0.172147 0.051433 0.851500
0.273235 0.053390 0.853310
0.374312 0.055228 0.854971
0.475396 0.056965 0.856500
0.576498 0.058614 0.857909
0.677628 0.060182 0.859209
0.778793 0.061678 0.860405
0.879998 0.063106 0.861503
0.074705 0.155871 0.855542
0.175795 0.157575 0.857026
0.276906 0.159193 0.858395
0.378048 0.160735 0.859656
0.479227 0.162205 0.860816
0.580448 0.163610 0.861879
0.681715 0.164953 0.862851
0.783032 0.166239 0.863734
0.884401 0.167469 0.864531
0.078473 0.261278 0.860089
0.179666 0.262724 0.861214
0.280904 0.264106 0.862243
0.382189 0.265428 0.863182
0.483524 0.266693 0.864034
0.584913 0.267903 0.864800
0.686358 0.269062 0.865485
0.787860 0.270172 0.866089
0.889423 0.271233 0.866615
0.082669 0.365895 0.863502
0.184023 0.367140 0.864322
0.285432 0.368331 0.865059
0.386898 0.369472 0.865714
0.488422 0.370563 0.866289
0.590006 0.371608 0.866787
0.691653 0.372606 0.867208
0.793362 0.373560 0.867554
0.895136 0.374470 0.867827
0.087446 0.469875 0.865932
0.188992 0.470949 0.866479
0.290599 0.471976 0.866949
0.392268 0.472958 0.867343
0.494000 0.473896 0.867662
0.595798 0.474792 0.867908
0.697661 0.475645 0.868081
0.799592 0.476458 0.868184
0.901590 0.477230 0.868216
0.092891 0.573305 0.867467
0.194647 0.574227 0.867760
0.296469 0.575107 0.867979
0.398356 0.575946 0.868127
0.500311 0.576744 0.868203
0.602334 0.577502 0.868210
0.704426 0.578222 0.868147
0.806587 0.578903 0.868016
0.908819 0.579547 0.867816
0.099060 0.676241 0.868163
0.201040 0.677024 0.868214
0.303088 0.677769 0.868195
0.405205 0.678474 0.868107
0.507391 0.679142 0.867951
0.609649 0.679773 0.867727
0.711977 0.680367 0.867436
0.814377 0.680925 0.867079
0.916849 0.681448 0.866655
0.105993 0.778722 0.868058
0.208205 0.779376 0.867877
0.310488 0.779993 0.867629
0.412842 0.780574 0.867314
0.515268 0.781119 0.866932
0.617767 0.781629 0.866485
0.720338 0.782104 0.865972
0.822982 0.782545 0.865394
0.925701 0.782952 0.864752
0.113717 0.880777 0.867182
0.216170 0.881309 0.866777
0.318694 0.881806 0.866305
0.421292 0.882269 0.865769
0.523963 0.882697 0.865168
0.626709 0.883091 0.864502
0.729528 0.883452 0.863773
0.832422 0.883780 0.862980
0.935390 0.884075 0.862123
