asset_packs/eroded_bank_roots/mood/grade_33.cube
TITLE "eroded_bank_roots mood grade"
# Generated by construction_code_v2/gen_asset_packs.py. Domain: display-referred sRGB in, sRGB out.
LUT_3D_SIZE 5
DOMAIN_MIN 0.0 0.0 0.0
DOMAIN_MAX 1.0 1.0 1.0
0.065680 0.045297 0.036144
0.260981 0.042650 0.034315
0.460274 0.043769 0.035939
0.661326 0.046418 0.038783
0.863622 0.050082 0.042331
0.062034 0.247651 0.040010
0.264713 0.251616 0.043745
0.468322 0.256282 0.047870
0.672731 0.261522 0.052257
0.877851 0.267245 0.056817
0.074516 0.463553 0.053901
0.279879 0.469436 0.058506
0.485868 0.475716 0.063199
0.692439 0.482351 0.067933
0.899553 0.489301 0.072673
0.094967 0.684846 0.069660
0.302272 0.691904 0.074394
0.510082 0.699239 0.079093
0.718373 0.706827 0.083734
0.927126 0.714649 0.088298
0.121507 0.909649 0.085406
0.330423 0.917551 0.089937
0.539778 0.925664 0.094367
0.749556 0.933973 0.098682
0.959746 0.942465 0.102869
0.063117 0.043456 0.234616
0.260488 0.042802 0.234674
0.460469 0.044532 0.236803
0.661982 0.047564 0.239925
0.864636 0.051510 0.243648
0.062829 0.248908 0.241224
0.265842 0.253129 0.245110
0.469734 0.258003 0.249336
0.674394 0.263415 0.253790
0.879740 0.269287 0.258392
0.076264 0.465503 0.255452
0.281845 0.471526 0.260093
0.488036 0.477932 0.264804
0.694795 0.484677 0.269544
0.902088 0.491728 0.274278
0.097390 0.687210 0.271270
0.304869 0.694365 0.275995
0.512845 0.701789 0.280677
0.721295 0.709458 0.285294
0.930200 0.717355 0.289827
0.124485 0.912308 0.286955
0.333552 0.920283 0.291453
0.543052 0.928464 0.295846
0.752971 0.936837 0.300119
0.963298 0.945389 0.304260
0.061774 0.042810 0.434246
0.260270 0.043204 0.435246
0.460837 0.045441 0.437777
0.662768 0.048814 0.441134
0.865757 0.053018 0.445010
0.063745 0.250259 0.442496
0.267072 0.254718 0.446513
0.471235 0.259785 0.450828
0.676136 0.265361 0.455340
0.881701 0.271374 0.459978
0.078088 0.467503 0.457017
0.283882 0.473661 0.461687
0.490270 0.480186 0.466412
0.697213 0.487039 0.471154
0.904680 0.494187 0.475880
0.099873 0.689608 0.472878
0.307523 0.696857 0.477591
0.515662 0.704367 0.482253
0.724269 0.712115 0.486844
0.933325 0.720086 0.491345
0.127515 0.914992 0.488494
0.336730 0.923039 0.492958
0.546374 0.931287 0.497311
0.756433 0.939722 0.501541
0.966896 0.948333 0.505635
0.060945 0.042651 0.634328
0.260280 0.043807 0.635984
0.461359 0.046478 0.638844
0.663675 0.050159 0.642403
0.866980 0.054601 0.646411
0.064773 0.251697 0.643819
0.268398 0.256376 0.647951
0.472821 0.261625 0.652342
0.677954 0.267357 0.656904
0.883733 0.273506 0.661572
0.079986 0.469550 0.658594
0.285987 0.475838 0.663288
0.492568 0.482478 0.668023
0.699692 0.489435 0.672762
0.907330 0.496677 0.677476
0.102415 0.692040 0.674482
0.310234 0.699379 0.679181
0.518534 0.706972 0.683821
0.727295 0.714798 0.688383
0.936499 0.722840 0.692850
0.130595 0.917702 0.690021
0.339958 0.925818 0.694449
0.549744 0.934131 0.698762
0.759942 0.942627 0.702947
0.970539 0.951295 0.706992
0.060469 0.042819 0.834700
0.260485 0.044578 0.836854
0.462022 0.047631 0.839990
0.664695 0.051591 0.843722
0.868299 0.056254 0.847846
0.065907 0.253215 0.845186
0.269815 0.258100 0.849418
0.474488 0.263521 0.853875
0.679847 0.269401 0.858480
0.885833 0.275680 0.863172
0.081956 0.471643 0.860181
0.288159 0.478056 0.864893
0.494928 0.484807 0.869633
0.702230 0.491863 0.874367
0.910037 0.499197 0.879067
0.105015 0.694502 0.876083
0.313000 0.701931 0.880764
0.521458 0.709605 0.885380
0.730372 0.717506 0.889912
0.939724 0.725617 0.894342
0.133726 0.920435 0.891537
0.343234 0.928620 0.895927
0.553162 0.936996 0.900198
0.763496 0.945552 0.904337
0.974227 0.954276 0.908333
