asset_packs/eroded_bank_roots/mood/grade_33.cube
TITLE "eroded_bank_roots mood grade"
# Generated by construction_code_v2/gen_asset_packs.py. Domain: display-referred sRGB in, sRGB out.
LUT_3D_SIZE 9
DOMAIN_MIN 0.0 0.0 0.0
DOMAIN_MAX 1.0 1.0 1.0
0.065680 0.045297 0.036144
0.162401 0.043073 0.034368
0.260981 0.042650 0.034315
0.360354 0.042964 0.034921
0.460274 0.043769 0.035939
0.560622 0.044944 0.037251
0.661326 0.046418 0.038783
0.762338 0.048142 0.040488
0.863622 0.050082 0.042331
0.060269 0.143208 0.035252
0.160356 0.144158 0.036387
0.260840 0.145449 0.037786
0.361661 0.147018 0.039386
0.462775 0.148825 0.041145
0.564152 0.150837 0.043031
0.665767 0.153031 0.045021
0.767602 0.155387 0.047097
0.869642 0.157891 0.049242
0.062034 0.247651 0.040010
0.163247 0.249535 0.041818
0.264713 0.251616 0.043745
0.366410 0.253871 0.045768
0.468322 0.256282 0.047870
0.570432 0.258837 0.050037
0.672731 0.261522 0.052257
0.775207 0.264328 0.054520
0.877851 0.267245 0.056817
0.067082 0.354731 0.046525
0.169068 0.357197 0.048652
0.271248 0.359800 0.050840
0.373612 0.362530 0.053077
0.476150 0.365377 0.055353
0.578855 0.368334 0.057660
0.681718 0.371392 0.059991
0.784734 0.374546 0.062340
0.887896 0.377790 0.064702
0.074516 0.463553 0.053901
0.177116 0.466441 0.056189
0.279879 0.469436 0.058506
0.382798 0.472529 0.060845
0.485868 0.475716 0.063199
0.589083 0.478992 0.065563
0.692439 0.482351 0.067933
0.795930 0.485788 0.070304
0.899553 0.489301 0.072673
0.083899 0.573679 0.061700
0.187022 0.576899 0.064059
0.290289 0.580205 0.066426
0.393694 0.583593 0.068797
0.497234 0.587059 0.071167
0.600904 0.590598 0.073534
0.704702 0.594207 0.075893
0.808624 0.597884 0.078241
0.912667 0.601625 0.080576
0.094967 0.684846 0.069660
0.198555 0.688339 0.072029
0.302272 0.691904 0.074394
0.406116 0.695538 0.076749
0.510082 0.699239 0.079093
0.614169 0.703003 0.081422
0.718373 0.706827 0.083734
0.822693 0.710710 0.086027
0.927126 0.714649 0.088298
0.107546 0.796878 0.077604
0.211556 0.800602 0.079943
0.315686 0.804388 0.082266
0.419933 0.808234 0.084572
0.524294 0.812138 0.086857
0.628767 0.816096 0.089119
0.733351 0.820109 0.091357
0.838043 0.824172 0.093569
0.942842 0.828285 0.095752
0.121507 0.909649 0.085406
0.225910 0.913573 0.087683
0.330423 0.917551 0.089937
0.435047 0.921582 0.092165
0.539778 0.925664 0.094367
0.644615 0.929795 0.096540
0.749556 0.933973 0.098682
0.854600 0.938197 0.100792
0.959746 0.942465 0.102869
0.064110 0.044092 0.135100
0.161803 0.042820 0.134249
0.260696 0.042691 0.134464
0.360273 0.043190 0.135228
0.460349 0.044131 0.136356
0.560824 0.045414 0.137749
0.661637 0.046977 0.139345
0.762745 0.048778 0.141100
0.864115 0.050785 0.142984
0.060249 0.143488 0.135603
0.160480 0.144562 0.136836
0.261084 0.145953 0.138309
0.362008 0.147607 0.139967
0.463214 0.149486 0.141772
0.564674 0.151563 0.143696
0.666366 0.153813 0.145717
0.768272 0.156222 0.147818
0.870378 0.158773 0.149984
0.062416 0.248267 0.140609
0.163718 0.250221 0.142460
0.265265 0.252363 0.144422
0.367036 0.254673 0.146474
0.469017 0.257135 0.148600
0.571192 0.259735 0.150786
0.673552 0.262462 0.153021
0.776086 0.265306 0.155297
0.878787 0.268260 0.157603
0.067734 0.355552 0.147240
0.169787 0.358066 0.149389
0.272031 0.360713 0.151595
0.374455 0.363484 0.153846
0.477051 0.366369 0.156133
0.579810 0.369361 0.158449
0.682725 0.372452 0.160787
0.785792 0.375637 0.163141
0.889003 0.378911 0.165505
0.075380 0.464522 0.154675
0.178036 0.467447 0.156973
0.280853 0.470475 0.159298
0.383824 0.473601 0.161643
0.486944 0.476819 0.164001
0.590207 0.480123 0.166368
0.693609 0.483509 0.168739
0.797146 0.486973 0.171109
0.900813 0.490510 0.173476
0.084943 0.574763 0.162500
0.188116 0.578012 0.164862
0.291430 0.581347 0.167231
0.394881 0.584762 0.169602
0.498466 0.588252 0.171972
0.602180 0.591816 0.174336
0.706020 0.595449 0.176692
0.809984 0.599148 0.179036
0.914068 0.602910 0.181366
0.096171 0.686024 0.170465
0.199803 0.689542 0.172833
0.303564 0.693131 0.175195
0.407449 0.696788 0.177547
0.511457 0.700510 0.179886
0.615584 0.704295 0.182210
0.719828 0.708139 0.184515
0.824186 0.712041 0.186801
0.928657 0.715999 0.189064
0.108894 0.798136 0.178400
0.212946 0.801881 0.180734
0.317115 0.805688 0.183051
0.421401 0.809553 0.185350
0.525801 0.813476 0.187628
0.630312 0.817453 0.189882
0.734932 0.821483 0.192111
0.839661 0.825563 0.194313
0.944495 0.829693 0.196487
0.122990 0.910975 0.186182
0.227430 0.914918 0.188451
0.331981 0.918914 0.190697
0.436641 0.922963 0.192916
0.541409 0.927061 0.195108
0.646281 0.931208 0.197271
0.751258 0.935402 0.199402
0.856337 0.939642 0.201502
0.961516 0.943925 0.203567
0.063117 0.043456 0.234616
0.161331 0.042687 0.234241
0.260488 0.042802 0.234674
0.360249 0.043466 0.235576
0.460469 0.044532 0.236803
0.561065 0.045916 0.238271
0.661982 0.047564 0.239925
0.763182 0.049438 0.241727
0.864636 0.051510 0.243648
0.060281 0.143813 0.235991
0.160646 0.145002 0.237313
0.261364 0.146487 0.238854
0.362388 0.148222 0.240565
0.463683 0.150171 0.242414
0.565224 0.152308 0.244373
0.666990 0.154614 0.246423
0.768966 0.157073 0.248547
0.871137 0.159669 0.250732
0.062829 0.248908 0.241224
0.164217 0.250928 0.243115
0.265842 0.253129 0.245110
0.367686 0.255493 0.247188
0.469734 0.258003 0.249336
0.571974 0.260647 0.251540
0.674394 0.263415 0.253790
0.776985 0.266297 0.256077
0.879740 0.269287 0.258392
0.068409 0.356390 0.247963
0.170528 0.358950 0.250132
0.272834 0.361641 0.252354
0.375318 0.364452 0.254619
0.477970 0.367374 0.256917
0.580782 0.370400 0.259241
0.683750 0.373524 0.261585
0.786866 0.376739 0.263943
0.890126 0.380042 0.266310
0.076264 0.465503 0.255452
0.178975 0.468464 0.257760
0.281845 0.471526 0.260093
0.384868 0.474684 0.262442
0.488036 0.477932 0.264804
0.591347 0.481264 0.267173
0.694795 0.484677 0.269544
0.798377 0.488166 0.271914
0.902088 0.491728 0.274278
0.086004 0.575856 0.263301
0.189226 0.579136 0.265666
0.292587 0.582498 0.268036
0.396084 0.585939 0.270407
0.499713 0.589455 0.272775
0.603470 0.593042 0.275137
0.707353 0.596698 0.277489
0.811357 0.600418 0.279829
0.915481 0.604201 0.282153
0.097390 0.687210 0.271270
0.201066 0.690753 0.273636
0.304869 0.694365 0.275995
0.408797 0.698045 0.278343
0.512845 0.701789 0.280677
0.617012 0.705594 0.282995
0.721295 0.709458 0.285294
0.825692 0.713379 0.287572
0.930200 0.717355 0.289827
0.110257 0.799400 0.279194
0.214348 0.803167 0.281523
0.318558 0.806994 0.283834
0.422883 0.810879 0.286126
0.527320 0.814821 0.288396
0.631869 0.818816 0.290642
0.736526 0.822863 0.292862
0.841291 0.826960 0.295055
0.946161 0.831106 0.297218
0.124485 0.912308 0.286955
0.228963 0.916269 0.289216
0.333552 0.920283 0.291453
0.438248 0.924349 0.293664
0.543052 0.928464 0.295846
0.647960 0.932627 0.297998
0.752971 0.936837 0.300119
0.858084 0.941091 0.302207
0.963298 0.945389 0.304260
0.062364 0.043055 0.334358
0.160963 0.042651 0.334322
0.260348 0.042975 0.334937
0.360277 0.043788 0.335962
0.460633 0.044969 0.337278
0.561343 0.046448 0.338814
0.662359 0.048177 0.340522
0.763648 0.050121 0.342367
0.865184 0.052254 0.344324
0.060362 0.144180 0.336412
0.160853 0.145476 0.337814
0.261679 0.147050 0.339418
0.362799 0.148861 0.341179
0.464180 0.150877 0.343068
0.565800 0.153074 0.345060
0.667639 0.155433 0.347136
0.769682 0.157940 0.349283
0.871917 0.160581 0.351486
0.063273 0.249572 0.341853
0.164743 0.251657 0.343782
0.266445 0.253915 0.345807
0.368360 0.256329 0.347911
0.470474 0.258886 0.350079
0.572776 0.261574 0.352300
0.675255 0.264381 0.354563
0.777903 0.267301 0.356860
0.880712 0.270325 0.359184
0.069107 0.357244 0.348693
0.171291 0.359850 0.350882
0.273658 0.362582 0.353119
0.376200 0.365432 0.355396
0.478907 0.368390 0.357704
0.581773 0.371450 0.360035
0.684792 0.374606 0.362385
0.787957 0.377851 0.364746
0.891265 0.381182 0.367115
0.077167 0.466497 0.356233
0.179933 0.469493 0.358550
0.282855 0.472588 0.360889
0.385928 0.475777 0.363243
0.489145 0.479054 0.365608
0.592503 0.482414 0.367978
0.695997 0.485854 0.370349
0.799623 0.489368 0.372717
0.903377 0.492953 0.375079
0.087082 0.576960 0.364103
0.190352 0.580268 0.366470
0.293759 0.583658 0.368841
0.397302 0.587125 0.371212
0.500975 0.590665 0.373578
0.604775 0.594276 0.375937
0.708699 0.597954 0.378285
0.812745 0.601696 0.380620
0.916909 0.605500 0.382938
0.098624 0.688405 0.372074
0.202344 0.691972 0.374438
0.306189 0.695607 0.376793
0.410158 0.699309 0.379137
0.514247 0.703074 0.381466
0.618454 0.706900 0.383778
0.722775 0.710784 0.386070
0.827210 0.714724 0.388341
0.931756 0.718717 0.390587
0.111633 0.800673 0.379987
0.215765 0.804460 0.382310
0.320014 0.808307 0.384615
0.424377 0.812212 0.386899
0.528852 0.816171 0.389161
0.633438 0.820184 0.391399
0.738132 0.824249 0.393610
0.842933 0.828363 0.395793
0.947838 0.832525 0.397946
0.125993 0.913647 0.387726
0.230509 0.917626 0.389979
0.335135 0.921658 0.392207
0.439868 0.925741 0.394408
0.544707 0.929873 0.396580
0.649650 0.934052 0.398722
0.754696 0.938277 0.400832
0.859844 0.942546 0.402908
0.965091 0.946858 0.404950
0.061774 0.042810 0.434246
0.160682 0.042696 0.434474
0.260270 0.043204 0.435246
0.360354 0.044152 0.436380
0.460837 0.045441 0.437777
0.561655 0.047009 0.439376
0.662768 0.048814 0.441134
0.764143 0.050825 0.443020
0.865757 0.053018 0.445010
0.060488 0.144585 0.436862
0.161098 0.145982 0.438339
0.262028 0.147641 0.440000
0.363240 0.149524 0.441807
0.464704 0.151603 0.443734
0.566400 0.153857 0.445756
0.668310 0.156268 0.447858
0.770420 0.158822 0.450025
0.872717 0.161506 0.452245
0.063745 0.250259 0.442496
0.165296 0.252405 0.444460
0.267072 0.254718 0.446513
0.369056 0.257182 0.448640
0.471235 0.259785 0.450828
0.573598 0.262514 0.453064
0.676136 0.265361 0.455340
0.778839 0.268317 0.457647
0.881701 0.271374 0.459978
0.069827 0.358114 0.449430
0.172075 0.360764 0.451637
0.274502 0.363537 0.453888
0.377101 0.366425 0.456176
0.479863 0.369418 0.458493
0.582782 0.372512 0.460832
0.685851 0.375698 0.463186
0.789065 0.378973 0.465550
0.892419 0.382331 0.467920
0.078088 0.467503 0.457017
0.180908 0.470533 0.459342
0.283882 0.473661 0.461687
0.387004 0.476881 0.464045
0.490270 0.480186 0.466412
0.593674 0.483574 0.468783
0.697213 0.487039 0.471154
0.800883 0.490578 0.473520
0.904680 0.494187 0.475880
0.088177 0.578074 0.464906
0.191494 0.581410 0.467275
0.294948 0.584827 0.469647
0.398535 0.588319 0.472016
0.502251 0.591884 0.474380
0.606094 0.595518 0.476736
0.710059 0.599218 0.479080
0.814146 0.602981 0.481409
0.918349 0.606805 0.483721
0.099873 0.689608 0.472878
0.203636 0.693199 0.475239
0.307523 0.696857 0.477591
0.411533 0.700581 0.479930
0.515662 0.704367 0.482253
0.619908 0.708212 0.484559
0.724269 0.712115 0.486844
0.828742 0.716074 0.489106
0.933325 0.720086 0.491345
0.113023 0.801952 0.480777
0.217195 0.805760 0.483095
0.321483 0.809627 0.485393
0.425884 0.813550 0.487670
0.530398 0.817528 0.489924
0.635020 0.821559 0.492153
0.739751 0.825641 0.494355
0.844587 0.829771 0.496528
0.949528 0.833949 0.498670
0.127515 0.914992 0.488494
0.232068 0.918990 0.490739
0.336730 0.923039 0.492958
0.441499 0.927139 0.495149
0.546374 0.931287 0.497311
0.651352 0.935482 0.499442
0.756433 0.939722 0.501541
0.861615 0.944006 0.503605
0.966896 0.948333 0.505635
0.061308 0.042683 0.534244
0.160478 0.042810 0.534687
0.260249 0.043483 0.535597
0.360477 0.044555 0.536829
0.461079 0.045944 0.538300
0.562002 0.047597 0.539957
0.663207 0.049475 0.541762
0.764666 0.051550 0.543685
0.866356 0.053800 0.545706
0.060656 0.145027 0.537340
0.161381 0.146518 0.538884
0.262410 0.148257 0.540599
0.363710 0.150209 0.542449
0.465255 0.152350 0.544411
0.567026 0.154659 0.546462
0.669005 0.157120 0.548587
0.771180 0.159719 0.550773
0.873538 0.162446 0.553009
0.064245 0.250968 0.543152
0.165875 0.253172 0.545148
0.267723 0.255538 0.547228
0.369775 0.258051 0.549377
0.472018 0.260698 0.551582
0.574441 0.263468 0.553833
0.677035 0.266353 0.556120
0.779794 0.269344 0.558436
0.882708 0.272435 0.560774
0.070570 0.359000 0.550174
0.172879 0.361693 0.552397
0.275366 0.364505 0.554662
0.378021 0.367430 0.556960
0.480837 0.370458 0.559285
0.583807 0.373584 0.561629
0.686926 0.376801 0.563988
0.790188 0.380104 0.566354
0.893590 0.383490 0.568725
0.079028 0.468521 0.557804
0.181901 0.471585 0.560137
0.284926 0.474745 0.562487
0.388097 0.477994 0.564849
0.491411 0.481328 0.567217
0.594861 0.484742 0.569589
0.698445 0.488233 0.571958
0.802159 0.491796 0.574323
0.905998 0.495428 0.576678
0.089288 0.579198 0.565710
0.192651 0.582562 0.568081
0.296151 0.586004 0.570452
0.399782 0.589522 0.572820
0.503542 0.593110 0.575181
0.607427 0.596767 0.577533
0.711434 0.600489 0.579873
0.815560 0.604273 0.582197
0.919803 0.608117 0.584502
0.101136 0.690820 0.573680
0.204942 0.694434 0.576039
0.308872 0.698115 0.578387
0.412922 0.701860 0.580721
0.517091 0.705666 0.583038
0.621377 0.709531 0.585337
0.725775 0.713454 0.587615
0.830286 0.717430 0.589869
0.934906 0.721460 0.592099
0.114427 0.803238 0.581566
0.218638 0.807067 0.583877
0.322965 0.810953 0.586169
0.427405 0.814895 0.588438
0.531955 0.818891 0.590684
0.636615 0.822940 0.592904
0.741381 0.827038 0.595096
0.846253 0.831185 0.597259
0.951229 0.835378 0.599390
0.129049 0.916344 0.589259
0.233639 0.920359 0.591495
0.338338 0.924426 0.593705
0.443143 0.928542 0.595887
0.548053 0.932706 0.598038
0.653066 0.936917 0.600159
0.758182 0.941172 0.602246
0.863397 0.945470 0.604299
0.968712 0.949811 0.606316
0.060945 0.042651 0.634328
0.160342 0.042987 0.634953
0.260280 0.043807 0.635984
0.360643 0.044994 0.637305
0.461359 0.046478 0.638844
0.562381 0.048211 0.640555
0.663675 0.050159 0.642403
0.765215 0.052296 0.644361
0.866980 0.054601 0.646411
0.060866 0.145503 0.637843
0.161698 0.147082 0.639449
0.262822 0.148897 0.641213
0.364208 0.150916 0.643104
0.465832 0.153116 0.645098
0.567675 0.155479 0.647176
0.669722 0.157988 0.649324
0.771960 0.160632 0.651527
0.874379 0.163399 0.653777
0.064773 0.251697 0.643819
0.166479 0.253959 0.645846
0.268398 0.256376 0.647951
0.370515 0.258936 0.650120
0.472821 0.261625 0.652342
0.575303 0.264435 0.654606
0.677954 0.267357 0.656904
0.780766 0.270383 0.659228
0.883733 0.273506 0.661572
0.071334 0.359900 0.650923
0.173704 0.362635 0.653162
0.276249 0.365486 0.655439
0.378960 0.368447 0.657747
0.481829 0.371509 0.660079
0.584850 0.374666 0.662429
0.688018 0.377913 0.664791
0.791328 0.381245 0.667159
0.894775 0.384658 0.669531
0.079986 0.469550 0.658594
0.182911 0.472648 0.660933
0.285987 0.475838 0.663288
0.389207 0.479117 0.665652
0.492568 0.482478 0.668023
0.596064 0.485919 0.670394
0.699692 0.489435 0.672762
0.803449 0.493022 0.675124
0.907330 0.496677 0.677476
0.090414 0.580331 0.666515
0.193825 0.583722 0.668886
0.297370 0.587190 0.671256
0.401045 0.590732 0.673623
0.504848 0.594345 0.675981
0.608774 0.598024 0.678329
0.712822 0.601767 0.680664
0.816988 0.605572 0.682982
0.921270 0.609436 0.685281
0.102415 0.692040 0.674482
0.206263 0.695676 0.676838
0.310234 0.699379 0.679181
0.414325 0.703145 0.681510
0.518534 0.706972 0.683821
0.622858 0.710857 0.686113
0.727295 0.714798 0.688383
0.831843 0.718793 0.690629
0.936499 0.722840 0.692850
0.115844 0.804532 0.682353
0.220095 0.808380 0.684658
0.324460 0.812286 0.686942
0.428938 0.816246 0.689204
0.533526 0.820260 0.691441
0.638222 0.824326 0.693651
0.743024 0.828441 0.695834
0.847932 0.832604 0.697986
0.952943 0.836813 0.700107
0.130595 0.917702 0.690021
0.235223 0.921735 0.692249
0.339958 0.925818 0.694449
0.444799 0.929951 0.696621
0.549744 0.934131 0.698762
0.654792 0.938357 0.700871
0.759942 0.942627 0.702947
0.865191 0.946940 0.704988
0.970539 0.951295 0.706992
0.060669 0.042700 0.734484
0.160268 0.043218 0.735265
0.260360 0.044173 0.736404
0.360849 0.045468 0.737806
0.461674 0.047041 0.739408
0.562791 0.048850 0.741169
0.664171 0.050865 0.743057
0.765790 0.053061 0.745048
0.867628 0.055419 0.747125
0.061113 0.146011 0.738368
0.162049 0.147674 0.740032
0.263265 0.149561 0.741843
0.364734 0.151644 0.743771
0.466434 0.153901 0.745795
0.568348 0.156315 0.747898
0.670461 0.158871 0.750066
0.772762 0.161558 0.752287
0.875240 0.164365 0.754550
0.065327 0.252447 0.744498
0.167107 0.254763 0.746553
0.269095 0.257230 0.748681
0.371278 0.259835 0.750869
0.473644 0.262567 0.753106
0.576185 0.265415 0.755383
0.678891 0.268373 0.757691
0.781757 0.271433 0.760022
0.884774 0.274588 0.762371
0.072119 0.360815 0.751679
0.174550 0.363591 0.753931
0.277151 0.366480 0.756220
0.379916 0.369476 0.758537
0.482838 0.372571 0.760876
0.585910 0.375759 0.763230
0.689127 0.379036 0.765595
0.792484 0.382395 0.767965
0.895977 0.385834 0.770336
0.080962 0.470591 0.759386
0.183939 0.473721 0.761731
0.287064 0.476942 0.764090
0.390333 0.480249 0.766457
0.493740 0.483638 0.768828
0.597281 0.487105 0.771198
0.700954 0.490645 0.773565
0.804753 0.494255 0.775924
0.908677 0.497933 0.778272
0.091557 0.581474 0.767320
0.195014 0.584892 0.769691
0.298603 0.588385 0.772061
0.402322 0.591951 0.774425
0.506167 0.595587 0.776780
0.610135 0.599288 0.779124
0.714224 0.603053 0.781453
0.818429 0.606878 0.783765
0.922751 0.610761 0.786057
0.103708 0.693267 0.775283
0.207598 0.696927 0.777635
0.311610 0.700651 0.779974
0.415741 0.704438 0.782297
0.519989 0.708285 0.784602
0.624352 0.712189 0.786887
0.728827 0.716149 0.789149
0.833412 0.720162 0.791386
0.938105 0.724226 0.793598
0.117275 0.805832 0.783138
0.221565 0.809700 0.785436
0.325968 0.813625 0.787713
0.430484 0.817604 0.789966
0.535108 0.821635 0.792195
0.639841 0.825718 0.794396
0.744679 0.829849 0.796568
0.849622 0.834028 0.798710
0.954667 0.838253 0.800820
0.132155 0.919066 0.790781
0.236819 0.923116 0.792999
0.341590 0.927216 0.795190
0.446467 0.931365 0.797352
0.551447 0.935561 0.799482
0.656530 0.939802 0.801580
0.761713 0.944087 0.803644
0.866996 0.948414 0.805673
0.972378 0.952783 0.807665
0.060469 0.042819 0.834700
0.160250 0.043499 0.835617
0.260485 0.044578 0.836854
0.361094 0.045973 0.838330
0.462022 0.047631 0.839990
0.563232 0.049513 0.841797
0.664695 0.051591 0.843722
0.766390 0.053844 0.845745
0.868299 0.056254 0.847846
0.061397 0.146548 0.838915
0.162432 0.148291 0.840632
0.263737 0.150248 0.842485
0.365287 0.152392 0.844448
0.467061 0.154704 0.846501
0.569044 0.157168 0.848628
0.671222 0.159770 0.850815
0.773584 0.162498 0.853051
0.876121 0.165344 0.855327
0.065907 0.253215 0.845186
0.167760 0.255584 0.847268
0.269815 0.258100 0.849418
0.372061 0.260749 0.851624
0.474488 0.263521 0.853875
0.577086 0.266408 0.856163
0.679847 0.269401 0.858480
0.782765 0.272494 0.860818
0.885833 0.275680 0.863172
0.072925 0.361744 0.852439
0.175414 0.364560 0.854705
0.278073 0.367486 0.857004
0.380891 0.370516 0.859329
0.483865 0.373643 0.861674
0.586986 0.376862 0.864032
0.690251 0.380167 0.866399
0.793655 0.383554 0.868770
0.897193 0.387019 0.871140
0.081956 0.471643 0.860181
0.184984 0.474805 0.862531
0.288159 0.478056 0.864893
0.391475 0.481391 0.867262
0.494928 0.484807 0.869633
0.598514 0.488299 0.872003
0.702230 0.491863 0.874367
0.806072 0.495497 0.876723
0.910037 0.499197 0.879067
0.092716 0.582626 0.868125
0.196218 0.586070 0.870496
0.299852 0.589588 0.872864
0.403614 0.593178 0.875226
0.507501 0.596836 0.877578
0.611510 0.600560 0.879917
0.715639 0.604345 0.882240
0.819884 0.608190 0.884546
0.924244 0.612093 0.886831
0.105015 0.694502 0.876083
0.208947 0.698184 0.878431
0.313000 0.701931 0.880764
0.417171 0.705738 0.883082
0.521458 0.709605 0.885380
0.625859 0.713528 0.887657
0.730372 0.717506 0.889912
0.834994 0.721536 0.892140
0.939724 0.725617 0.894342
0.118719 0.807139 0.883921
0.223047 0.811027 0.886212
0.327489 0.814970 0.888481
0.432042 0.818967 0.890726
0.536703 0.823016 0.892945
0.641472 0.827116 0.895137
0.746346 0.831263 0.897299
0.851324 0.835458 0.899430
0.956404 0.839698 0.901529
0.133726 0.920435 0.891537
0.238427 0.924503 0.893746
0.343234 0.928620 0.895927
0.448146 0.932785 0.898079
0.553162 0.936996 0.900198
0.658279 0.941252 0.902285
0.763496 0.945552 0.904337
0.868813 0.949893 0.906353
0.974227 0.954276 0.908333
