asset_packs/eroded_bank_roots/mood/grade_33.cube
TITLE "eroded_bank_roots mood grade"
# Generated by construction_code_v2/gen_asset_packs.py. Domain: display-referred sRGB in, sRGB out.
LUT_3D_SIZE 33
DOMAIN_MIN 0.0 0.0 0.0
DOMAIN_MAX 1.0 1.0 1.0
0.065680 0.045297 0.036144
0.089434 0.044320 0.035286
0.113603 0.043754 0.034835
0.137944 0.043357 0.034547
0.162401 0.043073 0.034368
0.186947 0.042874 0.034268
0.211566 0.042744 0.034233
0.236247 0.042672 0.034252
0.260981 0.042650 0.034315
0.285763 0.042673 0.034418
0.310588 0.042735 0.034556
0.335453 0.042834 0.034724
0.360354 0.042964 0.034921
0.385289 0.043125 0.035143
0.410255 0.043314 0.035388
0.435251 0.043529 0.035654
0.460274 0.043769 0.035939
0.485325 0.044031 0.036243
0.510400 0.044315 0.036564
0.535500 0.044620 0.036900
0.560622 0.044944 0.037251
0.585767 0.045286 0.037615
0.610933 0.045647 0.037993
0.636120 0.046024 0.038382
0.661326 0.046418 0.038783
0.686552 0.046827 0.039195
0.711796 0.047251 0.039616
0.737058 0.047690 0.040048
0.762338 0.048142 0.040488
0.787634 0.048608 0.040937
0.812947 0.049087 0.041394
0.838277 0.049579 0.041859
0.863622 0.050082 0.042331
0.062735 0.068242 0.034471
0.087227 0.067991 0.034323
0.111801 0.067819 0.034249
0.136443 0.067711 0.034234
0.161144 0.067659 0.034270
0.185896 0.067654 0.034348
0.210695 0.067691 0.034464
0.235535 0.067767 0.034614
0.260413 0.067877 0.034793
0.285326 0.068020 0.034999
0.310273 0.068191 0.035229
0.335250 0.068390 0.035482
0.360256 0.068614 0.035756
0.385290 0.068862 0.036048
0.410349 0.069132 0.036358
0.435434 0.069424 0.036684
0.460542 0.069736 0.037026
0.485673 0.070066 0.037382
0.510825 0.070416 0.037751
0.535999 0.070782 0.038133
0.561193 0.071166 0.038527
0.586406 0.071565 0.038932
0.611639 0.071980 0.039347
0.636889 0.072409 0.039772
0.662158 0.072853 0.040207
0.687444 0.073310 0.040651
0.712746 0.073781 0.041102
0.738065 0.074264 0.041562
0.763400 0.074761 0.042030
0.788751 0.075269 0.042505
0.814117 0.075788 0.042986
0.839498 0.076320 0.043474
0.864894 0.076862 0.043969
0.061328 0.092686 0.034242
0.086048 0.092652 0.034294
0.110818 0.092663 0.034386
0.135632 0.092715 0.034515
0.160486 0.092803 0.034676
0.185377 0.092926 0.034865
0.210303 0.093079 0.035080
0.235261 0.093260 0.035319
0.260249 0.093468 0.035579
0.285265 0.093701 0.035860
0.310308 0.093958 0.036159
0.335377 0.094236 0.036475
0.360470 0.094535 0.036807
0.385587 0.094854 0.037154
0.410726 0.095192 0.037515
0.435886 0.095547 0.037889
0.461067 0.095920 0.038275
0.486268 0.096309 0.038673
0.511489 0.096714 0.039082
0.536728 0.097134 0.039501
0.561985 0.097569 0.039929
0.587260 0.098018 0.040367
0.612552 0.098480 0.040814
0.637861 0.098955 0.041269
0.663186 0.099444 0.041732
0.688526 0.099944 0.042202
0.713883 0.100457 0.042679
0.739254 0.100981 0.043163
0.764640 0.101516 0.043654
0.790041 0.102062 0.044150
0.815456 0.102619 0.044652
0.840885 0.103186 0.045160
0.866327 0.103763 0.045673
0.060574 0.117743 0.034570
0.085442 0.117844 0.034741
0.110347 0.117978 0.034940
0.135284 0.118142 0.035164
0.160253 0.118333 0.035411
0.185252 0.118550 0.035679
0.210278 0.118792 0.035967
0.235331 0.119056 0.036272
0.260408 0.119342 0.036594
0.285510 0.119649 0.036932
0.310635 0.119975 0.037284
0.335782 0.120319 0.037650
0.360950 0.120681 0.038028
0.386138 0.121060 0.038419
0.411346 0.121455 0.038821
0.436574 0.121865 0.039233
0.461819 0.122291 0.039656
0.487083 0.122731 0.040088
0.512364 0.123184 0.040529
0.537662 0.123652 0.040979
0.562977 0.124132 0.041437
0.588308 0.124624 0.041902
0.613654 0.125129 0.042375
0.639016 0.125646 0.042855
0.664393 0.126174 0.043341
0.689785 0.126713 0.043834
0.715191 0.127263 0.044332
0.740611 0.127824 0.044836
0.766044 0.128395 0.045346
0.791492 0.128976 0.045861
0.816953 0.129566 0.046380
0.842426 0.130166 0.046905
0.867913 0.130776 0.047433
0.060269 0.143208 0.035252
0.085249 0.143409 0.035507
0.110258 0.143636 0.035782
0.135294 0.143886 0.036076
0.160356 0.144158 0.036387
0.185443 0.144452 0.036715
0.210553 0.144765 0.037058
0.235686 0.145098 0.037415
0.260840 0.145449 0.037786
0.286016 0.145817 0.038169
0.311212 0.146202 0.038564
0.336427 0.146602 0.038970
0.361661 0.147018 0.039386
0.386913 0.147449 0.039812
0.412183 0.147894 0.040247
0.437471 0.148353 0.040692
0.462775 0.148825 0.041145
0.488096 0.149310 0.041605
0.513432 0.149807 0.042073
0.538784 0.150316 0.042549
0.564152 0.150837 0.043031
0.589534 0.151369 0.043520
0.614931 0.151912 0.044014
0.640342 0.152466 0.044515
0.665767 0.153031 0.045021
0.691206 0.153605 0.045533
0.716658 0.154190 0.046049
0.742124 0.154784 0.046571
0.767602 0.155387 0.047097
0.793093 0.156000 0.047627
0.818597 0.156622 0.048161
0.844113 0.157252 0.048700
0.869642 0.157891 0.049242
0.060314 0.168982 0.036187
0.085385 0.169263 0.036505
0.110480 0.169564 0.036838
0.135599 0.169884 0.037187
0.160740 0.170224 0.037549
0.185902 0.170581 0.037924
0.211085 0.170955 0.038311
0.236288 0.171346 0.038710
0.261510 0.171752 0.039120
0.286751 0.172174 0.039540
0.312010 0.172610 0.039969
0.337286 0.173060 0.040408
0.362580 0.173523 0.040856
0.387890 0.174000 0.041311
0.413216 0.174489 0.041775
0.438559 0.174991 0.042246
0.463916 0.175504 0.042724
0.489289 0.176029 0.043208
0.514677 0.176566 0.043699
0.540079 0.177113 0.044196
0.565495 0.177671 0.044699
0.590925 0.178239 0.045207
0.616369 0.178817 0.045720
0.641826 0.179405 0.046239
0.667296 0.180002 0.046762
0.692779 0.180609 0.047289
0.718275 0.181225 0.047821
0.743784 0.181850 0.048357
0.769304 0.182484 0.048897
0.794837 0.183126 0.049440
0.820382 0.183776 0.049987
0.845938 0.184435 0.050537
0.871506 0.185102 0.051090
0.060648 0.195006 0.037317
0.085796 0.195352 0.037684
0.110966 0.195715 0.038064
0.136156 0.196095 0.038455
0.161366 0.196492 0.038858
0.186595 0.196904 0.039272
0.211843 0.197331 0.039695
0.237108 0.197772 0.040128
0.262391 0.198227 0.040570
0.287691 0.198695 0.041021
0.313007 0.199177 0.041479
0.338339 0.199670 0.041945
0.363687 0.200176 0.042419
0.389050 0.200694 0.042899
0.414429 0.201223 0.043386
0.439821 0.201764 0.043879
0.465229 0.202315 0.044378
0.490650 0.202876 0.044883
0.516085 0.203448 0.045393
0.541534 0.204030 0.045909
0.566996 0.204621 0.046429
0.592471 0.205222 0.046953
0.617959 0.205832 0.047482
0.643459 0.206452 0.048016
0.668972 0.207080 0.048553
0.694497 0.207717 0.049094
0.720034 0.208362 0.049639
0.745583 0.209015 0.050187
0.771143 0.209677 0.050738
0.796715 0.210346 0.051292
0.822299 0.211024 0.051850
0.847893 0.211709 0.052410
0.873499 0.212401 0.052973
0.061231 0.221238 0.038601
0.086448 0.221640 0.039007
0.111683 0.222058 0.039425
0.136937 0.222490 0.039852
0.162209 0.222936 0.040288
0.187498 0.223396 0.040733
0.212804 0.223869 0.041187
0.238126 0.224355 0.041648
0.263464 0.224853 0.042117
0.288818 0.225364 0.042593
0.314186 0.225886 0.043076
0.339570 0.226419 0.043565
0.364968 0.226963 0.044060
0.390380 0.227518 0.044562
0.415807 0.228083 0.045068
0.441247 0.228659 0.045580
0.466700 0.229244 0.046097
0.492167 0.229839 0.046619
0.517647 0.230443 0.047145
0.543139 0.231057 0.047676
0.568644 0.231679 0.048211
0.594161 0.232311 0.048749
0.619691 0.232950 0.049292
0.645232 0.233599 0.049838
0.670785 0.234255 0.050387
0.696350 0.234920 0.050940
0.721926 0.235592 0.051495
0.747514 0.236272 0.052053
0.773113 0.236960 0.052614
0.798722 0.237655 0.053178
0.824343 0.238358 0.053744
0.849974 0.239067 0.054313
0.875616 0.239784 0.054883
0.062034 0.247651 0.040010
0.087312 0.248102 0.040449
0.112608 0.248567 0.040897
0.137919 0.249045 0.041354
0.163247 0.249535 0.041818
0.188591 0.250038 0.042289
0.213950 0.250552 0.042768
0.239324 0.251078 0.043253
0.264713 0.251616 0.043745
0.290117 0.252164 0.044242
0.315534 0.252722 0.044745
0.340965 0.253292 0.045254
0.366410 0.253871 0.045768
0.391869 0.254459 0.046287
0.417340 0.255058 0.046810
0.442825 0.255666 0.047338
0.468322 0.256282 0.047870
0.493831 0.256908 0.048406
0.519353 0.257543 0.048947
0.544887 0.258185 0.049490
0.570432 0.258837 0.050037
0.595990 0.259496 0.050588
0.621559 0.260164 0.051141
0.647139 0.260839 0.051698
0.672731 0.261522 0.052257
0.698333 0.262212 0.052819
0.723947 0.262910 0.053384
0.749571 0.263615 0.053951
0.775207 0.264328 0.054520
0.800852 0.265047 0.055091
0.826508 0.265773 0.055665
0.852175 0.266506 0.056240
0.877851 0.267245 0.056817
0.063037 0.274222 0.041522
0.088371 0.274717 0.041989
0.113720 0.275224 0.042463
0.139085 0.275742 0.042944
0.164464 0.276273 0.043431
0.189858 0.276814 0.043925
0.215267 0.277366 0.044425
0.240690 0.277928 0.044930
0.266126 0.278501 0.045441
0.291576 0.279084 0.045956
0.317039 0.279676 0.046477
0.342515 0.280278 0.047002
0.368004 0.280889 0.047531
0.393506 0.281509 0.048065
0.419020 0.282138 0.048603
0.444546 0.282776 0.049144
0.470084 0.283422 0.049689
0.495634 0.284076 0.050237
0.521196 0.284738 0.050789
0.546769 0.285409 0.051344
0.572353 0.286087 0.051901
0.597949 0.286772 0.052462
0.623556 0.287466 0.053025
0.649173 0.288166 0.053590
0.674801 0.288874 0.054158
0.700440 0.289589 0.054728
0.726090 0.290310 0.055300
0.751750 0.291039 0.055874
0.777420 0.291774 0.056450
0.803100 0.292516 0.057027
0.828791 0.293264 0.057606
0.854491 0.294019 0.058187
0.880201 0.294780 0.058769
0.064221 0.300934 0.043121
0.089606 0.301468 0.043610
0.115005 0.302014 0.044106
0.140419 0.302570 0.044608
0.165847 0.303136 0.045115
0.191288 0.303712 0.045628
0.216743 0.304298 0.046145
0.242211 0.304894 0.046667
0.267692 0.305499 0.047194
0.293185 0.306114 0.047725
0.318691 0.306737 0.048260
0.344210 0.307369 0.048799
0.369740 0.308010 0.049342
0.395283 0.308659 0.049888
0.420837 0.309316 0.050438
0.446403 0.309981 0.050991
0.471980 0.310655 0.051546
0.497569 0.311335 0.052105
0.523168 0.312024 0.052666
0.548779 0.312720 0.053230
0.574401 0.313423 0.053796
0.600033 0.314133 0.054365
0.625676 0.314851 0.054936
0.651329 0.315575 0.055509
0.676993 0.316306 0.056083
0.702666 0.317043 0.056660
0.728350 0.317788 0.057238
0.754044 0.318538 0.057818
0.779748 0.319295 0.058399
0.805462 0.320058 0.058982
0.831185 0.320828 0.059565
0.856918 0.321603 0.060150
0.882661 0.322385 0.060737
0.065573 0.327775 0.044792
0.091006 0.328344 0.045301
0.116452 0.328924 0.045816
0.141912 0.329514 0.046335
0.167384 0.330113 0.046859
0.192870 0.330722 0.047387
0.218368 0.331340 0.047920
0.243879 0.331966 0.048456
0.269402 0.332601 0.048997
0.294936 0.333245 0.049541
0.320483 0.333897 0.050088
0.346042 0.334557 0.050639
0.371612 0.335226 0.051193
0.397193 0.335902 0.051749
0.422786 0.336585 0.052309
0.448390 0.337276 0.052871
0.474004 0.337975 0.053436
0.499630 0.338681 0.054003
0.525266 0.339394 0.054573
0.550912 0.340113 0.055144
0.576569 0.340840 0.055718
0.602237 0.341574 0.056293
0.627914 0.342314 0.056870
0.653602 0.343060 0.057449
0.679299 0.343813 0.058029
0.705007 0.344572 0.058611
0.730724 0.345338 0.059194
0.756451 0.346109 0.059778
0.782187 0.346887 0.060364
0.807933 0.347670 0.060950
0.833688 0.348460 0.061538
0.859453 0.349255 0.062126
0.885227 0.350056 0.062715
0.067082 0.354731 0.046525
0.092560 0.355334 0.047051
0.118050 0.355946 0.047580
0.143553 0.356567 0.048114
0.169068 0.357197 0.048652
0.194595 0.357835 0.049194
0.220134 0.358482 0.049739
0.245685 0.359137 0.050288
0.271248 0.359800 0.050840
0.296822 0.360471 0.051395
0.322408 0.361150 0.051953
0.348004 0.361836 0.052513
0.373612 0.362530 0.053077
0.399231 0.363231 0.053642
0.424860 0.363939 0.054210
0.450500 0.364655 0.054780
0.476150 0.365377 0.055353
0.501811 0.366106 0.055927
0.527482 0.366842 0.056503
0.553163 0.367585 0.057081
0.578855 0.368334 0.057660
0.604556 0.369089 0.058241
0.630267 0.369850 0.058823
0.655988 0.370618 0.059407
0.681718 0.371392 0.059991
0.707458 0.372172 0.060577
0.733207 0.372957 0.061164
0.758966 0.373749 0.061752
0.784734 0.374546 0.062340
0.810511 0.375348 0.062930
0.836297 0.376157 0.063520
0.862092 0.376970 0.064110
0.887896 0.377790 0.064702
0.068739 0.381795 0.048310
0.094258 0.382428 0.048849
0.119790 0.383069 0.049392
0.145333 0.383719 0.049939
0.170889 0.384377 0.050489
0.196456 0.385043 0.051042
0.222034 0.385717 0.051598
0.247624 0.386399 0.052157
0.273224 0.387088 0.052718
0.298836 0.387784 0.053282
0.324458 0.388488 0.053849
0.350092 0.389199 0.054418
0.375735 0.389917 0.054989
0.401390 0.390642 0.055561
0.427054 0.391373 0.056136
0.452729 0.392112 0.056713
0.478414 0.392857 0.057291
0.504109 0.393608 0.057871
0.529814 0.394365 0.058453
0.555528 0.395129 0.059035
0.581252 0.395899 0.059619
0.606986 0.396675 0.060204
0.632729 0.397457 0.060791
0.658482 0.398245 0.061378
0.684244 0.399038 0.061966
0.710016 0.399837 0.062555
0.735796 0.400642 0.063145
0.761585 0.401452 0.063735
0.787384 0.402268 0.064326
0.813191 0.403089 0.064917
0.839008 0.403915 0.065509
0.864833 0.404747 0.066101
0.890666 0.405584 0.066693
0.070534 0.408958 0.050139
0.096094 0.409619 0.050690
0.121665 0.410288 0.051244
0.147247 0.410964 0.051801
0.172841 0.411649 0.052361
0.198446 0.412340 0.052923
0.224061 0.413040 0.053488
0.249688 0.413746 0.054056
0.275325 0.414460 0.054625
0.300972 0.415180 0.055197
0.326630 0.415907 0.055771
0.352299 0.416641 0.056346
0.377977 0.417382 0.056923
0.403666 0.418129 0.057502
0.429364 0.418883 0.058083
0.455073 0.419643 0.058665
0.480791 0.420409 0.059248
0.506518 0.421181 0.059832
0.532256 0.421959 0.060418
0.558002 0.422743 0.061004
0.583759 0.423533 0.061592
0.609524 0.424328 0.062180
0.635299 0.425130 0.062769
0.661082 0.425936 0.063359
0.686875 0.426749 0.063950
0.712677 0.427566 0.064541
0.738488 0.428389 0.065132
0.764307 0.429218 0.065724
0.790135 0.430051 0.066317
0.815972 0.430890 0.066909
0.841818 0.431733 0.067502
0.867672 0.432582 0.068094
0.893534 0.433435 0.068687
0.072462 0.436213 0.052004
0.098060 0.436900 0.052565
0.123669 0.437594 0.053129
0.149288 0.438296 0.053695
0.174918 0.439005 0.054263
0.200559 0.439721 0.054833
0.226211 0.440444 0.055406
0.251873 0.441174 0.055980
0.277545 0.441910 0.056556
0.303227 0.442653 0.057134
0.328919 0.443403 0.057713
0.354621 0.444159 0.058294
0.380333 0.444921 0.058877
0.406054 0.445689 0.059460
0.431786 0.446463 0.060045
0.457526 0.447244 0.060631
0.483277 0.448030 0.061218
0.509036 0.448822 0.061806
0.534805 0.449619 0.062395
0.560583 0.450423 0.062984
0.586370 0.451231 0.063574
0.612166 0.452046 0.064165
0.637971 0.452865 0.064756
0.663785 0.453690 0.065348
0.689607 0.454520 0.065940
0.715439 0.455356 0.066532
0.741279 0.456196 0.067125
0.767128 0.457042 0.067718
0.792985 0.457892 0.068310
0.818850 0.458747 0.068903
0.844724 0.459607 0.069496
0.870607 0.460472 0.070089
0.896497 0.461342 0.070681
0.074516 0.463553 0.053901
0.100151 0.464265 0.054470
0.125795 0.464984 0.055041
0.151451 0.465709 0.055614
0.177116 0.466441 0.056189
0.202792 0.467180 0.056766
0.228478 0.467926 0.057345
0.254173 0.468677 0.057925
0.279879 0.469436 0.058506
0.305594 0.470200 0.059089
0.331320 0.470970 0.059673
0.357054 0.471747 0.060258
0.382798 0.472529 0.060845
0.408552 0.473318 0.061432
0.434315 0.474112 0.062020
0.460087 0.474911 0.062609
0.485868 0.475716 0.063199
0.511659 0.476527 0.063789
0.537458 0.477343 0.064380
0.563266 0.478165 0.064972
0.589083 0.478992 0.065563
0.614909 0.479824 0.066156
0.640744 0.480661 0.066748
0.666587 0.481503 0.067341
0.692439 0.482351 0.067933
0.718299 0.483203 0.068526
0.744167 0.484060 0.069119
0.770044 0.484922 0.069712
0.795930 0.485788 0.070304
0.821823 0.486660 0.070897
0.847725 0.487535 0.071489
0.873635 0.488416 0.072081
0.899553 0.489301 0.072673
0.076692 0.490975 0.055824
0.102361 0.491709 0.056399
0.128040 0.492451 0.056977
0.153730 0.493199 0.057556
0.179429 0.493953 0.058136
0.205138 0.494713 0.058718
0.230857 0.495480 0.059302
0.256586 0.496252 0.059886
0.282324 0.497031 0.060472
0.308072 0.497816 0.061058
0.333829 0.498606 0.061646
0.359595 0.499402 0.062235
0.385370 0.500204 0.062824
0.411155 0.501011 0.063414
0.436949 0.501824 0.064004
0.462751 0.502642 0.064595
0.488563 0.503465 0.065187
0.514383 0.504294 0.065779
0.540212 0.505128 0.066371
0.566050 0.505967 0.066964
0.591896 0.506811 0.067556
0.617751 0.507660 0.068149
0.643614 0.508514 0.068742
0.669486 0.509373 0.069335
0.695366 0.510237 0.069928
0.721254 0.511105 0.070520
0.747151 0.511978 0.071113
0.773056 0.512855 0.071705
0.798968 0.513738 0.072297
0.824889 0.514624 0.072888
0.850818 0.515515 0.073479
0.876755 0.516411 0.074070
0.902700 0.517311 0.074660
0.078983 0.518472 0.057767
0.104686 0.519229 0.058348
0.130399 0.519991 0.058931
0.156121 0.520760 0.059514
0.181854 0.521535 0.060099
0.207595 0.522316 0.060685
0.233346 0.523103 0.061272
0.259107 0.523895 0.061860
0.284876 0.524693 0.062449
0.310655 0.525497 0.063039
0.336443 0.526306 0.063629
0.362240 0.527121 0.064219
0.388046 0.527941 0.064811
0.413860 0.528767 0.065402
0.439684 0.529597 0.065994
0.465516 0.530433 0.066587
0.491357 0.531274 0.067179
0.517206 0.532120 0.067772
0.543064 0.532971 0.068365
0.568930 0.533826 0.068958
0.594805 0.534687 0.069551
0.620688 0.535552 0.070143
0.646580 0.536422 0.070736
0.672479 0.537297 0.071328
0.698387 0.538176 0.071920
0.724303 0.539060 0.072512
0.750227 0.539948 0.073103
0.776158 0.540841 0.073694
0.802098 0.541738 0.074285
0.828046 0.542640 0.074875
0.854001 0.543545 0.075464
0.879965 0.544455 0.076053
0.905936 0.545369 0.076641
0.081387 0.546042 0.059727
0.107122 0.546819 0.060312
0.132868 0.547602 0.060899
0.158622 0.548390 0.061486
0.184386 0.549185 0.062074
0.210159 0.549985 0.062664
0.235941 0.550791 0.063253
0.261732 0.551602 0.063844
0.287532 0.552419 0.064435
0.313341 0.553241 0.065026
0.339159 0.554068 0.065618
0.364986 0.554901 0.066210
0.390821 0.555738 0.066803
0.416665 0.556581 0.067395
0.442518 0.557429 0.067988
0.468379 0.558282 0.068581
0.494248 0.559139 0.069174
0.520126 0.560001 0.069766
0.546012 0.560868 0.070359
0.571906 0.561740 0.070952
0.597809 0.562616 0.071544
0.623719 0.563497 0.072136
0.649638 0.564383 0.072727
0.675565 0.565273 0.073319
0.701500 0.566167 0.073909
0.727442 0.567066 0.074500
0.753393 0.567969 0.075089
0.779351 0.568876 0.075679
0.805317 0.569788 0.076267
0.831291 0.570703 0.076855
0.857273 0.571623 0.077442
0.883262 0.572547 0.078028
0.909259 0.573475 0.078613
0.083899 0.573679 0.061700
0.109666 0.574476 0.062289
0.135442 0.575278 0.062878
0.161228 0.576086 0.063468
0.187022 0.576899 0.064059
0.212826 0.577718 0.064650
0.238638 0.578542 0.065242
0.264459 0.579371 0.065833
0.290289 0.580205 0.066426
0.316127 0.581045 0.067018
0.341974 0.581889 0.067611
0.367830 0.582739 0.068204
0.393694 0.583593 0.068797
0.419567 0.584452 0.069389
0.445447 0.585316 0.069982
0.471337 0.586185 0.070575
0.497234 0.587059 0.071167
0.523139 0.587937 0.071759
0.549053 0.588819 0.072351
0.574975 0.589706 0.072943
0.600904 0.590598 0.073534
0.626842 0.591494 0.074124
0.652788 0.592394 0.074714
0.678741 0.593299 0.075304
0.704702 0.594207 0.075893
0.730671 0.595120 0.076481
0.756648 0.596038 0.077069
0.782632 0.596959 0.077655
0.808624 0.597884 0.078241
0.834624 0.598813 0.078826
0.860631 0.599747 0.079411
0.886645 0.600684 0.079994
0.912667 0.601625 0.080576
0.086516 0.601381 0.063683
0.112314 0.602196 0.064274
0.138120 0.603017 0.064865
0.163936 0.603843 0.065457
0.189760 0.604674 0.066049
0.215593 0.605510 0.066641
0.241435 0.606352 0.067234
0.267285 0.607198 0.067827
0.293144 0.608049 0.068420
0.319011 0.608905 0.069012
0.344886 0.609766 0.069605
0.370770 0.610632 0.070198
0.396662 0.611503 0.070791
0.422563 0.612378 0.071383
0.448471 0.613257 0.071975
0.474388 0.614142 0.072567
0.500312 0.615030 0.073158
0.526245 0.615924 0.073749
0.552185 0.616821 0.074339
0.578134 0.617723 0.074929
0.604090 0.618629 0.075518
0.630054 0.619539 0.076107
0.656026 0.620454 0.076695
0.682005 0.621372 0.077282
0.707992 0.622295 0.077869
0.733987 0.623222 0.078454
0.759989 0.624153 0.079039
0.785999 0.625088 0.079623
0.812017 0.626026 0.080206
0.838041 0.626969 0.080788
0.864073 0.627915 0.081369
0.890113 0.628865 0.081949
0.916160 0.629819 0.082527
0.089235 0.629145 0.065673
0.115062 0.629978 0.066265
0.140898 0.630816 0.066857
0.166743 0.631659 0.067450
0.192597 0.632507 0.068043
0.218458 0.633360 0.068635
0.244329 0.634218 0.069228
0.270207 0.635081 0.069821
0.296094 0.635949 0.070414
0.321989 0.636821 0.071006
0.347892 0.637697 0.071598
0.373804 0.638579 0.072190
0.399723 0.639465 0.072782
0.425651 0.640355 0.073373
0.451586 0.641250 0.073964
0.477530 0.642149 0.074554
0.503481 0.643052 0.075144
0.529440 0.643960 0.075733
0.555407 0.644872 0.076321
0.581382 0.645788 0.076909
0.607364 0.646708 0.077496
0.633354 0.647632 0.078082
0.659351 0.648560 0.078667
0.685356 0.649493 0.079252
0.711369 0.650429 0.079835
0.737389 0.651369 0.080418
0.763416 0.652313 0.080999
0.789451 0.653261 0.081580
0.815493 0.654212 0.082159
0.841543 0.655168 0.082738
0.867599 0.656127 0.083315
0.893663 0.657089 0.083891
0.919734 0.658056 0.084466
0.092053 0.656967 0.067666
0.117909 0.657817 0.068258
0.143774 0.658672 0.068851
0.169647 0.659532 0.069444
0.195529 0.660396 0.070037
0.221419 0.661266 0.070629
0.247317 0.662139 0.071222
0.273223 0.663018 0.071814
0.299138 0.663901 0.072406
0.325060 0.664788 0.072997
0.350990 0.665680 0.073588
0.376929 0.666577 0.074179
0.402875 0.667477 0.074769
0.428829 0.668382 0.075358
0.454791 0.669291 0.075947
0.480761 0.670205 0.076535
0.506738 0.671122 0.077123
0.532723 0.672044 0.077709
0.558716 0.672970 0.078295
0.584716 0.673899 0.078880
0.610724 0.674833 0.079464
0.636739 0.675771 0.080048
0.662762 0.676712 0.080630
0.688792 0.677658 0.081211
0.714830 0.678607 0.081791
0.740874 0.679560 0.082370
0.766926 0.680516 0.082948
0.792986 0.681477 0.083525
0.819052 0.682441 0.084100
0.845126 0.683408 0.084675
0.871207 0.684379 0.085248
0.897295 0.685354 0.085819
0.923390 0.686332 0.086390
0.094967 0.684846 0.069660
0.120852 0.685712 0.070253
0.146745 0.686583 0.070845
0.172646 0.687459 0.071437
0.198555 0.688339 0.072029
0.224472 0.689223 0.072621
0.250398 0.690113 0.073212
0.276331 0.691006 0.073803
0.302272 0.691904 0.074394
0.328222 0.692806 0.074983
0.354179 0.693713 0.075573
0.380143 0.694623 0.076161
0.406116 0.695538 0.076749
0.432096 0.696457 0.077336
0.458084 0.697381 0.077923
0.484079 0.698308 0.078508
0.510082 0.699239 0.079093
0.536093 0.700174 0.079677
0.562111 0.701113 0.080260
0.588136 0.702056 0.080841
0.614169 0.703003 0.081422
0.640209 0.703953 0.082002
0.666257 0.704907 0.082581
0.692311 0.705865 0.083158
0.718373 0.706827 0.083734
0.744443 0.707792 0.084310
0.770519 0.708761 0.084883
0.796602 0.709734 0.085456
0.822693 0.710710 0.086027
0.848791 0.711690 0.086597
0.874895 0.712673 0.087166
0.901007 0.713659 0.087733
0.927126 0.714649 0.088298
0.097976 0.712779 0.071653
0.123888 0.713660 0.072245
0.149808 0.714547 0.072836
0.175737 0.715437 0.073428
0.201673 0.716332 0.074018
0.227617 0.717232 0.074608
0.253569 0.718136 0.075198
0.279529 0.719044 0.075787
0.305496 0.719956 0.076375
0.331472 0.720872 0.076963
0.357455 0.721793 0.077550
0.383445 0.722718 0.078136
0.409444 0.723646 0.078721
0.435449 0.724579 0.079306
0.461462 0.725515 0.079889
0.487483 0.726456 0.080472
0.513511 0.727400 0.081053
0.539547 0.728348 0.081633
0.565590 0.729300 0.082213
0.591640 0.730256 0.082791
0.617697 0.731215 0.083368
0.643762 0.732178 0.083944
0.669834 0.733145 0.084519
0.695913 0.734115 0.085092
0.721999 0.735089 0.085664
0.748092 0.736066 0.086235
0.774192 0.737047 0.086804
0.800299 0.738031 0.087372
0.826414 0.739019 0.087939
0.852535 0.740010 0.088504
0.878663 0.741005 0.089067
0.904798 0.742002 0.089629
0.930940 0.743003 0.090190
0.101077 0.740763 0.073643
0.127016 0.741659 0.074233
0.152963 0.742560 0.074823
0.178918 0.743466 0.075413
0.204880 0.744375 0.076001
0.230851 0.745289 0.076589
0.256829 0.746207 0.077177
0.282814 0.747129 0.077763
0.308808 0.748055 0.078349
0.334809 0.748985 0.078934
0.360817 0.749919 0.079518
0.386833 0.750857 0.080101
0.412857 0.751799 0.080683
0.438887 0.752745 0.081264
0.464926 0.753694 0.081845
0.490971 0.754648 0.082423
0.517024 0.755605 0.083001
0.543084 0.756565 0.083578
0.569151 0.757530 0.084153
0.595226 0.758498 0.084728
0.621307 0.759469 0.085300
0.647396 0.760444 0.085872
0.673492 0.761423 0.086442
