asset_packs/terrain_screen_false_colour/mood/grade_33.cube
TITLE "terrain_screen_false_colour mood grade"
# Generated by construction_code_v2/gen_asset_packs.py. Domain: display-referred sRGB in, sRGB out.
LUT_3D_SIZE 33
DOMAIN_MIN 0.0 0.0 0.0
DOMAIN_MAX 1.0 1.0 1.0
0.045664 0.000000 0.119847
0.081377 0.000000 0.123835
0.114741 0.000000 0.125480
0.147386 0.000000 0.126412
0.179598 0.000000 0.126917
0.211506 0.000000 0.127124
0.243180 0.000000 0.127104
0.274669 0.000000 0.126903
0.306003 0.000767 0.126554
0.337206 0.001985 0.126080
0.368296 0.003076 0.125499
0.399287 0.004055 0.124825
0.430190 0.004932 0.124069
0.461014 0.005716 0.123241
0.491768 0.006416 0.122348
0.522458 0.007038 0.121396
0.553089 0.007587 0.120392
0.583666 0.008069 0.119340
0.614194 0.008487 0.118245
0.644676 0.008846 0.117110
0.675116 0.009149 0.115939
0.705516 0.009398 0.114734
0.735880 0.009597 0.113499
0.766209 0.009748 0.112235
0.796506 0.009853 0.110945
0.826773 0.009913 0.109631
0.857011 0.009932 0.108294
0.887223 0.009910 0.106937
0.917410 0.009849 0.105560
0.947573 0.009750 0.104166
0.977713 0.009615 0.102756
1.000000 0.009445 0.101330
1.000000 0.009241 0.099890
0.055736 0.023488 0.126637
0.087827 0.025657 0.127022
0.119643 0.027539 0.127140
0.151245 0.029193 0.127049
0.182674 0.030660 0.126792
0.213958 0.031968 0.126395
0.245118 0.033138 0.125880
0.276171 0.034187 0.125264
0.307128 0.035127 0.124559
0.338002 0.035970 0.123775
0.368800 0.036722 0.122923
0.399530 0.037393 0.122008
0.430197 0.037988 0.121036
0.460808 0.038512 0.120015
0.491367 0.038971 0.118947
0.521878 0.039367 0.117836
0.552344 0.039705 0.116688
0.582769 0.039988 0.115504
0.613156 0.040219 0.114288
0.643507 0.040400 0.113042
0.673824 0.040534 0.111768
0.704110 0.040622 0.110469
0.734366 0.040667 0.109147
0.764595 0.040671 0.107802
0.794797 0.040634 0.106438
0.824975 0.040559 0.105055
0.855130 0.040447 0.103654
0.885262 0.040299 0.102238
0.915374 0.040117 0.100807
0.945467 0.039901 0.099362
0.975540 0.039653 0.097905
1.000000 0.039373 0.096436
1.000000 0.039062 0.094956
0.059287 0.060490 0.126973
0.090660 0.061896 0.126662
0.121897 0.063151 0.126220
0.153016 0.064276 0.125667
0.184033 0.065284 0.125017
0.214959 0.066187 0.124282
0.245804 0.066996 0.123473
0.276576 0.067718 0.122596
0.307283 0.068360 0.121660
0.337929 0.068929 0.120670
0.368521 0.069429 0.119631
0.399062 0.069864 0.118547
0.429556 0.070239 0.117423
0.460007 0.070556 0.116261
0.490418 0.070820 0.115065
0.520791 0.071033 0.113838
0.551129 0.071196 0.112581
0.581435 0.071313 0.111298
0.611710 0.071386 0.109990
0.641956 0.071415 0.108660
0.672175 0.071404 0.107308
0.702368 0.071353 0.105936
0.732537 0.071265 0.104547
0.762684 0.071140 0.103141
0.792809 0.070979 0.101719
0.822913 0.070784 0.100283
0.852999 0.070556 0.098833
0.883066 0.070296 0.097371
0.913115 0.070005 0.095898
0.943148 0.069684 0.094414
0.973166 0.069333 0.092921
1.000000 0.068953 0.091419
1.000000 0.068545 0.089909
0.060901 0.095398 0.125441
0.091883 0.096366 0.124759
0.122779 0.097234 0.123996
0.153596 0.098011 0.123161
0.184344 0.098703 0.122262
0.215028 0.099318 0.121306
0.245654 0.099861 0.120297
0.276226 0.100337 0.119241
0.306750 0.100749 0.118142
0.337228 0.101103 0.117004
0.367664 0.101401 0.115829
0.398061 0.101645 0.114622
0.428421 0.101840 0.113383
0.458747 0.101986 0.112117
0.489042 0.102087 0.110825
0.519306 0.102143 0.109508
0.549542 0.102158 0.108170
0.579751 0.102132 0.106811
0.609936 0.102068 0.105433
0.640096 0.101966 0.104037
0.670235 0.101827 0.102625
0.700352 0.101654 0.101198
0.730450 0.101447 0.099756
0.760528 0.101208 0.098302
0.790589 0.100936 0.096836
0.820632 0.100634 0.095359
0.850660 0.100301 0.093872
0.880672 0.099940 0.092375
0.910669 0.099550 0.090870
0.940653 0.099132 0.089357
0.970623 0.098688 0.087837
1.000000 0.098217 0.086310
1.000000 0.097720 0.084778
0.061380 0.129014 0.122841
0.092103 0.129678 0.121920
0.122766 0.130266 0.120944
0.153372 0.130784 0.119918
0.183926 0.131236 0.118846
0.214432 0.131627 0.117732
0.244895 0.131960 0.116580
0.275316 0.132238 0.115393
0.305699 0.132464 0.114174
0.336047 0.132641 0.112926
0.366361 0.132770 0.111649
0.396644 0.132855 0.110348
0.426898 0.132896 0.109024
0.457124 0.132895 0.107677
0.487324 0.132855 0.106311
0.517500 0.132777 0.104926
0.547653 0.132662 0.103525
0.577783 0.132511 0.102107
0.607893 0.132325 0.100674
0.637984 0.132106 0.099228
0.668056 0.131855 0.097770
0.698110 0.131572 0.096300
0.728147 0.131258 0.094819
0.758169 0.130915 0.093328
0.788176 0.130543 0.091828
0.818168 0.130143 0.090320
0.848147 0.129716 0.088804
0.878113 0.129261 0.087282
0.908066 0.128781 0.085753
0.938008 0.128275 0.084218
0.967939 0.127744 0.082678
0.997859 0.127189 0.081134
1.000000 0.126609 0.079586
0.061082 0.161698 0.119533
0.091619 0.162128 0.118445
0.122109 0.162497 0.117317
0.152556 0.162810 0.116152
0.182963 0.163068 0.114953
0.213333 0.163276 0.113723
0.243668 0.163435 0.112464
0.273971 0.163548 0.111179
0.304243 0.163617 0.109869
0.334487 0.163643 0.108536
0.364703 0.163628 0.107182
0.394894 0.163573 0.105809
0.425062 0.163481 0.104418
0.455206 0.163353 0.103010
0.485329 0.163189 0.101587
0.515432 0.162991 0.100150
0.545515 0.162760 0.098699
0.575581 0.162497 0.097236
0.605629 0.162203 0.095762
0.635660 0.161879 0.094277
0.665677 0.161525 0.092783
0.695678 0.161143 0.091280
0.725665 0.160733 0.089769
0.755639 0.160296 0.088251
0.785601 0.159832 0.086726
0.815550 0.159342 0.085195
0.845488 0.158827 0.083658
0.875414 0.158287 0.082117
0.905331 0.157723 0.080571
0.935237 0.157135 0.079021
0.965135 0.156524 0.077468
0.995023 0.155890 0.075912
1.000000 0.155234 0.074353
0.060212 0.193652 0.115719
0.090605 0.193892 0.114509
0.120962 0.194082 0.113268
0.151286 0.194224 0.111999
0.181577 0.194320 0.110704
0.211838 0.194373 0.109386
0.242072 0.194384 0.108045
0.272279 0.194355 0.106684
0.302461 0.194286 0.105305
0.332620 0.194181 0.103907
0.362756 0.194040 0.102494
0.392872 0.193863 0.101065
0.422968 0.193653 0.099623
0.453044 0.193411 0.098168
0.483103 0.193136 0.096701
0.513145 0.192831 0.095222
0.543171 0.192496 0.093734
0.573182 0.192132 0.092237
0.603178 0.191739 0.090731
0.633161 0.191319 0.089217
0.663130 0.190872 0.087696
0.693087 0.190398 0.086169
0.723032 0.189899 0.084636
0.752965 0.189375 0.083098
0.782888 0.188826 0.081554
0.812801 0.188254 0.080007
0.842704 0.187657 0.078456
0.872598 0.187038 0.076902
0.902483 0.186396 0.075345
0.932360 0.185732 0.073785
0.962229 0.185046 0.072224
0.992090 0.184338 0.070661
1.000000 0.183610 0.069097
0.058898 0.225006 0.111531
0.089179 0.225087 0.110227
0.119430 0.225124 0.108900
0.149653 0.225120 0.107552
0.179851 0.225076 0.106184
0.210025 0.224995 0.104798
0.240175 0.224876 0.103395
0.270304 0.224722 0.101975
0.300412 0.224533 0.100542
0.330501 0.224311 0.099094
0.360571 0.224056 0.097635
0.390624 0.223771 0.096164
0.420660 0.223455 0.094682
0.450680 0.223109 0.093190
0.480685 0.222734 0.091690
0.510677 0.222332 0.090181
0.540654 0.221902 0.088664
0.570619 0.221445 0.087141
0.600571 0.220962 0.085612
0.630512 0.220454 0.084076
0.660442 0.219920 0.082536
0.690361 0.219363 0.080991
0.720270 0.218781 0.079443
0.750170 0.218177 0.077890
0.780060 0.217549 0.076335
0.809942 0.216899 0.074777
0.839816 0.216227 0.073217
0.869682 0.215533 0.071655
0.899541 0.214818 0.070092
0.929393 0.214082 0.068527
0.959238 0.213326 0.066962
0.989077 0.212549 0.065397
1.000000 0.211753 0.063832
0.057232 0.255851 0.107056
0.087420 0.255793 0.105682
0.117585 0.255698 0.104289
0.147728 0.255566 0.102880
0.177849 0.255399 0.101455
0.207950 0.255198 0.100016
0.238032 0.254964 0.098564
0.268095 0.254698 0.097100
0.298142 0.254401 0.095625
0.328172 0.254074 0.094140
0.358187 0.253718 0.092645
0.388187 0.253333 0.091141
0.418173 0.252920 0.089630
0.448146 0.252480 0.088111
0.478106 0.252014 0.086585
0.508054 0.251522 0.085053
0.537991 0.251005 0.083516
0.567917 0.250462 0.081974
0.597832 0.249896 0.080428
0.627738 0.249306 0.078878
0.657634 0.248693 0.077324
0.687522 0.248057 0.075768
0.717401 0.247399 0.074209
0.747272 0.246719 0.072648
0.777135 0.246017 0.071086
0.806991 0.245295 0.069522
0.836840 0.244551 0.067958
0.866683 0.243788 0.066392
0.896520 0.243004 0.064827
0.926350 0.242200 0.063262
0.956175 0.241378 0.061697
0.985995 0.240536 0.060133
1.000000 0.239675 0.058570
0.055278 0.286251 0.102363
0.085391 0.286072 0.100933
0.115485 0.285859 0.099489
0.145560 0.285613 0.098033
0.175618 0.285336 0.096565
0.205658 0.285028 0.095086
0.235683 0.284690 0.093597
0.265692 0.284323 0.092098
0.295687 0.283928 0.090592
0.325668 0.283505 0.089077
0.355636 0.283056 0.087556
0.385592 0.282580 0.086028
0.415536 0.282079 0.084494
0.445468 0.281552 0.082955
0.475390 0.281001 0.081412
0.505302 0.280426 0.079864
0.535204 0.279828 0.078313
0.565098 0.279206 0.076758
0.594982 0.278562 0.075201
0.624858 0.277896 0.073641
0.654726 0.277208 0.072080
0.684587 0.276499 0.070517
0.714440 0.275769 0.068953
0.744287 0.275018 0.067388
0.774128 0.274247 0.065823
0.803962 0.273456 0.064257
0.833791 0.272645 0.062692
0.863614 0.271816 0.061128
0.893432 0.270967 0.059564
0.923245 0.270099 0.058002
0.953054 0.269214 0.056440
0.982858 0.268310 0.054881
1.000000 0.267388 0.053324
0.053086 0.316258 0.097500
0.083137 0.315969 0.096027
0.113172 0.315650 0.094545
0.143191 0.315302 0.093052
0.173195 0.314925 0.091551
0.203185 0.314520 0.090041
0.233161 0.314087 0.088524
0.263125 0.313628 0.087000
0.293076 0.313143 0.085470
0.323016 0.312632 0.083935
0.352944 0.312097 0.082394
0.382863 0.311537 0.080849
0.412771 0.310953 0.079300
0.442670 0.310346 0.077747
0.472560 0.309716 0.076192
0.502441 0.309064 0.074633
0.532314 0.308390 0.073073
0.562179 0.307694 0.071511
0.592037 0.306977 0.069947
0.621888 0.306240 0.068383
0.651733 0.305482 0.066818
0.681571 0.304703 0.065253
0.711403 0.303905 0.063687
0.741230 0.303088 0.062122
0.771051 0.302251 0.060558
0.800868 0.301395 0.058995
0.830679 0.300521 0.057433
0.860486 0.299629 0.055873
0.890289 0.298718 0.054314
0.920088 0.297790 0.052757
0.949883 0.296844 0.051203
0.979675 0.295881 0.049651
1.000000 0.294901 0.048102
0.050697 0.345910 0.092507
0.080696 0.345523 0.091002
0.110681 0.345107 0.089490
0.140652 0.344665 0.087970
0.170611 0.344196 0.086444
0.200559 0.343702 0.084912
0.230494 0.343182 0.083374
0.260419 0.342638 0.081832
0.290334 0.342069 0.080285
0.320238 0.341477 0.078735
0.350134 0.340862 0.077181
0.380021 0.340224 0.075625
0.409899 0.339564 0.074065
0.439769 0.338882 0.072504
0.469632 0.338178 0.070942
0.499487 0.337453 0.069378
0.529336 0.336708 0.067813
0.559178 0.335943 0.066248
0.589014 0.335157 0.064683
0.618844 0.334352 0.063118
0.648669 0.333527 0.061553
0.678488 0.332684 0.059989
0.708303 0.331821 0.058426
0.738113 0.330941 0.056865
0.767918 0.330042 0.055305
0.797720 0.329125 0.053747
0.827517 0.328190 0.052191
0.857311 0.327238 0.050638
0.887102 0.326268 0.049087
0.916889 0.325282 0.047539
0.946674 0.324279 0.045994
0.976455 0.323259 0.044452
1.000000 0.322223 0.042914
0.048142 0.375240 0.087415
0.078097 0.374762 0.085887
0.108040 0.374258 0.084353
0.137971 0.373729 0.082813
0.167892 0.373176 0.081269
0.197803 0.372599 0.079721
0.227705 0.371998 0.078170
0.257597 0.371374 0.076615
0.287480 0.370728 0.075057
0.317356 0.370060 0.073497
0.347223 0.369370 0.071936
0.377083 0.368659 0.070373
0.406936 0.367927 0.068808
0.436782 0.367174 0.067243
0.466622 0.366401 0.065678
0.496456 0.365608 0.064113
0.526284 0.364796 0.062548
0.556107 0.363965 0.060983
0.585924 0.363114 0.059420
0.615737 0.362245 0.057858
0.645546 0.361358 0.056297
0.675350 0.360452 0.054737
0.705150 0.359529 0.053180
0.734946 0.358587 0.051625
0.764738 0.357629 0.050073
0.794528 0.356653 0.048523
0.824314 0.355661 0.046976
0.854098 0.354652 0.045432
0.883878 0.353626 0.043892
0.913657 0.352584 0.042355
0.943433 0.351526 0.040822
0.973207 0.350452 0.039293
1.000000 0.349363 0.037767
0.045447 0.404273 0.082252
0.075364 0.403711 0.080706
0.105272 0.403125 0.079157
0.135170 0.402516 0.077604
0.165059 0.401884 0.076048
0.194939 0.401230 0.074490
0.224812 0.400553 0.072929
0.254676 0.399856 0.071367
0.284534 0.399137 0.069803
0.314384 0.398397 0.068239
0.344228 0.397637 0.066674
0.374066 0.396857 0.065108
0.403897 0.396057 0.063543
0.433723 0.395238 0.061978
0.463544 0.394399 0.060414
0.493360 0.393542 0.058851
0.523171 0.392666 0.057289
0.552978 0.391772 0.055729
0.582780 0.390860 0.054170
0.612579 0.389930 0.052614
0.642374 0.388983 0.051060
0.672165 0.388018 0.049508
0.701954 0.387036 0.047959
0.731739 0.386038 0.046414
0.761521 0.385022 0.044871
0.791301 0.383991 0.043332
0.821079 0.382943 0.041796
0.850854 0.381879 0.040265
0.880628 0.380799 0.038737
0.910399 0.379704 0.037213
0.940169 0.378593 0.035694
0.969938 0.377467 0.034179
0.999705 0.376326 0.032670
0.042634 0.433030 0.077038
0.072519 0.432390 0.075481
0.102397 0.431728 0.073922
0.132266 0.431044 0.072360
0.162128 0.430339 0.070798
0.191983 0.429612 0.069234
0.221831 0.428865 0.067669
0.251673 0.428098 0.066104
0.281508 0.427310 0.064538
0.311338 0.426503 0.062973
0.341162 0.425677 0.061409
0.370981 0.424832 0.059845
0.400795 0.423968 0.058282
0.430605 0.423085 0.056721
0.460410 0.422184 0.055161
0.490211 0.421266 0.053603
0.520008 0.420329 0.052048
0.549802 0.419376 0.050495
0.579592 0.418405 0.048944
0.609379 0.417417 0.047396
0.639163 0.416412 0.045852
0.668945 0.415391 0.044310
0.698724 0.414353 0.042772
0.728500 0.413300 0.041238
0.758275 0.412230 0.039708
0.788048 0.411145 0.038182
0.817819 0.410044 0.036660
0.847588 0.408927 0.035142
0.877356 0.407796 0.033629
0.907123 0.406649 0.032121
0.936889 0.405488 0.030618
0.966653 0.404311 0.029120
0.996418 0.403120 0.027627
0.039720 0.461532 0.071792
0.069580 0.460819 0.070228
0.099432 0.460085 0.068664
0.129278 0.459330 0.067099
0.159117 0.458556 0.065534
0.188950 0.457761 0.063969
0.218778 0.456947 0.062404
0.248600 0.456114 0.060839
0.278417 0.455261 0.059276
0.308229 0.454391 0.057714
0.338037 0.453501 0.056153
0.367841 0.452594 0.054594
0.397641 0.451669 0.053037
0.427436 0.450726 0.051482
0.457229 0.449766 0.049930
0.487018 0.448789 0.048380
0.516804 0.447795 0.046833
0.546587 0.446784 0.045290
0.576368 0.445757 0.043750
0.606146 0.444714 0.042213
0.635922 0.443654 0.040681
0.665696 0.442579 0.039152
0.695468 0.441488 0.037627
0.725238 0.440381 0.036107
0.755007 0.439259 0.034591
0.784775 0.438122 0.033080
0.814541 0.436970 0.031573
0.844306 0.435803 0.030072
0.874071 0.434621 0.028576
0.903835 0.433425 0.027085
0.933598 0.432215 0.025599
0.963361 0.430990 0.024119
0.993123 0.429751 0.022645
0.036723 0.489793 0.066529
0.066560 0.489011 0.064964
0.096391 0.488209 0.063399
0.126217 0.487388 0.061834
0.156037 0.486548 0.060270
0.185853 0.485689 0.058707
0.215663 0.484811 0.057145
0.245470 0.483915 0.055585
0.275272 0.483002 0.054027
0.305070 0.482070 0.052470
0.334865 0.481121 0.050917
0.364656 0.480155 0.049365
0.394444 0.479171 0.047817
0.424229 0.478171 0.046271
0.454011 0.477155 0.044729
0.483791 0.476121 0.043190
0.513568 0.475072 0.041655
0.543343 0.474007 0.040124
0.573116 0.472926 0.038596
0.602888 0.471829 0.037073
0.632657 0.470717 0.035554
0.662426 0.469589 0.034040
0.692193 0.468447 0.032531
0.721959 0.467289 0.031026
0.751724 0.466117 0.029526
0.781488 0.464930 0.028032
0.811252 0.463728 0.026543
0.841015 0.462513 0.025060
0.870778 0.461283 0.023582
0.900540 0.460039 0.022110
0.930303 0.458781 0.020643
0.960065 0.457509 0.019183
0.989828 0.456223 0.017729
0.033655 0.517826 0.061264
0.063474 0.516979 0.059701
0.093287 0.516114 0.058138
0.123096 0.515229 0.056577
0.152901 0.514327 0.055017
0.182702 0.513407 0.053460
0.212499 0.512469 0.051904
0.242292 0.511513 0.050351
0.272082 0.510541 0.048801
0.301869 0.509551 0.047254
0.331653 0.508545 0.045709
0.361434 0.507523 0.044168
0.391213 0.506484 0.042631
0.420989 0.505428 0.041097
0.450764 0.504357 0.039567
0.480536 0.503270 0.038041
0.510307 0.502168 0.036520
0.540077 0.501050 0.035002
0.569844 0.499917 0.033490
0.599611 0.498769 0.031982
0.629377 0.497606 0.030479
0.659141 0.496429 0.028982
0.688905 0.495236 0.027489
0.718669 0.494030 0.026002
0.748432 0.492809 0.024521
0.778194 0.491574 0.023045
0.807957 0.490324 0.021575
0.837719 0.489061 0.020111
0.867482 0.487785 0.018653
0.897245 0.486494 0.017201
0.927008 0.485190 0.015756
0.956771 0.483873 0.014317
0.986535 0.482542 0.012885
0.030529 0.545645 0.056009
0.060332 0.544736 0.054450
0.090132 0.543809 0.052893
0.119927 0.542865 0.051339
0.149719 0.541904 0.049787
0.179508 0.540925 0.048237
0.209294 0.539929 0.046691
0.239077 0.538917 0.045148
0.268857 0.537888 0.043608
0.298635 0.536843 0.042072
0.328411 0.535782 0.040539
0.358185 0.534706 0.039011
0.387956 0.533613 0.037487
0.417727 0.532505 0.035967
0.447495 0.531382 0.034451
0.477263 0.530243 0.032941
0.507029 0.529090 0.031435
0.536794 0.527921 0.029934
0.566559 0.526738 0.028438
0.596323 0.525541 0.026947
0.626086 0.524329 0.025462
0.655849 0.523103 0.023983
0.685611 0.521863 0.022509
0.715374 0.520608 0.021041
0.745136 0.519340 0.019580
0.774899 0.518059 0.018124
0.804662 0.516763 0.016674
0.834425 0.515454 0.015231
0.864189 0.514132 0.013795
0.893953 0.512797 0.012365
0.923718 0.511449 0.010942
0.953484 0.510087 0.009525
0.983251 0.508713 0.008116
0.027355 0.573259 0.050773
0.057146 0.572291 0.049222
0.086934 0.571307 0.047674
0.116718 0.570305 0.046129
0.146500 0.569287 0.044587
0.176280 0.568252 0.043048
0.206057 0.567201 0.041514
0.235832 0.566134 0.039983
0.265605 0.565052 0.038456
0.295376 0.563954 0.036933
0.325146 0.562840 0.035414
0.354914 0.561711 0.033901
0.384681 0.560567 0.032392
0.414447 0.559408 0.030888
0.444212 0.558235 0.029388
0.473976 0.557046 0.027895
0.503740 0.555843 0.026406
0.533503 0.554626 0.024923
0.563265 0.553395 0.023446
0.593028 0.552150 0.021974
0.622790 0.550890 0.020509
0.652553 0.549617 0.019049
0.682316 0.548331 0.017595
0.712079 0.547030 0.016148
0.741842 0.545717 0.014708
0.771606 0.544390 0.013273
0.801370 0.543050 0.011846
0.831136 0.541697 0.010425
0.860902 0.540330 0.009011
0.890669 0.538951 0.007604
0.920438 0.537560 0.006204
0.950207 0.536155 0.004812
0.979978 0.534738 0.003427
0.024143 0.600678 0.045567
0.053924 0.599654 0.044026
0.083702 0.598613 0.042489
0.113478 0.597557 0.040956
0.143253 0.596484 0.039426
0.173025 0.595396 0.037901
0.202796 0.594292 0.036380
0.232565 0.593173 0.034863
0.262333 0.592039 0.033351
0.292099 0.590889 0.031844
0.321865 0.589725 0.030341
0.351629 0.588546 0.028844
0.381393 0.587352 0.027352
0.411157 0.586144 0.025866
0.440920 0.584922 0.024385
0.470682 0.583686 0.022909
0.500445 0.582435 0.021440
0.530207 0.581171 0.019976
0.559970 0.579893 0.018519
0.589732 0.578601 0.017068
0.619496 0.577296 0.015623
0.649259 0.575977 0.014185
0.679023 0.574646 0.012753
0.708788 0.573301 0.011328
0.738554 0.571943 0.009910
0.768321 0.570572 0.008498
0.798088 0.569188 0.007094
0.827857 0.567792 0.005697
0.857627 0.566383 0.004307
0.887398 0.564962 0.002924
0.917171 0.563528 0.001549
0.946945 0.562081 0.000181
0.976721 0.560623 0.000000
0.020900 0.627910 0.040398
0.050673 0.626832 0.038870
0.080445 0.625738 0.037346
0.110215 0.624629 0.035827
0.139984 0.623504 0.034312
0.169751 0.622364 0.032801
0.199517 0.621209 0.031296
0.229282 0.620039 0.029796
0.259047 0.618855 0.028300
0.288810 0.617656 0.026810
0.318574 0.616443 0.025326
0.348336 0.615216 0.023847
0.378099 0.613974 0.022374
0.407861 0.612719 0.020906
0.437624 0.611449 0.019445
0.467387 0.610166 0.017990
0.497149 0.608870 0.016541
0.526913 0.607560 0.015099
0.556676 0.606236 0.013663
0.586441 0.604900 0.012233
0.616206 0.603550 0.010811
0.645972 0.602187 0.009395
0.675739 0.600812 0.007986
0.705507 0.599424 0.006584
0.735276 0.598023 0.005190
0.765047 0.596609 0.003802
0.794819 0.595183 0.002422
0.824592 0.593745 0.001050
0.854367 0.592294 0.000000
0.884143 0.590831 0.000000
0.913922 0.589356 0.000000
0.943702 0.587869 0.000000
0.973484 0.586370 0.000000
0.017634 0.654963 0.035275
0.047402 0.653833 0.033761
0.077169 0.652688 0.032253
0.106935 0.651527 0.030749
0.136700 0.650352 0.029251
0.166464 0.649163 0.027757
0.196228 0.647958 0.026269
0.225991 0.646740 0.024787
0.255753 0.645507 0.023310
0.285516 0.644261 0.021839
0.315278 0.643000 0.020374
0.345041 0.641726 0.018915
0.374803 0.640438 0.017462
0.404566 0.639136 0.016015
0.434330 0.637822 0.014575
0.464094 0.636493 0.013142
0.493859 0.635152 0.011715
0.523624 0.633798 0.010294
0.553390 0.632430 0.008881
0.583158 0.631050 0.007475
0.612926 0.629657 0.006076
0.642696 0.628252 0.004684
0.672467 0.626834 0.003299
0.702239 0.625403 0.001922
0.732013 0.623960 0.000552
0.761788 0.622505 0.000000
0.791566 0.621038 0.000000
0.821345 0.619558 0.000000
0.851125 0.618067 0.000000
0.880908 0.616564 0.000000
0.910693 0.615049 0.000000
0.940480 0.613522 0.000000
0.970269 0.611984 0.000000
0.014353 0.681843 0.030203
0.044117 0.680663 0.028706
0.073881 0.679468 0.027215
0.103645 0.678259 0.025729
0.133407 0.677035 0.024248
0.163170 0.675797 0.022774
0.192933 0.674546 0.021305
0.222695 0.673280 0.019842
0.252458 0.672001 0.018385
0.282220 0.670708 0.016934
0.311983 0.669402 0.015490
0.341747 0.668082 0.014052
0.371511 0.666749 0.012621
0.401276 0.665403 0.011197
0.431042 0.664044 0.009779
0.460809 0.662672 0.008368
0.490576 0.661287 0.006965
0.520345 0.659889 0.005568
0.550115 0.658479 0.004179
0.579887 0.657056 0.002797
0.609660 0.655621 0.001422
0.639434 0.654174 0.000055
0.669210 0.652714 0.000000
0.698988 0.651243 0.000000
0.728768 0.649759 0.000000
0.758549 0.648263 0.000000
0.788333 0.646756 0.000000
0.818118 0.645237 0.000000
0.847906 0.643706 0.000000
0.877696 0.642163 0.000000
0.907488 0.640609 0.000000
0.937282 0.639043 0.000000
0.967079 0.637466 0.000000
0.011062 0.708557 0.025189
0.040824 0.707328 0.023711
0.070587 0.706085 0.022238
0.100349 0.704829 0.020771
0.130112 0.703558 0.019311
0.159874 0.702274 0.017856
0.189637 0.700976 0.016408
0.219401 0.699665 0.014966
0.249164 0.698340 0.013531
0.278929 0.697002 0.012102
0.308694 0.695652 0.010680
0.338460 0.694288 0.009265
0.368227 0.692911 0.007857
0.397995 0.691522 0.006455
0.427765 0.690119 0.005062
0.457535 0.688705 0.003675
0.487307 0.687278 0.002296
0.517081 0.685838 0.000924
0.546856 0.684386 0.000000
0.576632 0.682922 0.000000
0.606411 0.681446 0.000000
0.636191 0.679958 0.000000
0.665973 0.678458 0.000000
0.695758 0.676946 0.000000
0.725544 0.675423 0.000000
0.755332 0.673887 0.000000
0.785123 0.672341 0.000000
0.814916 0.670782 0.000000
0.844711 0.669212 0.000000
0.874509 0.667631 0.000000
0.904310 0.666039 0.000000
0.934113 0.664435 0.000000
0.963919 0.662820 0.000000
0.007766 0.735110 0.020239
0.037529 0.733834 0.018780
0.067291 0.732545 0.017328
0.097054 0.731242 0.015882
0.126818 0.729926 0.014443
0.156582 0.728597 0.013010
0.186347 0.727254 0.011583
0.216112 0.725899 0.010164
0.245879 0.724530 0.008751
0.275646 0.723149 0.007346
0.305415 0.721755 0.005947
0.335184 0.720348 0.004556
0.364955 0.718929 0.003172
0.394728 0.717497 0.001795
0.424502 0.716053 0.000426
0.454278 0.714597 0.000000
0.484055 0.713128 0.000000
0.513834 0.711648 0.000000
0.543615 0.710156 0.000000
0.573398 0.708651 0.000000
0.603183 0.707135 0.000000
0.632970 0.705607 0.000000
0.662759 0.704068 0.000000
0.692551 0.702517 0.000000
0.722345 0.700954 0.000000
0.752141 0.699380 0.000000
0.781940 0.697795 0.000000
0.811741 0.696199 0.000000
0.841545 0.694591 0.000000
0.871352 0.692972 0.000000
0.901161 0.691342 0.000000
0.930974 0.689701 0.000000
0.960789 0.688049 0.000000
0.004471 0.761507 0.015357
0.034235 0.760186 0.013920
0.063999 0.758852 0.012490
0.093764 0.757505 0.011066
0.123530 0.756144 0.009649
0.153297 0.754771 0.008239
0.183065 0.753385 0.006836
0.212834 0.751986 0.005440
0.242604 0.750575 0.004051
0.272376 0.749151 0.002670
0.302149 0.747715 0.001296
0.331923 0.746267 0.000000
0.361700 0.744806 0.000000
0.391477 0.743333 0.000000
0.421257 0.741848 0.000000
0.451039 0.740351 0.000000
0.480822 0.738843 0.000000
0.510608 0.737322 0.000000
0.540396 0.735790 0.000000
0.570186 0.734247 0.000000
0.599979 0.732691 0.000000
0.629773 0.731125 0.000000
0.659571 0.729547 0.000000
