asset_packs/terrain_screen_false_colour/mood/grade_33.cube
TITLE "terrain_screen_false_colour mood grade"
# Generated by construction_code_v2/gen_asset_packs.py. Domain: display-referred sRGB in, sRGB out.
LUT_3D_SIZE 5
DOMAIN_MIN 0.0 0.0 0.0
DOMAIN_MAX 1.0 1.0 1.0
0.045664 0.000000 0.119847
0.306003 0.000767 0.126554
0.553089 0.007587 0.120392
0.796506 0.009853 0.110945
1.000000 0.009241 0.099890
0.057232 0.255851 0.107056
0.298142 0.254401 0.095625
0.537991 0.251005 0.083516
0.777135 0.246017 0.071086
1.000000 0.239675 0.058570
0.036723 0.489793 0.066529
0.275272 0.483002 0.054027
0.513568 0.475072 0.041655
0.751724 0.466117 0.029526
0.989828 0.456223 0.017729
0.011062 0.708557 0.025189
0.249164 0.698340 0.013531
0.487307 0.687278 0.002296
0.725544 0.675423 0.000000
0.963919 0.662820 0.000000
0.000000 0.916857 0.000000
0.223395 0.903992 0.000000
0.462019 0.890430 0.000000
0.700862 0.876202 0.000000
0.939952 0.861335 0.000000
0.054672 0.000000 0.372136
0.306999 0.003788 0.370962
0.552528 0.008751 0.363373
0.795150 0.009920 0.353261
1.000000 0.008524 0.341852
0.055673 0.255607 0.349218
0.296172 0.253445 0.337505
0.535749 0.249476 0.325255
0.774712 0.244006 0.312773
1.000000 0.237244 0.300269
0.034250 0.487622 0.308215
0.272699 0.480430 0.295742
0.510936 0.472141 0.283441
0.749066 0.462858 0.271417
0.987168 0.452663 0.259748
0.008400 0.705186 0.267124
0.246510 0.694675 0.255602
0.484679 0.683338 0.244524
0.722958 0.671225 0.233938
0.961389 0.658377 0.223888
0.000000 0.912568 0.230215
0.220888 0.899463 0.220369
0.459583 0.885671 0.211107
0.698507 0.871223 0.202457
0.937686 0.856144 0.194445
0.058225 0.000000 0.619015
0.307317 0.006030 0.614736
0.551645 0.009491 0.606077
0.793604 0.009696 0.595431
1.000000 0.007583 0.583737
0.053955 0.255101 0.591263
0.294097 0.252281 0.579325
0.533437 0.247774 0.566967
0.772242 0.241846 0.554458
1.000000 0.234682 0.541983
0.031738 0.485310 0.549904
0.270102 0.477732 0.537477
0.508292 0.469096 0.525260
0.746404 0.459495 0.513348
0.984513 0.449005 0.501817
0.005739 0.701713 0.509102
0.243862 0.690915 0.497725
0.482064 0.679309 0.486809
0.720390 0.666942 0.476401
0.958881 0.653854 0.466541
0.000000 0.908196 0.472746
0.218405 0.894854 0.463094
0.457174 0.880837 0.454037
0.696182 0.866172 0.445600
0.935453 0.850884 0.437811
0.060143 0.000959 0.864303
0.307130 0.007664 0.858049
0.550499 0.009865 0.848561
0.791896 0.009208 0.837484
1.000000 0.006434 0.825561
0.052098 0.254354 0.833215
0.291931 0.250924 0.821097
0.531065 0.245910 0.808663
0.769733 0.239544 0.796148
1.000000 0.231993 0.783716
0.029192 0.482863 0.791605
0.267485 0.474913 0.779237
0.505639 0.465939 0.767114
0.743743 0.456029 0.755323
0.981865 0.445252 0.743936
0.003080 0.698140 0.751128
0.241224 0.687062 0.739901
0.479463 0.675192 0.729153
0.717840 0.662576 0.718927
0.956395 0.649251 0.709261
0.000000 0.903743 0.715341
0.215945 0.890168 0.705888
0.454793 0.875928 0.697038
0.693888 0.861049 0.688819
0.933253 0.845554 0.681254
0.061095 0.003931 1.000000
0.306549 0.008802 1.000000
0.549131 0.009915 1.000000
0.790049 0.008478 1.000000
1.000000 0.005091 1.000000
0.050122 0.253386 1.000000
0.289685 0.249386 1.000000
0.528639 0.243890 1.000000
0.767189 0.237106 1.000000
1.000000 0.229182 1.000000
0.026618 0.480284 1.000000
0.264852 0.471975 1.000000
0.502981 0.462675 1.000000
0.741084 0.452463 0.997345
0.979226 0.441405 0.986108
0.000426 0.694469 0.993202
0.238596 0.683117 0.982132
0.476878 0.670990 0.971557
0.715312 0.658129 0.961517
0.953934 0.644571 0.952049
0.000000 0.899209 0.958002
0.213512 0.885406 0.948751
0.452440 0.870945 0.940112
0.691624 0.855855 0.932113
0.931086 0.840156 0.924774
