asset_packs/terrain_screen_false_colour/mood/grade_33.cube
TITLE "terrain_screen_false_colour mood grade"
# Generated by construction_code_v2/gen_asset_packs.py. Domain: display-referred sRGB in, sRGB out.
LUT_3D_SIZE 9
DOMAIN_MIN 0.0 0.0 0.0
DOMAIN_MAX 1.0 1.0 1.0
0.045664 0.000000 0.119847
0.179598 0.000000 0.126917
0.306003 0.000767 0.126554
0.430190 0.004932 0.124069
0.553089 0.007587 0.120392
0.675116 0.009149 0.115939
0.796506 0.009853 0.110945
0.917410 0.009849 0.105560
1.000000 0.009241 0.099890
0.061380 0.129014 0.122841
0.183926 0.131236 0.118846
0.305699 0.132464 0.114174
0.426898 0.132896 0.109024
0.547653 0.132662 0.103525
0.668056 0.131855 0.097770
0.788176 0.130543 0.091828
0.908066 0.128781 0.085753
1.000000 0.126609 0.079586
0.057232 0.255851 0.107056
0.177849 0.255399 0.101455
0.298142 0.254401 0.095625
0.418173 0.252920 0.089630
0.537991 0.251005 0.083516
0.657634 0.248693 0.077324
0.777135 0.246017 0.071086
0.896520 0.243004 0.064827
1.000000 0.239675 0.058570
0.048142 0.375240 0.087415
0.167892 0.373176 0.081269
0.287480 0.370728 0.075057
0.406936 0.367927 0.068808
0.526284 0.364796 0.062548
0.645546 0.361358 0.056297
0.764738 0.357629 0.050073
0.883878 0.353626 0.043892
1.000000 0.349363 0.037767
0.036723 0.489793 0.066529
0.156037 0.486548 0.060270
0.275272 0.483002 0.054027
0.394444 0.479171 0.047817
0.513568 0.475072 0.041655
0.632657 0.470717 0.035554
0.751724 0.466117 0.029526
0.870778 0.461283 0.023582
0.989828 0.456223 0.017729
0.024143 0.600678 0.045567
0.143253 0.596484 0.039426
0.262333 0.592039 0.033351
0.381393 0.587352 0.027352
0.500445 0.582435 0.021440
0.619496 0.577296 0.015623
0.738554 0.571943 0.009910
0.857627 0.566383 0.004307
0.976721 0.560623 0.000000
0.011062 0.708557 0.025189
0.130112 0.703558 0.019311
0.249164 0.698340 0.013531
0.368227 0.692911 0.007857
0.487307 0.687278 0.002296
0.606411 0.681446 0.000000
0.725544 0.675423 0.000000
0.844711 0.669212 0.000000
0.963919 0.662820 0.000000
0.000000 0.813852 0.005819
0.116991 0.808146 0.000300
0.236104 0.802244 0.000000
0.355249 0.796152 0.000000
0.474431 0.789875 0.000000
0.593654 0.783418 0.000000
0.712922 0.776785 0.000000
0.832241 0.769980 0.000000
0.951613 0.763008 0.000000
0.000000 0.916857 0.000000
0.104156 0.910513 0.000000
0.223395 0.903992 0.000000
0.342681 0.897296 0.000000
0.462019 0.890430 0.000000
0.581411 0.883398 0.000000
0.700862 0.876202 0.000000
0.820374 0.868847 0.000000
0.939952 0.861335 0.000000
0.051691 0.000000 0.247509
0.181122 0.000000 0.250108
0.306600 0.002390 0.248852
0.430284 0.005976 0.245896
0.552853 0.008226 0.241921
0.674642 0.009475 0.237264
0.795853 0.009925 0.232123
0.916618 0.009706 0.226631
1.000000 0.008912 0.220882
0.061339 0.129897 0.244545
0.183595 0.131753 0.240292
0.305155 0.132692 0.235440
0.426191 0.132886 0.230159
0.546817 0.132448 0.224564
0.667117 0.131463 0.218739
0.787154 0.129993 0.212747
0.906976 0.128088 0.206636
1.000000 0.125785 0.200445
0.056474 0.255763 0.228153
0.176973 0.255118 0.222466
0.297171 0.253950 0.216574
0.417125 0.252316 0.210533
0.536879 0.250262 0.204389
0.656471 0.247824 0.198178
0.775930 0.245031 0.191930
0.895280 0.241908 0.185670
1.000000 0.238476 0.179418
0.047069 0.374584 0.208306
0.166761 0.372386 0.202134
0.286301 0.369815 0.195907
0.405717 0.366899 0.189651
0.525034 0.363662 0.183392
0.644270 0.360123 0.177148
0.763443 0.356300 0.170937
0.882569 0.352207 0.164774
1.000000 0.347858 0.158671
0.035492 0.488726 0.187372
0.154777 0.485376 0.181116
0.273989 0.481732 0.174882
0.393143 0.477809 0.168687
0.512254 0.473621 0.162544
0.631334 0.469181 0.156467
0.750395 0.464501 0.150467
0.869447 0.459589 0.144552
0.988498 0.454455 0.138733
0.022836 0.599283 0.166444
0.141935 0.595002 0.160324
0.261007 0.590474 0.154273
0.380064 0.585708 0.148303
0.499114 0.580714 0.142422
0.618166 0.575502 0.136640
0.737229 0.570078 0.130963
0.856308 0.564449 0.125399
0.975411 0.558622 0.119954
0.009731 0.706884 0.146151
0.128781 0.701810 0.140305
0.247836 0.696520 0.134560
0.366904 0.691020 0.128924
0.485992 0.685319 0.123403
0.605105 0.679422 0.118003
0.724249 0.673334 0.112730
0.843429 0.667062 0.107590
0.962651 0.660609 0.102587
0.000000 0.811937 0.126900
0.115678 0.806163 0.121422
0.234802 0.800196 0.116068
0.353959 0.794041 0.110843
0.473154 0.787702 0.105752
0.592392 0.781185 0.100800
0.711677 0.774493 0.095991
0.831013 0.767631 0.091329
0.950404 0.760603 0.086817
0.000000 0.914723 0.108974
0.102884 0.908318 0.103933
0.222139 0.901737 0.099032
0.341442 0.894983 0.094276
0.460798 0.888060 0.089668
0.580210 0.880972 0.085213
0.699681 0.873722 0.080912
0.819215 0.866313 0.076771
0.938815 0.858748 0.072790
0.054672 0.000000 0.372136
0.182248 0.000000 0.372914
0.306999 0.003788 0.370962
0.430252 0.006869 0.367609
0.552528 0.008751 0.363373
0.674103 0.009710 0.358533
0.795150 0.009920 0.353261
0.915785 0.009497 0.347672
1.000000 0.008524 0.341852
0.061189 0.130644 0.366151
0.183184 0.132165 0.361670
0.304551 0.132835 0.356657
0.425436 0.132803 0.351258
0.545944 0.132171 0.345577
0.666148 0.131015 0.339689
0.786107 0.129393 0.333651
0.905866 0.127348 0.327509
1.000000 0.124919 0.321300
0.055673 0.255607 0.349218
0.176063 0.254777 0.343454
0.296172 0.253445 0.337505
0.416054 0.251664 0.331425
0.535749 0.249476 0.325255
0.655293 0.246913 0.319028
0.774712 0.244006 0.312773
0.894030 0.240776 0.306513
1.000000 0.237244 0.300269
0.045975 0.373881 0.329187
0.165612 0.371553 0.322993
0.285107 0.368862 0.316753
0.404487 0.365835 0.310494
0.523774 0.362493 0.304237
0.642987 0.358856 0.298003
0.762143 0.354939 0.291806
0.881255 0.350758 0.285663
1.000000 0.346324 0.279584
0.034250 0.487622 0.308215
0.153508 0.484171 0.301964
0.272699 0.480430 0.295742
0.391837 0.476416 0.289563
0.510936 0.472141 0.283441
0.630009 0.467618 0.277389
0.749066 0.462858 0.271417
0.868116 0.457870 0.265534
0.987168 0.452663 0.259748
0.021526 0.597858 0.287327
0.140614 0.593491 0.281229
0.259680 0.588881 0.275205
0.378733 0.584037 0.269264
0.497783 0.578968 0.263416
0.616838 0.573683 0.257668
0.735906 0.568189 0.252029
0.854993 0.562492 0.246505
0.974105 0.556600 0.241102
0.008400 0.705186 0.267124
0.127451 0.700037 0.261311
0.246510 0.694675 0.255602
0.365584 0.689107 0.250004
0.484679 0.683338 0.244524
0.603802 0.677376 0.239167
0.722958 0.671225 0.233938
0.842152 0.664890 0.228844
0.961389 0.658377 0.223888
0.000000 0.809998 0.247995
0.114369 0.804158 0.242559
0.233504 0.798127 0.237248
0.352673 0.791908 0.232068
0.471882 0.785508 0.227023
0.591135 0.778932 0.222119
0.710437 0.772182 0.217360
0.829792 0.765263 0.212748
0.949202 0.758179 0.208289
0.000000 0.912568 0.230215
0.101618 0.906103 0.225222
0.220888 0.899463 0.220369
0.340209 0.892651 0.215663
0.459583 0.885671 0.211107
0.579015 0.878528 0.206703
0.698507 0.871223 0.202457
0.818064 0.863761 0.198369
0.937686 0.856144 0.194445
0.056727 0.000000 0.495848
0.183073 0.000863 0.495429
0.307230 0.004994 0.492915
0.430109 0.007626 0.489221
0.552123 0.009170 0.484756
0.673503 0.009859 0.479753
0.794398 0.009843 0.474362
0.914914 0.009225 0.468687
1.000000 0.008081 0.462803
0.060941 0.131268 0.487670
0.182702 0.132479 0.482987
0.303891 0.132897 0.477829
0.424639 0.132652 0.472325
0.545036 0.131834 0.466566
0.665151 0.130514 0.460621
0.785038 0.128744 0.454544
0.904737 0.126565 0.448375
1.000000 0.124012 0.442150
0.054833 0.255385 0.470254
0.175120 0.254378 0.464420
0.295147 0.252888 0.458422
0.414961 0.250965 0.452307
0.534602 0.248646 0.446114
0.654100 0.245964 0.439875
0.773482 0.242944 0.433616
0.892772 0.239610 0.427359
1.000000 0.235979 0.421124
0.044861 0.373133 0.450059
0.164447 0.370679 0.443846
0.283900 0.367871 0.437597
0.403246 0.364734 0.431336
0.522506 0.361290 0.425085
0.641698 0.357556 0.418862
0.760837 0.353548 0.412682
0.879937 0.349280 0.406559
0.999011 0.344763 0.400505
0.032999 0.486484 0.429059
0.152232 0.482932 0.422816
0.271403 0.479097 0.416607
0.390526 0.474993 0.410446
0.509615 0.470632 0.404346
0.628682 0.466028 0.398320
0.747735 0.461189 0.392377
0.866785 0.456126 0.386526
0.985840 0.450846 0.380776
0.020211 0.596403 0.408217
0.139291 0.591953 0.402143
0.258351 0.587262 0.396146
0.377402 0.582340 0.390236
0.496453 0.577197 0.384421
0.615512 0.571840 0.378709
0.734585 0.566276 0.373109
0.853680 0.560513 0.367625
0.972802 0.554555 0.362265
0.007069 0.703462 0.388107
0.126122 0.698240 0.382329
0.245185 0.692807 0.376657
0.364266 0.687170 0.371098
0.483370 0.681335 0.365659
0.602503 0.675308 0.360345
0.721672 0.669094 0.355162
0.840880 0.662698 0.350114
0.960132 0.656126 0.345206
0.000000 0.808037 0.369104
0.113063 0.802131 0.363710
0.232209 0.796035 0.358443
0.351391 0.789755 0.353308
0.470615 0.783295 0.348311
0.589884 0.776658 0.343455
0.709204 0.769851 0.338745
0.828577 0.762875 0.334185
0.948007 0.755736 0.329778
0.000000 0.910392 0.351473
0.100356 0.903867 0.346526
0.219644 0.897168 0.341723
0.338982 0.890299 0.337068
0.458375 0.883264 0.332563
0.577827 0.876065 0.328212
0.697341 0.868707 0.324019
0.816920 0.861192 0.319987
0.936566 0.853523 0.316118
0.058225 0.000000 0.619015
0.183659 0.002473 0.617715
0.307317 0.006030 0.614736
0.429868 0.008258 0.610746
0.551645 0.009491 0.606077
0.672847 0.009926 0.600929
0.793604 0.009696 0.595431
0.914008 0.008892 0.589678
1.000000 0.007583 0.583737
0.060605 0.131778 0.609112
0.182154 0.132703 0.604250
0.303181 0.132883 0.598962
0.423801 0.132434 0.593362
0.544095 0.131440 0.587534
0.664128 0.129961 0.581539
0.783947 0.128048 0.575426
0.903591 0.125738 0.569235
1.000000 0.123065 0.562996
0.053955 0.255101 0.591263
0.174148 0.253923 0.585368
0.294097 0.252281 0.579325
0.413849 0.250220 0.573179
0.533437 0.247774 0.566967
0.652894 0.244975 0.560719
0.772242 0.241846 0.554458
0.891504 0.238409 0.548207
1.000000 0.234682 0.541983
0.043729 0.372341 0.570924
0.163266 0.369763 0.564695
0.282681 0.366841 0.558440
0.401996 0.363598 0.552180
0.521230 0.360054 0.545937
0.640403 0.356225 0.539727
0.759527 0.352127 0.533564
0.878617 0.347773 0.527464
0.997684 0.343175 0.521435
0.031738 0.485310 0.549904
0.150948 0.481661 0.543671
0.270102 0.477732 0.537477
0.389212 0.473540 0.531336
0.508292 0.469096 0.525260
0.627353 0.464411 0.519261
0.746404 0.459495 0.513348
0.865455 0.454357 0.507531
0.984513 0.449005 0.501817
0.018893 0.594919 0.529115
0.137965 0.590386 0.523066
0.257021 0.585616 0.517098
0.376071 0.580618 0.511219
0.495124 0.575402 0.505438
0.614187 0.569974 0.499763
0.733267 0.564341 0.494202
0.852370 0.558511 0.488759
0.971503 0.552488 0.483442
0.005739 0.701713 0.509102
0.124794 0.696418 0.503359
0.243862 0.690915 0.497725
0.362950 0.685210 0.492206
0.482064 0.679309 0.486809
0.601208 0.673218 0.481539
0.720390 0.666942 0.476401
0.839612 0.660486 0.471400
0.958881 0.653854 0.466541
0.000000 0.806053 0.490227
0.111761 0.800082 0.484875
0.230919 0.793923 0.479653
0.350115 0.787581 0.474564
0.469353 0.781060 0.469614
0.588639 0.774366 0.464808
0.707976 0.767500 0.460148
0.827368 0.760469 0.455640
0.946819 0.753274 0.451286
0.000000 0.908196 0.472746
0.099101 0.901612 0.467848
0.218405 0.894854 0.463094
0.337761 0.887928 0.458489
0.457174 0.880837 0.454037
0.576647 0.873584 0.449739
0.696182 0.866172 0.445600
0.815784 0.858605 0.441623
0.935453 0.850884 0.437811
0.059332 0.000000 0.741802
0.184047 0.003860 0.739816
0.307278 0.006915 0.736442
0.429538 0.008776 0.732193
0.551102 0.009721 0.727344
0.672140 0.009918 0.722064
0.792769 0.009483 0.716471
0.913070 0.008501 0.710647
1.000000 0.007034 0.704656
0.060191 0.132185 0.730487
0.181547 0.132841 0.725464
0.302425 0.132796 0.720060
0.422926 0.132154 0.714374
0.543125 0.130989 0.708483
0.663080 0.129358 0.702443
0.782836 0.127306 0.696299
0.902428 0.124870 0.690089
1.000000 0.122078 0.683841
0.053043 0.254756 0.712250
0.173147 0.253415 0.706298
0.293025 0.251626 0.700216
0.412717 0.249431 0.694044
0.532258 0.246862 0.687817
0.651675 0.243948 0.681562
0.770992 0.240712 0.675302
0.890229 0.237175 0.669058
1.000000 0.233353 0.662847
0.042579 0.371506 0.691782
0.162072 0.368808 0.685541
0.281450 0.365775 0.679282
0.400736 0.362427 0.673026
0.519947 0.358785 0.666792
0.639102 0.354863 0.660597
0.758213 0.350677 0.654454
0.877294 0.346238 0.648376
0.996355 0.341559 0.642375
0.030469 0.484103 0.670753
0.149658 0.480357 0.664531
0.268796 0.476338 0.658353
0.387894 0.472058 0.652233
0.506967 0.467531 0.646182
0.626023 0.462767 0.640211
0.745073 0.457774 0.634330
0.864126 0.452563 0.628547
0.983188 0.447140 0.622870
0.017572 0.593407 0.650022
0.136637 0.588792 0.643999
0.255691 0.583944 0.638059
0.374741 0.578871 0.632213
0.493796 0.573581 0.626467
0.612864 0.568083 0.620830
0.731951 0.562383 0.615308
0.851064 0.556487 0.609908
0.970208 0.550401 0.604635
0.004409 0.699939 0.630109
0.123468 0.694572 0.624402
0.242542 0.689000 0.618806
0.361638 0.683228 0.613328
0.480761 0.677262 0.607973
0.599918 0.671107 0.602747
0.719113 0.664770 0.597656
0.838350 0.658253 0.592703
0.957635 0.651563 0.587892
0.000000 0.804047 0.611364
0.110463 0.798011 0.606055
0.229633 0.791790 0.600878
0.348843 0.785386 0.595836
0.468097 0.778806 0.590935
0.587400 0.772053 0.586178
0.706755 0.765131 0.581569
0.826167 0.758044 0.577112
0.945638 0.750794 0.572811
0.000000 0.905980 0.594035
0.097850 0.899336 0.589186
0.217172 0.892521 0.584482
0.336547 0.885538 0.579929
0.455980 0.878392 0.575528
0.575474 0.871084 0.571284
0.695031 0.863619 0.567200
0.814655 0.856000 0.563279
0.934349 0.848228 0.559523
0.060143 0.000959 0.864303
0.184269 0.005055 0.861761
0.307130 0.007664 0.858049
0.429129 0.009190 0.853572
0.550499 0.009865 0.848561
0.671387 0.009836 0.843164
0.791896 0.009208 0.837484
0.912102 0.008055 0.831597
1.000000 0.006434 0.825561
0.059705 0.132494 0.851801
0.180885 0.132898 0.846635
0.301624 0.132641 0.841125
0.422016 0.131814 0.835362
0.542126 0.130485 0.829414
0.662009 0.128706 0.823335
0.781706 0.126520 0.817165
0.901250 0.123960 0.810938
1.000000 0.121054 0.804683
0.052098 0.254354 0.833215
0.172121 0.252856 0.827214
0.291931 0.250924 0.821097
0.411569 0.248599 0.814903
0.531065 0.245910 0.808663
0.650445 0.242884 0.802404
0.769733 0.239544 0.796148
0.888946 0.235908 0.789913
1.000000 0.231993 0.783716
0.041413 0.370629 0.812635
0.160864 0.367815 0.806385
0.280209 0.364672 0.800125
0.399467 0.361222 0.793874
0.518658 0.357483 0.787652
0.637796 0.353470 0.781473
0.756896 0.349197 0.775351
0.875968 0.344676 0.769298
0.995025 0.339917 0.763325
0.029192 0.482863 0.791605
0.148362 0.479022 0.785396
0.267485 0.474913 0.779237
0.386573 0.470548 0.773139
0.505639 0.465939 0.767114
0.624693 0.461096 0.761172
0.743743 0.456029 0.755323
0.862798 0.450745 0.749575
0.981865 0.445252 0.743936
0.016248 0.591867 0.770936
0.135309 0.587171 0.764940
0.254360 0.582246 0.759032
0.373411 0.577098 0.753219
0.492469 0.571737 0.747509
0.611543 0.566170 0.741911
0.730638 0.560402 0.736429
0.849761 0.554441 0.731071
0.968917 0.548291 0.725842
0.003080 0.698140 0.751128
0.122143 0.692703 0.745458
0.241224 0.687062 0.739901
0.360329 0.681223 0.734464
0.479463 0.675192 0.729153
0.598632 0.668975 0.723972
0.717840 0.662576 0.718927
0.837094 0.656000 0.714022
0.956395 0.649251 0.709261
0.000000 0.802018 0.732516
0.109169 0.795919 0.727251
0.228352 0.789635 0.722119
0.347576 0.783171 0.717124
0.466846 0.776532 0.712271
0.586167 0.769721 0.707564
0.705541 0.762742 0.703007
0.824972 0.755600 0.698603
0.944464 0.748296 0.694355
0.000000 0.903743 0.715341
0.096606 0.897041 0.710541
0.215945 0.890168 0.705888
0.335340 0.883130 0.701386
0.454793 0.875928 0.697038
0.574308 0.868567 0.692848
0.693888 0.861049 0.688819
0.813535 0.853377 0.684953
0.933253 0.845554 0.681254
0.060716 0.002555 0.986578
0.184349 0.006082 0.983575
0.306883 0.008290 0.979569
0.428648 0.009506 0.974890
0.549840 0.009928 0.969734
0.670590 0.009686 0.964232
0.790989 0.008872 0.958474
0.911105 0.007554 0.952530
1.000000 0.005786 0.946453
0.059154 0.132712 0.973061
0.180172 0.132880 0.967766
0.300784 0.132420 0.962161
0.421074 0.131416 0.956329
0.541102 0.129929 0.950331
0.660917 0.128008 0.944216
0.780558 0.125691 0.938024
0.900057 0.123011 0.931785
1.000000 0.119993 0.925526
0.051124 0.253897 0.954161
0.171070 0.252246 0.948116
0.290818 0.250177 0.941969
0.410404 0.247725 0.935756
0.529858 0.244919 0.929507
0.649205 0.241784 0.923247
0.768465 0.238342 0.916996
0.887657 0.234609 0.910772
1.000000 0.230603 0.904592
0.040232 0.369712 0.933484
0.159644 0.366783 0.927228
0.278957 0.363534 0.920969
0.398191 0.359984 0.914726
0.517362 0.356150 0.908516
0.636486 0.352048 0.902355
0.755575 0.347689 0.896256
0.874641 0.343086 0.890229
0.993695 0.338249 0.884285
0.027908 0.481589 0.912461
0.147061 0.477656 0.906267
0.266170 0.473459 0.900127
0.385250 0.469010 0.894053
0.504311 0.464320 0.888055
0.623362 0.459400 0.882144
0.742413 0.454258 0.876328
0.861471 0.448902 0.870616
0.980545 0.443340 0.865015
0.014923 0.590298 0.891860
0.133979 0.585524 0.885892
0.253029 0.580522 0.880015
0.372082 0.575301 0.874236
0.491145 0.569869 0.868564
0.610225 0.564233 0.863004
0.729329 0.558399 0.857564
0.848462 0.552373 0.852250
0.967630 0.546161 0.847066
0.001752 0.696317 0.872159
0.120820 0.690810 0.866526
0.239909 0.685101 0.861010
0.359023 0.679196 0.855615
0.478168 0.673102 0.850347
0.597350 0.666822 0.845212
0.716573 0.660363 0.840214
0.835843 0.653728 0.835357
0.955162 0.646921 0.830647
0.000000 0.799968 0.853682
0.107879 0.793805 0.848462
0.227075 0.787460 0.843376
0.346315 0.780936 0.838429
0.465602 0.774238 0.833625
0.584940 0.767370 0.828969
0.704333 0.760335 0.824463
0.823785 0.753137 0.820111
0.943298 0.745780 0.815918
0.000000 0.901486 0.836663
0.095367 0.894726 0.831913
0.214725 0.887796 0.827310
0.334139 0.880702 0.822861
0.453613 0.873446 0.818566
0.573150 0.866031 0.814430
0.692752 0.858461 0.810456
0.812423 0.850737 0.806647
0.932165 0.842864 0.803004
0.061095 0.003931 1.000000
0.184304 0.006959 1.000000
0.306549 0.008802 1.000000
0.428102 0.009731 1.000000
0.549131 0.009915 1.000000
0.669752 0.009470 1.000000
0.790049 0.008478 1.000000
0.910083 0.007002 1.000000
1.000000 0.005091 1.000000
0.058543 0.132846 1.000000
0.179413 0.132790 1.000000
0.299907 0.132137 1.000000
0.420102 0.130963 1.000000
0.540052 0.129323 1.000000
0.659805 0.127264 1.000000
0.779394 0.124820 1.000000
0.898851 0.122023 1.000000
1.000000 0.118896 1.000000
0.050122 0.253386 1.000000
0.169996 0.251589 1.000000
0.289685 0.249386 1.000000
0.409224 0.246810 1.000000
0.528639 0.243890 1.000000
0.647954 0.240649 1.000000
0.767189 0.237106 1.000000
0.886362 0.233279 1.000000
1.000000 0.229182 1.000000
0.039037 0.368754 1.000000
0.158413 0.365715 1.000000
0.277697 0.362361 1.000000
0.396907 0.358713 1.000000
0.516061 0.354787 1.000000
0.635171 0.350596 1.000000
0.754252 0.346153 1.000000
0.873313 0.341469 1.000000
0.992364 0.336554 1.000000
0.026618 0.480284 1.000000
0.145754 0.476259 1.000000
0.264852 0.471975 1.000000
0.383924 0.467444 1.000000
0.502981 0.462675 1.000000
0.622031 0.457678 1.000000
0.741084 0.452463 0.997345
0.860146 0.447036 0.991670
0.979226 0.441405 0.986108
0.013595 0.588703 1.000000
0.132648 0.583850 1.000000
0.251698 0.578773 1.000000
0.370754 0.573480 0.995266
0.489822 0.567978 0.989632
0.608910 0.562274 0.984112
0.728023 0.556374 0.978714
0.847167 0.550284 0.973443
0.966348 0.544009 0.968304
0.000426 0.694469 0.993202
0.119500 0.688893 0.987608
0.238596 0.683117 0.982132
0.357720 0.677148 0.976780
0.476878 0.670990 0.971557
0.596073 0.664649 0.966467
0.715312 0.658129 0.961517
0.834597 0.651435 0.956710
0.953934 0.644571 0.952049
0.000000 0.797896 0.974863
0.106593 0.791671 0.969688
0.225804 0.785264 0.964649
0.345059 0.778681 0.959750
0.464363 0.771924 0.954996
0.583719 0.764999 0.950390
0.703132 0.757909 0.945936
0.822604 0.750657 0.941638
0.942139 0.743246 0.937498
0.000000 0.899209 0.958002
0.094135 0.892391 0.953302
0.213512 0.885406 0.948751
0.332946 0.878256 0.944353
0.452440 0.870945 0.940112
0.571999 0.863477 0.936031
0.691624 0.855855 0.932113
0.811319 0.848080 0.928360
0.931086 0.840156 0.924774
