asset_packs/oak_multistem_sunset/mood/grade_33.cube
TITLE "oak_multistem_sunset mood grade"
# Generated by construction_code_v2/gen_asset_packs.py. Domain: display-referred sRGB in, sRGB out.
LUT_3D_SIZE 5
DOMAIN_MIN 0.0 0.0 0.0
DOMAIN_MAX 1.0 1.0 1.0
0.050550 0.009423 0.000000
0.345097 0.000000 0.000000
0.638044 0.000000 0.000000
0.931071 0.000000 0.000000
1.000000 0.000000 0.000000
0.000000 0.266437 0.000000
0.280223 0.247709 0.000000
0.574490 0.228503 0.000000
0.869457 0.208897 0.000000
1.000000 0.188944 0.000000
0.000000 0.514171 0.000000
0.221763 0.494102 0.000000
0.518570 0.473738 0.000000
0.816206 0.453104 0.000000
1.000000 0.432221 0.000000
0.000000 0.758029 0.000000
0.172305 0.737060 0.000000
0.471978 0.715864 0.000000
0.772536 0.694455 0.000000
1.000000 0.672844 0.000000
0.000000 0.999110 0.000000
0.132694 0.977428 0.000000
0.435388 0.955555 0.000000
0.738998 0.933501 0.000000
1.000000 0.911271 0.000000
0.045056 0.005350 0.277062
0.338486 0.000000 0.264069
0.631398 0.000000 0.247246
0.924544 0.000000 0.227346
1.000000 0.000000 0.204623
0.000000 0.260137 0.219392
0.273957 0.241236 0.195676
0.568455 0.221886 0.169301
0.863672 0.202157 0.140335
1.000000 0.182097 0.108825
0.000000 0.507390 0.129156
0.216342 0.487218 0.096729
0.513428 0.466760 0.061804
0.811350 0.446039 0.024405
1.000000 0.425076 0.000000
0.000000 0.750934 0.010179
0.167850 0.729887 0.000000
0.467822 0.708617 0.000000
0.768684 0.687138 0.000000
1.000000 0.665460 0.000000
0.000000 0.991769 0.000000
0.129262 0.970021 0.000000
0.432265 0.948086 0.000000
0.736188 0.925971 0.000000
1.000000 0.903683 0.000000
0.038752 0.000341 0.585693
0.331834 0.000000 0.571227
0.624783 0.000000 0.553316
0.918074 0.000000 0.532438
1.000000 0.000000 0.508788
0.000000 0.253774 0.524142
0.267766 0.234711 0.499513
0.562502 0.215226 0.472252
0.857975 0.195380 0.442417
1.000000 0.175215 0.410052
0.000000 0.500574 0.430926
0.211015 0.480301 0.397647
0.508382 0.459751 0.361880
0.806594 0.438946 0.323645
1.000000 0.417904 0.282962
0.000000 0.743812 0.309117
0.163497 0.722688 0.267546
0.463770 0.701346 0.223546
0.764936 0.679798 0.177128
1.000000 0.658055 0.128303
0.000000 0.984404 0.159631
0.125934 0.962592 0.109931
0.429249 0.940595 0.057835
0.733486 0.918421 0.003350
1.000000 0.896076 0.000000
0.032233 0.000000 0.893727
0.325175 0.000000 0.877996
0.618208 0.000000 0.859046
0.911667 0.000000 0.837210
1.000000 0.000000 0.812647
0.000000 0.247352 0.828578
0.261654 0.228137 0.803047
0.556635 0.208524 0.774906
0.852369 0.188566 0.744208
1.000000 0.168301 0.710991
0.000000 0.493722 0.732405
0.205782 0.473352 0.698278
0.503434 0.452713 0.661671
0.801937 0.431826 0.622603
1.000000 0.410707 0.581092
0.000000 0.736663 0.607772
0.159245 0.715464 0.565375
0.459820 0.694051 0.520553
0.761292 0.672436 0.473316
1.000000 0.650628 0.423675
0.000000 0.977018 0.455522
0.122712 0.955142 0.405007
0.426339 0.933084 0.352099
0.730891 0.910851 0.296804
1.000000 0.888449 0.239129
0.025618 0.000000 1.000000
0.318531 0.000000 1.000000
0.611684 0.000000 1.000000
0.905328 0.000000 1.000000
1.000000 0.000000 1.000000
0.000000 0.240875 1.000000
0.255623 0.221518 1.000000
0.550854 0.201783 1.000000
0.846854 0.181717 1.000000
1.000000 0.161354 1.000000
0.000000 0.486836 1.000000
0.200646 0.466372 0.998623
0.498584 0.445647 0.961178
0.797380 0.424679 0.921279
1.000000 0.403485 0.878941
0.000000 0.729488 0.906147
0.155095 0.708215 0.862924
0.455974 0.686732 0.817281
0.757752 0.665051 0.769227
1.000000 0.643179 0.718771
0.000000 0.969610 0.751136
0.119595 0.947671 0.699808
0.423536 0.925553 0.646088
0.728403 0.903262 0.589984
1.000000 0.880804 0.531501
