asset_packs/oak_multistem_sunset/mood/grade_33.cube
TITLE "oak_multistem_sunset mood grade"
# Generated by construction_code_v2/gen_asset_packs.py. Domain: display-referred sRGB in, sRGB out.
LUT_3D_SIZE 9
DOMAIN_MIN 0.0 0.0 0.0
DOMAIN_MAX 1.0 1.0 1.0
0.050550 0.009423 0.000000
0.198369 0.003040 0.000000
0.345097 0.000000 0.000000
0.491597 0.000000 0.000000
0.638044 0.000000 0.000000
0.784519 0.000000 0.000000
0.931071 0.000000 0.000000
1.000000 0.000000 0.000000
1.000000 0.000000 0.000000
0.019279 0.140201 0.000000
0.165729 0.131525 0.000000
0.312228 0.122623 0.000000
0.458816 0.113536 0.000000
0.605520 0.104291 0.000000
0.752362 0.094907 0.000000
0.899354 0.085400 0.000000
1.000000 0.075781 0.000000
1.000000 0.066059 0.000000
0.000000 0.266437 0.000000
0.133328 0.257139 0.000000
0.280223 0.247709 0.000000
0.427273 0.238160 0.000000
0.574490 0.228503 0.000000
0.721883 0.218746 0.000000
0.869457 0.208897 0.000000
1.000000 0.198961 0.000000
1.000000 0.188944 0.000000
0.000000 0.390906 0.000000
0.102495 0.381212 0.000000
0.249953 0.371420 0.000000
0.397595 0.361539 0.000000
0.545428 0.351574 0.000000
0.693457 0.341528 0.000000
0.841684 0.331408 0.000000
0.990115 0.321216 0.000000
1.000000 0.310955 0.000000
0.000000 0.514171 0.000000
0.073662 0.504175 0.000000
0.221763 0.494102 0.000000
0.370064 0.483956 0.000000
0.518570 0.473738 0.000000
0.667283 0.463453 0.000000
0.816206 0.453104 0.000000
0.965342 0.442693 0.000000
1.000000 0.432221 0.000000
0.000000 0.636494 0.000000
0.047052 0.626251 0.000000
0.195841 0.615943 0.000000
0.344841 0.605571 0.000000
0.494055 0.595137 0.000000
0.643484 0.584644 0.000000
0.793131 0.574094 0.000000
0.942997 0.563489 0.000000
1.000000 0.552830 0.000000
0.000000 0.758029 0.000000
0.022797 0.747574 0.000000
0.172305 0.737060 0.000000
0.322031 0.726490 0.000000
0.471978 0.715864 0.000000
0.622145 0.705186 0.000000
0.772536 0.694455 0.000000
0.923151 0.683674 0.000000
1.000000 0.672844 0.000000
0.000000 0.878878 0.000000
0.000988 0.868233 0.000000
0.151236 0.857535 0.000000
0.301708 0.846786 0.000000
0.452405 0.835987 0.000000
0.603328 0.825139 0.000000
0.754477 0.814243 0.000000
0.905855 0.803301 0.000000
1.000000 0.792312 0.000000
0.000000 0.999110 0.000000
0.000000 0.988293 0.000000
0.132694 0.977428 0.000000
0.283927 0.966515 0.000000
0.435388 0.955555 0.000000
0.587078 0.944550 0.000000
0.738998 0.933501 0.000000
0.891149 0.922408 0.000000
1.000000 0.911271 0.000000
0.048026 0.007626 0.122422
0.195180 0.000485 0.117059
0.341799 0.000000 0.110334
0.488269 0.000000 0.102630
0.634718 0.000000 0.094080
0.781215 0.000000 0.084749
0.927801 0.000000 0.074679
1.000000 0.000000 0.063897
1.000000 0.000000 0.052424
0.015949 0.137283 0.099611
0.162409 0.128525 0.090771
0.308935 0.119556 0.081167
0.455560 0.110413 0.070835
0.602309 0.101119 0.059799
0.749200 0.091691 0.048078
0.896246 0.082145 0.035684
1.000000 0.072490 0.022629
1.000000 0.062736 0.008922
0.000000 0.263296 0.066898
0.130135 0.253951 0.055611
0.277081 0.244479 0.043643
0.424187 0.234892 0.031007
0.571462 0.225200 0.017714
0.718916 0.215411 0.003770
0.866554 0.205532 0.000000
1.000000 0.195568 0.000000
1.000000 0.185525 0.000000
0.000000 0.387625 0.026243
0.099489 0.377897 0.012712
0.247009 0.368075 0.000000
0.394715 0.358164 0.000000
0.542614 0.348171 0.000000
0.690710 0.338100 0.000000
0.839006 0.327955 0.000000
0.987507 0.317739 0.000000
1.000000 0.307456 0.000000
0.000000 0.510785 0.000000
0.070873 0.500763 0.000000
0.219041 0.490665 0.000000
0.367411 0.480493 0.000000
0.515987 0.470253 0.000000
0.664771 0.459946 0.000000
0.813766 0.449575 0.000000
0.962974 0.439143 0.000000
1.000000 0.428652 0.000000
0.000000 0.633023 0.000000
0.044494 0.622758 0.000000
0.193355 0.612427 0.000000
0.342427 0.602034 0.000000
0.491714 0.591580 0.000000
0.641217 0.581068 0.000000
0.790938 0.570499 0.000000
0.940879 0.559875 0.000000
1.000000 0.549198 0.000000
0.000000 0.754485 0.000000
0.020483 0.744010 0.000000
0.170065 0.733477 0.000000
0.319866 0.722887 0.000000
0.469887 0.712244 0.000000
0.620130 0.701548 0.000000
0.770597 0.690800 0.000000
0.921288 0.680002 0.000000
1.000000 0.669155 0.000000
0.000000 0.875269 0.000000
0.000000 0.864606 0.000000
0.149249 0.853891 0.000000
0.299797 0.843124 0.000000
0.450570 0.832309 0.000000
0.601570 0.821444 0.000000
0.752797 0.810532 0.000000
0.904252 0.799574 0.000000
1.000000 0.788570 0.000000
0.000000 0.995442 0.000000
0.000000 0.984609 0.000000
0.130965 0.973727 0.000000
0.282275 0.962798 0.000000
0.433813 0.951823 0.000000
0.585581 0.940803 0.000000
0.737580 0.929738 0.000000
0.889809 0.918630 0.000000
1.000000 0.907480 0.000000
0.045056 0.005350 0.277062
0.191940 0.000000 0.271148
0.338486 0.000000 0.264069
0.484938 0.000000 0.256067
0.631398 0.000000 0.247246
0.777922 0.000000 0.237660
0.924544 0.000000 0.227346
1.000000 0.000000 0.216327
1.000000 0.000000 0.204623
0.012620 0.134335 0.252947
0.159098 0.125501 0.243843
0.305654 0.116469 0.233988
0.452318 0.107272 0.223415
0.599114 0.097931 0.212145
0.746056 0.088462 0.200194
0.893158 0.078878 0.187574
1.000000 0.069188 0.174297
1.000000 0.059402 0.160369
0.000000 0.260137 0.219392
0.126958 0.250748 0.207872
0.273957 0.241236 0.195676
0.421119 0.231612 0.182816
0.568455 0.221886 0.169301
0.715970 0.212066 0.155139
0.863672 0.202157 0.140335
1.000000 0.192166 0.124896
1.000000 0.182097 0.108825
0.000000 0.384333 0.177971
0.096503 0.374572 0.164220
0.244086 0.364718 0.149823
0.391858 0.354779 0.134787
0.539823 0.344759 0.119118
0.687986 0.334662 0.102819
0.836351 0.324493 0.085894
0.984922 0.314254 0.068347
1.000000 0.303949 0.050180
0.000000 0.507390 0.129156
0.068105 0.497342 0.113257
0.216342 0.487218 0.096729
0.364782 0.477023 0.079577
0.513428 0.466760 0.061804
0.662283 0.456431 0.043413
0.811350 0.446039 0.024405
0.960632 0.435587 0.004784
1.000000 0.425076 0.000000
0.000000 0.629544 0.073179
0.041961 0.619257 0.055180
0.190894 0.608905 0.036564
0.340039 0.598491 0.017333
0.489398 0.588017 0.000000
0.638975 0.577485 0.000000
0.788771 0.566897 0.000000
0.938787 0.556255 0.000000
1.000000 0.545560 0.000000
0.000000 0.750934 0.010179
0.018194 0.740439 0.000000
0.167850 0.729887 0.000000
0.317726 0.719279 0.000000
0.467822 0.708617 0.000000
0.618141 0.697903 0.000000
0.768684 0.687138 0.000000
0.919452 0.676324 0.000000
1.000000 0.665460 0.000000
0.000000 0.871653 0.000000
0.000000 0.860973 0.000000
0.147287 0.850240 0.000000
0.297912 0.839457 0.000000
0.448762 0.828624 0.000000
0.599839 0.817744 0.000000
0.751143 0.806816 0.000000
0.902676 0.795842 0.000000
1.000000 0.784823 0.000000
0.000000 0.991769 0.000000
0.000000 0.980919 0.000000
0.129262 0.970021 0.000000
0.280649 0.959076 0.000000
0.432265 0.948086 0.000000
0.584112 0.937050 0.000000
0.736188 0.925971 0.000000
0.888497 0.914848 0.000000
1.000000 0.903683 0.000000
0.041944 0.002901 0.431466
0.188665 0.000000 0.425107
0.335163 0.000000 0.417698
0.481609 0.000000 0.409410
0.628086 0.000000 0.400324
0.774640 0.000000 0.390488
0.921301 0.000000 0.379932
1.000000 0.000000 0.368679
1.000000 0.000000 0.356744
0.009295 0.131359 0.406192
0.155795 0.122454 0.396828
0.302385 0.113363 0.386727
0.449092 0.104115 0.375915
0.595936 0.094729 0.364412
0.742931 0.085220 0.352232
0.890090 0.075599 0.339389
1.000000 0.065875 0.325889
1.000000 0.056057 0.311743
0.000000 0.256963 0.371806
0.123798 0.247531 0.360055
0.270852 0.237979 0.347633
0.418072 0.228320 0.334550
0.565468 0.218561 0.320814
0.713046 0.208711 0.306433
0.860813 0.198773 0.291413
1.000000 0.188755 0.275759
1.000000 0.178660 0.259475
0.000000 0.381028 0.329624
0.093539 0.371235 0.315653
0.241185 0.361352 0.301038
0.389022 0.351385 0.285787
0.537054 0.341339 0.269903
0.685285 0.331217 0.253391
0.833720 0.321023 0.236254
0.982361 0.310762 0.218496
1.000000 0.300434 0.200120
0.000000 0.503987 0.280077
0.065361 0.493912 0.263964
0.213666 0.483764 0.247224
0.362176 0.473545 0.229861
0.510893 0.463259 0.211878
0.659820 0.452909 0.193277
0.808960 0.442496 0.174061
0.958314 0.432024 0.154232
1.000000 0.421493 0.133792
0.000000 0.626058 0.223386
0.039452 0.615748 0.205177
0.188457 0.605375 0.186352
0.337674 0.594940 0.166913
0.487108 0.584446 0.146861
0.636759 0.573895 0.126200
0.786629 0.563289 0.104929
0.936720 0.552629 0.083053
1.000000 0.541916 0.060570
0.000000 0.747377 0.159683
0.015930 0.736862 0.139410
0.165661 0.726290 0.118526
0.315611 0.715664 0.097035
0.465783 0.704985 0.074938
0.616178 0.694253 0.052235
0.766797 0.683471 0.028930
0.917641 0.672640 0.005022
1.000000 0.661760 0.000000
0.000000 0.868032 0.089060
0.000000 0.857334 0.066743
0.145352 0.846584 0.043821
0.296053 0.835783 0.020295
0.446980 0.824935 0.000000
0.598133 0.814038 0.000000
0.749515 0.803094 0.000000
0.901126 0.792105 0.000000
1.000000 0.781071 0.000000
0.000000 0.988089 0.011581
0.000000 0.977223 0.000000
0.127585 0.966309 0.000000
0.279050 0.955349 0.000000
0.430744 0.944343 0.000000
0.582668 0.933293 0.000000
0.734824 0.922198 0.000000
0.887211 0.911061 0.000000
1.000000 0.899882 0.000000
0.038752 0.000341 0.585693
0.185366 0.000000 0.578947
0.331834 0.000000 0.571227
0.478284 0.000000 0.562661
0.624783 0.000000 0.553316
0.771370 0.000000 0.543233
0.918074 0.000000 0.532438
1.000000 0.000000 0.520951
1.000000 0.000000 0.508788
0.005976 0.128358 0.559347
0.152503 0.119386 0.549729
0.299130 0.110239 0.539384
0.445882 0.100942 0.528335
0.592775 0.091513 0.516601
0.739825 0.081964 0.504195
0.887041 0.072308 0.491127
1.000000 0.062551 0.477407
1.000000 0.052703 0.463042
0.000000 0.253774 0.524142
0.120657 0.244300 0.512161
0.267766 0.234711 0.499513
0.415045 0.225017 0.486208
0.562502 0.215226 0.472252
0.710144 0.205345 0.457653
0.857975 0.195380 0.442417
1.000000 0.185335 0.426549
1.000000 0.175215 0.410052
0.000000 0.377713 0.481202
0.090596 0.367889 0.467011
0.238307 0.357977 0.452180
0.386209 0.347982 0.436713
0.534308 0.337910 0.420616
0.682608 0.327763 0.403891
0.831113 0.317546 0.386543
0.979825 0.307262 0.368575
1.000000 0.296913 0.349989
0.000000 0.500574 0.430926
0.062641 0.490474 0.414599
0.211015 0.480301 0.397647
0.359594 0.470059 0.380073
0.508382 0.459751 0.361880
0.657381 0.449379 0.343070
0.806594 0.438946 0.323645
0.956022 0.428454 0.303609
1.000000 0.417904 0.282962
0.000000 0.622564 0.373521
0.036968 0.612233 0.355103
0.186044 0.601838 0.336069
0.335335 0.591383 0.316422
0.484842 0.580870 0.296163
0.634567 0.570300 0.275294
0.784513 0.559675 0.253818
0.934679 0.548996 0.231735
1.000000 0.538266 0.209048
0.000000 0.743812 0.309117
0.013691 0.733278 0.288636
0.163497 0.722688 0.267546
0.313522 0.712043 0.245849
0.463770 0.701346 0.223546
0.614240 0.690597 0.200638
0.764936 0.679798 0.177128
0.915857 0.668950 0.153016
1.000000 0.658055 0.128303
0.000000 0.864405 0.237799
0.000000 0.853688 0.215276
0.143442 0.842921 0.192149
0.294220 0.832105 0.168419
0.445223 0.821239 0.144088
0.596455 0.810327 0.119157
0.747914 0.799367 0.093626
0.899603 0.788363 0.067496
1.000000 0.777313 0.040769
0.000000 0.984404 0.159631
0.000000 0.973522 0.135081
0.125934 0.962592 0.109931
0.277477 0.951616 0.084182
0.429249 0.940595 0.057835
0.581252 0.929530 0.030891
0.733486 0.918421 0.003350
0.885952 0.907269 0.000000
1.000000 0.896076 0.000000
0.035509 0.000000 0.739775
0.182052 0.000000 0.732676
0.328504 0.000000 0.724659
0.474965 0.000000 0.715823
0.621490 0.000000 0.706223
0.768114 0.000000 0.695895
0.914862 0.000000 0.684863
1.000000 0.000000 0.673146
1.000000 0.000000 0.660756
0.002664 0.125332 0.712414
0.149222 0.116298 0.702546
0.295889 0.107098 0.691959
0.442687 0.097754 0.680676
0.589633 0.088283 0.668712
0.736738 0.078696 0.656081
0.884012 0.069005 0.642791
1.000000 0.059217 0.628851
1.000000 0.049338 0.614268
0.000000 0.250570 0.676399
0.117534 0.241056 0.664190
0.264700 0.231430 0.651318
0.412039 0.221702 0.637791
0.559557 0.211880 0.623616
0.707263 0.201970 0.608800
0.855161 0.191978 0.593349
1.000000 0.181907 0.577267
1.000000 0.171762 0.560558
0.000000 0.374387 0.632705
0.087675 0.364532 0.618296
0.235450 0.354592 0.603248
0.383419 0.344570 0.587567
0.531586 0.334472 0.571256
0.679955 0.324301 0.554319
0.828529 0.314061 0.536760
0.977312 0.303754 0.518582
1.000000 0.293384 0.499787
0.000000 0.497152 0.581701
0.059943 0.487027 0.565162
0.208387 0.476831 0.547999
0.357037 0.466566 0.530214
0.505896 0.456236 0.511811
0.654967 0.445843 0.492792
0.804253 0.435389 0.473159
0.953755 0.424877 0.452915
1.000000 0.414309 0.432062
0.000000 0.619063 0.523585
0.034508 0.608709 0.504958
0.183657 0.598294 0.485715
0.333021 0.587819 0.465860
0.482602 0.577286 0.445394
0.632402 0.566697 0.424319
0.782422 0.556054 0.402637
0.932664 0.545358 0.380348
1.000000 0.534611 0.357456
0.000000 0.740241 0.458480
0.011478 0.729688 0.437792
0.161358 0.719079 0.416495
0.311459 0.708416 0.394592
0.461782 0.697701 0.372084
0.612329 0.686935 0.348972
0.763101 0.676120 0.325257
0.914099 0.665256 0.300940
1.000000 0.654344 0.276024
0.000000 0.860771 0.386468
0.000000 0.850038 0.363739
0.141558 0.839253 0.340408
0.292413 0.828420 0.316474
0.443493 0.817538 0.291939
0.594802 0.806610 0.266803
0.746339 0.795635 0.241069
0.898106 0.784615 0.214737
1.000000 0.773551 0.187807
0.000000 0.980714 0.307611
0.000000 0.969815 0.282857
0.124310 0.958870 0.257504
0.275930 0.947878 0.231552
0.427781 0.936842 0.205002
0.579862 0.925762 0.177855
0.732175 0.914639 0.150112
0.884720 0.903473 0.121773
1.000000 0.892265 0.092840
0.032233 0.000000 0.893727
0.178728 0.000000 0.886300
0.325175 0.000000 0.877996
0.471653 0.000000 0.868896
0.618208 0.000000 0.859046
0.764872 0.000000 0.848477
0.911667 0.000000 0.837210
1.000000 0.000000 0.825263
1.000000 0.000000 0.812647
0.000000 0.122284 0.865395
0.145954 0.113191 0.855280
0.292664 0.103940 0.844455
0.439510 0.094551 0.832939
0.586509 0.085040 0.820747
0.733670 0.075417 0.807891
0.881004 0.065691 0.794379
1.000000 0.055872 0.780220
1.000000 0.045964 0.765420
0.000000 0.247352 0.828578
0.114430 0.237799 0.816143
0.261654 0.228137 0.803047
0.409053 0.218377 0.789299
0.556635 0.208524 0.774906
0.704405 0.198586 0.759874
0.852369 0.188566 0.744208
1.000000 0.178470 0.727912
1.000000 0.168301 0.710991
0.000000 0.371050 0.784134
0.084775 0.361166 0.769507
0.232616 0.351197 0.754244
0.380651 0.341149 0.738348
0.528887 0.331026 0.721824
0.677325 0.320831 0.704676
0.825970 0.310568 0.686906
0.974824 0.300239 0.668518
1.000000 0.289848 0.649514
0.000000 0.493722 0.732405
0.057269 0.483572 0.715653
0.205782 0.473352 0.698278
0.354503 0.463065 0.680283
0.503434 0.452713 0.661671
0.652578 0.442300 0.642443
0.801937 0.431826 0.622603
0.951512 0.421295 0.602152
1.000000 0.410707 0.581092
0.000000 0.615554 0.673579
0.032072 0.605179 0.654742
0.181294 0.594743 0.635291
0.330732 0.584248 0.615228
0.480387 0.573696 0.594555
0.630261 0.563089 0.573273
0.780356 0.552428 0.551385
0.930674 0.541714 0.528892
1.000000 0.530949 0.505794
0.000000 0.736663 0.607772
0.009290 0.726091 0.586877
0.159245 0.715464 0.565375
0.309421 0.704783 0.543266
0.459820 0.694051 0.520553
0.610443 0.683268 0.497236
0.761292 0.672436 0.473316
0.912367 0.661555 0.448796
1.000000 0.650628 0.423675
0.000000 0.857132 0.535067
0.000000 0.846381 0.512133
0.139701 0.835580 0.488597
0.290632 0.824730 0.464459
0.441790 0.813832 0.439720
0.593176 0.802888 0.414381
0.744791 0.791898 0.388444
0.896636 0.780863 0.361908
1.000000 0.769784 0.334776
0.000000 0.977018 0.455522
0.000000 0.966103 0.430564
0.122712 0.955142 0.405007
0.274410 0.944135 0.378852
0.426339 0.933084 0.352099
0.578499 0.921989 0.324750
0.730891 0.910851 0.296804
0.883515 0.899671 0.268264
1.000000 0.888449 0.239129
0.028933 0.000000 1.000000
0.175400 0.000000 1.000000
0.321850 0.000000 1.000000
0.468350 0.000000 1.000000
0.614939 0.000000 1.000000
0.761646 0.000000 1.000000
0.908489 0.000000 0.989479
1.000000 0.000000 0.977303
1.000000 0.000000 0.964463
0.000000 0.119215 1.000000
0.142700 0.110066 1.000000
0.289454 0.100766 0.996871
0.436351 0.091334 0.985124
0.583403 0.081784 0.972705
0.730623 0.072125 0.959625
0.878017 0.062367 0.945893
1.000000 0.052516 0.931516
1.000000 0.042580 0.916499
0.000000 0.244120 0.980680
0.111346 0.234529 0.968019
0.258628 0.224833 0.954701
0.406088 0.215041 0.940733
0.553733 0.205158 0.926123
0.701569 0.195192 0.910875
0.849600 0.185146 0.894994
0.997830 0.175024 0.878486
1.000000 0.164831 0.861353
0.000000 0.367703 0.935488
0.081898 0.357789 0.920645
0.229804 0.347793 0.905166
0.377907 0.337719 0.889057
0.526211 0.327571 0.872320
0.674719 0.317353 0.854961
0.823435 0.307068 0.836981
0.972361 0.296717 0.818383
1.000000 0.286305 0.799171
0.000000 0.490283 0.883036
0.054618 0.480109 0.866072
0.203202 0.469866 0.848487
0.351994 0.459557 0.830282
0.500997 0.449184 0.811460
0.650214 0.438749 0.792024
0.799646 0.428256 0.771976
0.949295 0.417705 0.751318
1.000000 0.407099 0.730051
0.000000 0.612038 0.823501
0.029662 0.601642 0.804455
0.178956 0.591186 0.784796
0.328467 0.580671 0.764526
0.478197 0.570100 0.743646
0.628146 0.559474 0.722158
0.778317 0.548795 0.700064
0.928710 0.538064 0.677365
1.000000 0.527282 0.654063
0.000000 0.733079 0.756995
0.007127 0.722488 0.735893
0.157157 0.711842 0.714185
0.307409 0.701144 0.691870
0.457884 0.690394 0.668952
0.608583 0.679595 0.645430
0.759509 0.668746 0.621306
0.910662 0.657849 0.596582
1.000000 0.646906 0.571258
0.000000 0.853486 0.683596
0.000000 0.842718 0.660458
0.137869 0.831901 0.636717
0.288877 0.821034 0.612375
0.440112 0.810121 0.587432
0.591576 0.799161 0.561890
0.743269 0.788155 0.535749
0.895192 0.777105 0.509011
1.000000 0.766011 0.481676
0.000000 0.973317 0.603363
0.000000 0.962386 0.578202
0.121140 0.951409 0.552442
0.272917 0.940387 0.526084
0.424924 0.929321 0.499128
0.577163 0.918212 0.471576
0.729633 0.907059 0.443429
0.882336 0.895865 0.414686
1.000000 0.884629 0.385349
0.025618 0.000000 1.000000
0.172069 0.000000 1.000000
0.318531 0.000000 1.000000
0.465057 0.000000 1.000000
0.611684 0.000000 1.000000
0.758435 0.000000 1.000000
0.905328 0.000000 1.000000
1.000000 0.000000 1.000000
1.000000 0.000000 1.000000
0.000000 0.116126 1.000000
0.139460 0.106923 1.000000
0.286261 0.097577 1.000000
0.433209 0.088104 1.000000
0.580317 0.078515 1.000000
0.727595 0.068822 1.000000
0.875051 0.059032 1.000000
1.000000 0.049151 1.000000
1.000000 0.039187 1.000000
0.000000 0.240875 1.000000
0.108281 0.231248 1.000000
0.255623 0.221518 1.000000
0.403145 0.211695 1.000000
0.550854 0.201783 1.000000
0.698756 0.191789 1.000000
0.846854 0.181717 1.000000
0.995153 0.171570 1.000000
1.000000 0.161354 1.000000
0.000000 0.364346 1.000000
0.079042 0.354404 1.000000
0.227015 0.344381 1.000000
0.375186 0.334281 1.000000
0.523559 0.324109 1.000000
0.672137 0.313867 1.000000
0.820924 0.303560 0.986984
0.969922 0.293188 0.968178
1.000000 0.282755 0.948757
0.000000 0.486836 1.000000
0.051992 0.476638 1.000000
0.200646 0.466372 0.998623
0.349509 0.456041 0.980209
0.498584 0.445647 0.961178
0.647874 0.435192 0.941534
0.797380 0.424679 0.921279
0.947104 0.414109 0.900414
1.000000 0.403485 0.878941
0.000000 0.608514 0.973352
0.027275 0.598098 0.954097
0.176643 0.587621 0.934231
0.326228 0.577088 0.913753
0.476032 0.566498 0.892667
0.626057 0.555853 0.870973
0.776303 0.545156 0.848673
0.926772 0.534408 0.825769
1.000000 0.523609 0.802262
0.000000 0.729488 0.906147
0.004990 0.718879 0.884839
0.155095 0.708215 0.862924
0.305422 0.697499 0.840405
0.455974 0.686732 0.817281
0.606750 0.675916 0.793555
0.757752 0.665051 0.769227
0.908982 0.654138 0.744299
1.000000 0.643179 0.718771
0.000000 0.849835 0.832056
0.000000 0.839050 0.808713
0.136063 0.828216 0.784768
0.287148 0.817333 0.760221
0.438461 0.806404 0.735075
0.590003 0.795428 0.709329
0.741774 0.784407 0.682986
0.893775 0.773342 0.656045
1.000000 0.762234 0.628507
0.000000 0.969610 0.751136
0.000000 0.958663 0.725771
0.119595 0.947671 0.699808
0.271450 0.936634 0.673246
0.423536 0.925553 0.646088
0.575853 0.914429 0.618334
0.728403 0.903262 0.589984
0.881185 0.892054 0.561040
1.000000 0.880804 0.531501
