asset_packs/oak_multistem_sunset/mood/grade_33.cube
TITLE "oak_multistem_sunset mood grade"
# Generated by construction_code_v2/gen_asset_packs.py. Domain: display-referred sRGB in, sRGB out.
LUT_3D_SIZE 33
DOMAIN_MIN 0.0 0.0 0.0
DOMAIN_MAX 1.0 1.0 1.0
0.050550 0.009423 0.000000
0.087831 0.008179 0.000000
0.124773 0.006579 0.000000
0.161603 0.004851 0.000000
0.198369 0.003040 0.000000
0.235090 0.001168 0.000000
0.271780 0.000000 0.000000
0.308447 0.000000 0.000000
0.345097 0.000000 0.000000
0.381734 0.000000 0.000000
0.418361 0.000000 0.000000
0.454981 0.000000 0.000000
0.491597 0.000000 0.000000
0.528210 0.000000 0.000000
0.564821 0.000000 0.000000
0.601432 0.000000 0.000000
0.638044 0.000000 0.000000
0.674658 0.000000 0.000000
0.711274 0.000000 0.000000
0.747895 0.000000 0.000000
0.784519 0.000000 0.000000
0.821149 0.000000 0.000000
0.857783 0.000000 0.000000
0.894424 0.000000 0.000000
0.931071 0.000000 0.000000
0.967725 0.000000 0.000000
1.000000 0.000000 0.000000
1.000000 0.000000 0.000000
1.000000 0.000000 0.000000
1.000000 0.000000 0.000000
1.000000 0.000000 0.000000
1.000000 0.000000 0.000000
1.000000 0.000000 0.000000
0.043586 0.043262 0.000000
0.080333 0.041428 0.000000
0.117042 0.039537 0.000000
0.153723 0.037601 0.000000
0.190383 0.035627 0.000000
0.227028 0.033621 0.000000
0.263661 0.031586 0.000000
0.300285 0.029525 0.000000
0.336904 0.027440 0.000000
0.373518 0.025335 0.000000
0.410130 0.023210 0.000000
0.446741 0.021067 0.000000
0.483352 0.018907 0.000000
0.519965 0.016731 0.000000
0.556579 0.014540 0.000000
0.593197 0.012335 0.000000
0.629819 0.010117 0.000000
0.666445 0.007886 0.000000
0.703077 0.005643 0.000000
0.739713 0.003388 0.000000
0.776356 0.001123 0.000000
0.813006 0.000000 0.000000
0.849662 0.000000 0.000000
0.886326 0.000000 0.000000
0.922997 0.000000 0.000000
0.959676 0.000000 0.000000
0.996364 0.000000 0.000000
1.000000 0.000000 0.000000
1.000000 0.000000 0.000000
1.000000 0.000000 0.000000
1.000000 0.000000 0.000000
1.000000 0.000000 0.000000
1.000000 0.000000 0.000000
0.035663 0.075949 0.000000
0.072317 0.073963 0.000000
0.108957 0.071945 0.000000
0.145586 0.069901 0.000000
0.182208 0.067831 0.000000
0.218825 0.065739 0.000000
0.255438 0.063626 0.000000
0.292050 0.061494 0.000000
0.328661 0.059345 0.000000
0.365272 0.057179 0.000000
0.401886 0.054997 0.000000
0.438502 0.052801 0.000000
0.475121 0.050592 0.000000
0.511744 0.048369 0.000000
0.548372 0.046133 0.000000
0.585005 0.043886 0.000000
0.621644 0.041627 0.000000
0.658290 0.039358 0.000000
0.694942 0.037078 0.000000
0.731601 0.034787 0.000000
0.768267 0.032487 0.000000
0.804941 0.030178 0.000000
0.841623 0.027859 0.000000
0.878314 0.025532 0.000000
0.915013 0.023196 0.000000
0.951721 0.020852 0.000000
0.988438 0.018500 0.000000
1.000000 0.016139 0.000000
1.000000 0.013772 0.000000
1.000000 0.011396 0.000000
1.000000 0.009014 0.000000
1.000000 0.006624 0.000000
1.000000 0.004228 0.000000
0.027511 0.108212 0.000000
0.064131 0.106134 0.000000
0.100746 0.104034 0.000000
0.137359 0.101914 0.000000
0.173970 0.099776 0.000000
0.210581 0.097621 0.000000
0.247193 0.095449 0.000000
0.283807 0.093262 0.000000
0.320424 0.091061 0.000000
0.357045 0.088846 0.000000
0.393670 0.086619 0.000000
0.430300 0.084379 0.000000
0.466935 0.082128 0.000000
0.503576 0.079865 0.000000
0.540224 0.077591 0.000000
0.576878 0.075307 0.000000
0.613540 0.073014 0.000000
0.650209 0.070710 0.000000
0.686886 0.068397 0.000000
0.723571 0.066076 0.000000
0.760265 0.063745 0.000000
0.796967 0.061406 0.000000
0.833679 0.059059 0.000000
0.870399 0.056704 0.000000
0.907129 0.054341 0.000000
0.943869 0.051970 0.000000
0.980618 0.049592 0.000000
1.000000 0.047207 0.000000
1.000000 0.044815 0.000000
1.000000 0.042416 0.000000
1.000000 0.040010 0.000000
1.000000 0.037598 0.000000
1.000000 0.035179 0.000000
0.019279 0.140201 0.000000
0.055890 0.138056 0.000000
0.092501 0.135894 0.000000
0.129114 0.133717 0.000000
0.165729 0.131525 0.000000
0.202347 0.129319 0.000000
0.238969 0.127099 0.000000
0.275596 0.124867 0.000000
0.312228 0.122623 0.000000
0.348865 0.120368 0.000000
0.385509 0.118101 0.000000
0.422159 0.115824 0.000000
0.458816 0.113536 0.000000
0.495480 0.111239 0.000000
0.532152 0.108932 0.000000
0.568832 0.106616 0.000000
0.605520 0.104291 0.000000
0.642217 0.101957 0.000000
0.678923 0.099615 0.000000
0.715638 0.097265 0.000000
0.752362 0.094907 0.000000
0.789095 0.092541 0.000000
0.825838 0.090168 0.000000
0.862591 0.087787 0.000000
0.899354 0.085400 0.000000
0.936127 0.083005 0.000000
0.972911 0.080603 0.000000
1.000000 0.078195 0.000000
1.000000 0.075781 0.000000
1.000000 0.073359 0.000000
1.000000 0.070932 0.000000
1.000000 0.068499 0.000000
1.000000 0.066059 0.000000
0.011035 0.171983 0.000000
0.047651 0.169786 0.000000
0.084271 0.167575 0.000000
0.120894 0.165351 0.000000
0.157523 0.163114 0.000000
0.194157 0.160866 0.000000
0.230796 0.158606 0.000000
0.267442 0.156335 0.000000
0.304095 0.154054 0.000000
0.340754 0.151763 0.000000
0.377421 0.149462 0.000000
0.414096 0.147152 0.000000
0.450779 0.144833 0.000000
0.487471 0.142505 0.000000
0.524171 0.140168 0.000000
0.560880 0.137823 0.000000
0.597598 0.135470 0.000000
0.634325 0.133109 0.000000
0.671062 0.130740 0.000000
0.707809 0.128365 0.000000
0.744565 0.125981 0.000000
0.781332 0.123591 0.000000
0.818109 0.121194 0.000000
0.854896 0.118790 0.000000
0.891694 0.116379 0.000000
0.928502 0.113962 0.000000
0.965322 0.111539 0.000000
1.000000 0.109109 0.000000
1.000000 0.106674 0.000000
1.000000 0.104232 0.000000
1.000000 0.101784 0.000000
1.000000 0.099331 0.000000
1.000000 0.096872 0.000000
0.002820 0.203600 0.000000
0.039451 0.201359 0.000000
0.076086 0.199107 0.000000
0.112728 0.196843 0.000000
0.149376 0.194569 0.000000
0.186032 0.192284 0.000000
0.222694 0.189989 0.000000
0.259364 0.187685 0.000000
0.296042 0.185371 0.000000
0.332728 0.183049 0.000000
0.369422 0.180717 0.000000
0.406125 0.178378 0.000000
0.442838 0.176030 0.000000
0.479559 0.173674 0.000000
0.516290 0.171310 0.000000
0.553030 0.168939 0.000000
0.589780 0.166560 0.000000
0.626541 0.164174 0.000000
0.663311 0.161782 0.000000
0.700092 0.159382 0.000000
0.736883 0.156976 0.000000
0.773684 0.154563 0.000000
0.810497 0.152143 0.000000
0.847320 0.149718 0.000000
0.884155 0.147286 0.000000
0.921000 0.144848 0.000000
0.957857 0.142404 0.000000
0.994725 0.139954 0.000000
1.000000 0.137499 0.000000
1.000000 0.135038 0.000000
1.000000 0.132571 0.000000
1.000000 0.130099 0.000000
1.000000 0.127622 0.000000
0.000000 0.235079 0.000000
0.031312 0.232801 0.000000
0.067969 0.230512 0.000000
0.104634 0.228214 0.000000
0.141307 0.225906 0.000000
0.177988 0.223589 0.000000
0.214677 0.221263 0.000000
0.251375 0.218929 0.000000
0.288081 0.216586 0.000000
0.324797 0.214235 0.000000
0.361521 0.211877 0.000000
0.398256 0.209510 0.000000
0.435000 0.207136 0.000000
0.471754 0.204755 0.000000
0.508517 0.202367 0.000000
0.545291 0.199971 0.000000
0.582076 0.197569 0.000000
0.618871 0.195160 0.000000
0.655677 0.192745 0.000000
0.692493 0.190323 0.000000
0.729320 0.187895 0.000000
0.766159 0.185461 0.000000
0.803008 0.183021 0.000000
0.839869 0.180575 0.000000
0.876741 0.178124 0.000000
0.913625 0.175666 0.000000
0.950520 0.173203 0.000000
0.987427 0.170734 0.000000
1.000000 0.168260 0.000000
1.000000 0.165781 0.000000
1.000000 0.163296 0.000000
1.000000 0.160806 0.000000
1.000000 0.158311 0.000000
0.000000 0.266437 0.000000
0.023252 0.264126 0.000000
0.059935 0.261806 0.000000
0.096628 0.259477 0.000000
0.133328 0.257139 0.000000
0.170038 0.254794 0.000000
0.206757 0.252440 0.000000
0.243485 0.250078 0.000000
0.280223 0.247709 0.000000
0.316971 0.245333 0.000000
0.353728 0.242949 0.000000
0.390496 0.240558 0.000000
0.427273 0.238160 0.000000
0.464062 0.235756 0.000000
0.500861 0.233344 0.000000
0.537670 0.230927 0.000000
0.574490 0.228503 0.000000
0.611322 0.226073 0.000000
0.648164 0.223636 0.000000
0.685018 0.221194 0.000000
0.721883 0.218746 0.000000
0.758759 0.216292 0.000000
0.795647 0.213832 0.000000
0.832546 0.211367 0.000000
0.869457 0.208897 0.000000
0.906380 0.206421 0.000000
0.943315 0.203939 0.000000
0.980262 0.201453 0.000000
1.000000 0.198961 0.000000
1.000000 0.196464 0.000000
1.000000 0.193963 0.000000
1.000000 0.191456 0.000000
1.000000 0.188944 0.000000
0.000000 0.297689 0.000000
0.015283 0.295349 0.000000
0.051996 0.293000 0.000000
0.088719 0.290644 0.000000
0.125450 0.288279 0.000000
0.162192 0.285907 0.000000
0.198943 0.283528 0.000000
0.235704 0.281142 0.000000
0.272475 0.278748 0.000000
0.309257 0.276348 0.000000
0.346049 0.273941 0.000000
0.382852 0.271527 0.000000
0.419665 0.269107 0.000000
0.456489 0.266681 0.000000
0.493325 0.264249 0.000000
0.530171 0.261810 0.000000
0.567029 0.259366 0.000000
0.603898 0.256916 0.000000
0.640778 0.254460 0.000000
0.677670 0.251998 0.000000
0.714574 0.249531 0.000000
0.751490 0.247058 0.000000
0.788417 0.244580 0.000000
0.825356 0.242097 0.000000
0.862307 0.239609 0.000000
0.899270 0.237115 0.000000
0.936245 0.234617 0.000000
0.973233 0.232113 0.000000
1.000000 0.229605 0.000000
1.000000 0.227091 0.000000
1.000000 0.224573 0.000000
1.000000 0.222051 0.000000
1.000000 0.219523 0.000000
0.000000 0.328846 0.000000
0.007417 0.326479 0.000000
0.044161 0.324104 0.000000
0.080916 0.321723 0.000000
0.117681 0.319334 0.000000
0.154456 0.316938 0.000000
0.191241 0.314535 0.000000
0.228037 0.312126 0.000000
0.264844 0.309710 0.000000
0.301661 0.307287 0.000000
0.338490 0.304859 0.000000
0.375329 0.302424 0.000000
0.412180 0.299984 0.000000
0.449042 0.297537 0.000000
0.485915 0.295085 0.000000
0.522799 0.292627 0.000000
0.559696 0.290163 0.000000
0.596604 0.287694 0.000000
0.633523 0.285219 0.000000
0.670455 0.282739 0.000000
0.707398 0.280254 0.000000
0.744354 0.277764 0.000000
0.781321 0.275269 0.000000
0.818301 0.272768 0.000000
0.855293 0.270263 0.000000
0.892297 0.267753 0.000000
0.929314 0.265238 0.000000
0.966343 0.262718 0.000000
1.000000 0.260193 0.000000
1.000000 0.257664 0.000000
1.000000 0.255131 0.000000
1.000000 0.252592 0.000000
1.000000 0.250050 0.000000
0.000000 0.359916 0.000000
0.000000 0.357525 0.000000
0.036438 0.355126 0.000000
0.073228 0.352721 0.000000
0.110027 0.350309 0.000000
0.146838 0.347891 0.000000
0.183659 0.345466 0.000000
0.220492 0.343036 0.000000
0.257335 0.340599 0.000000
0.294190 0.338156 0.000000
0.331056 0.335707 0.000000
0.367933 0.333253 0.000000
0.404822 0.330793 0.000000
0.441722 0.328327 0.000000
0.478635 0.325856 0.000000
0.515559 0.323380 0.000000
0.552494 0.320898 0.000000
0.589442 0.318411 0.000000
0.626402 0.315919 0.000000
0.663374 0.313421 0.000000
0.700358 0.310919 0.000000
0.737355 0.308412 0.000000
0.774363 0.305900 0.000000
0.811384 0.303383 0.000000
0.848418 0.300862 0.000000
0.885464 0.298336 0.000000
0.922523 0.295805 0.000000
0.959594 0.293270 0.000000
0.996678 0.290730 0.000000
1.000000 0.288186 0.000000
1.000000 0.285637 0.000000
1.000000 0.283084 0.000000
1.000000 0.280527 0.000000
0.000000 0.390906 0.000000
0.000000 0.388492 0.000000
0.028833 0.386072 0.000000
0.065659 0.383645 0.000000
0.102495 0.381212 0.000000
0.139342 0.378773 0.000000
0.176201 0.376328 0.000000
0.213071 0.373877 0.000000
0.249953 0.371420 0.000000
0.286846 0.368958 0.000000
0.323751 0.366491 0.000000
0.360667 0.364018 0.000000
0.397595 0.361539 0.000000
0.434536 0.359056 0.000000
0.471488 0.356567 0.000000
0.508452 0.354073 0.000000
0.545428 0.351574 0.000000
0.582417 0.349070 0.000000
0.619418 0.346561 0.000000
0.656431 0.344047 0.000000
0.693457 0.341528 0.000000
0.730495 0.339005 0.000000
0.767545 0.336477 0.000000
0.804609 0.333945 0.000000
0.841684 0.331408 0.000000
0.878773 0.328867 0.000000
0.915874 0.326321 0.000000
0.952988 0.323770 0.000000
0.990115 0.321216 0.000000
1.000000 0.318657 0.000000
1.000000 0.316094 0.000000
1.000000 0.313527 0.000000
1.000000 0.310955 0.000000
0.000000 0.421822 0.000000
0.000000 0.419387 0.000000
0.021351 0.416946 0.000000
0.058214 0.414499 0.000000
0.095088 0.412046 0.000000
0.131974 0.409587 0.000000
0.168872 0.407123 0.000000
0.205781 0.404653 0.000000
0.242701 0.402178 0.000000
0.279634 0.399698 0.000000
0.316578 0.397212 0.000000
0.353535 0.394722 0.000000
0.390504 0.392226 0.000000
0.427485 0.389725 0.000000
0.464478 0.387219 0.000000
0.501483 0.384709 0.000000
0.538501 0.382193 0.000000
0.575531 0.379673 0.000000
0.612573 0.377148 0.000000
0.649629 0.374618 0.000000
0.686696 0.372084 0.000000
0.723777 0.369546 0.000000
0.760870 0.367003 0.000000
0.797976 0.364455 0.000000
0.835095 0.361903 0.000000
0.872226 0.359347 0.000000
0.909371 0.356787 0.000000
0.946528 0.354222 0.000000
0.983699 0.351654 0.000000
1.000000 0.349081 0.000000
1.000000 0.346504 0.000000
1.000000 0.343923 0.000000
1.000000 0.341338 0.000000
0.000000 0.452669 0.000000
0.000000 0.450214 0.000000
0.013997 0.447753 0.000000
0.050899 0.445287 0.000000
0.087812 0.442816 0.000000
0.124737 0.440339 0.000000
0.161674 0.437856 0.000000
0.198623 0.435369 0.000000
0.235584 0.432876 0.000000
0.272557 0.430378 0.000000
0.309542 0.427876 0.000000
0.346540 0.425368 0.000000
0.383550 0.422856 0.000000
0.420572 0.420339 0.000000
0.457606 0.417817 0.000000
0.494654 0.415290 0.000000
0.531713 0.412759 0.000000
0.568786 0.410223 0.000000
0.605871 0.407683 0.000000
0.642969 0.405138 0.000000
0.680079 0.402589 0.000000
0.717203 0.400036 0.000000
0.754339 0.397478 0.000000
0.791488 0.394916 0.000000
0.828651 0.392350 0.000000
0.865826 0.389780 0.000000
0.903014 0.387205 0.000000
0.940215 0.384627 0.000000
0.977430 0.382045 0.000000
1.000000 0.379458 0.000000
1.000000 0.376868 0.000000
1.000000 0.374273 0.000000
1.000000 0.371675 0.000000
0.000000 0.483450 0.000000
0.000000 0.480977 0.000000
0.006774 0.478498 0.000000
0.043716 0.476014 0.000000
0.080669 0.473524 0.000000
0.117634 0.471030 0.000000
0.154612 0.468530 0.000000
0.191602 0.466026 0.000000
0.228604 0.463517 0.000000
0.265618 0.461002 0.000000
0.302645 0.458484 0.000000
0.339684 0.455960 0.000000
0.376736 0.453432 0.000000
0.413800 0.450899 0.000000
0.450877 0.448361 0.000000
0.487967 0.445820 0.000000
0.525069 0.443273 0.000000
0.562184 0.440723 0.000000
0.599312 0.438168 0.000000
0.636454 0.435608 0.000000
0.673607 0.433045 0.000000
0.710774 0.430477 0.000000
0.747954 0.427906 0.000000
0.785148 0.425330 0.000000
0.822354 0.422750 0.000000
0.859573 0.420166 0.000000
0.896806 0.417578 0.000000
0.934051 0.414986 0.000000
0.971310 0.412390 0.000000
1.000000 0.409791 0.000000
1.000000 0.407187 0.000000
1.000000 0.404580 0.000000
1.000000 0.401969 0.000000
0.000000 0.514171 0.000000
0.000000 0.511679 0.000000
0.000000 0.509183 0.000000
0.036668 0.506682 0.000000
0.073662 0.504175 0.000000
0.110669 0.501664 0.000000
0.147688 0.499148 0.000000
0.184719 0.496628 0.000000
0.221763 0.494102 0.000000
0.258819 0.491573 0.000000
0.295888 0.489038 0.000000
0.332970 0.486499 0.000000
0.370064 0.483956 0.000000
0.407171 0.481408 0.000000
0.444291 0.478855 0.000000
0.481424 0.476299 0.000000
0.518570 0.473738 0.000000
0.555728 0.471173 0.000000
0.592900 0.468604 0.000000
0.630085 0.466031 0.000000
0.667283 0.463453 0.000000
0.704494 0.460872 0.000000
0.741718 0.458287 0.000000
0.778955 0.455697 0.000000
0.816206 0.453104 0.000000
0.853470 0.450507 0.000000
0.890747 0.447906 0.000000
0.928038 0.445301 0.000000
0.965342 0.442693 0.000000
1.000000 0.440080 0.000000
1.000000 0.437464 0.000000
1.000000 0.434845 0.000000
1.000000 0.432221 0.000000
0.000000 0.544832 0.000000
0.000000 0.542324 0.000000
0.000000 0.539811 0.000000
0.029759 0.537294 0.000000
0.066795 0.534771 0.000000
0.103844 0.532244 0.000000
0.140904 0.529713 0.000000
0.177978 0.527177 0.000000
0.215064 0.524636 0.000000
0.252163 0.522091 0.000000
0.289275 0.519541 0.000000
0.326400 0.516988 0.000000
0.363537 0.514430 0.000000
0.400688 0.511867 0.000000
0.437851 0.509301 0.000000
0.475027 0.506730 0.000000
0.512217 0.504155 0.000000
0.549420 0.501577 0.000000
0.586635 0.498994 0.000000
0.623864 0.496407 0.000000
0.661107 0.493816 0.000000
0.698362 0.491221 0.000000
0.735631 0.488623 0.000000
0.772913 0.486021 0.000000
0.810208 0.483414 0.000000
0.847517 0.480804 0.000000
0.884840 0.478191 0.000000
0.922175 0.475573 0.000000
0.959525 0.472952 0.000000
0.996887 0.470328 0.000000
1.000000 0.467699 0.000000
1.000000 0.465068 0.000000
1.000000 0.462432 0.000000
0.000000 0.575439 0.000000
0.000000 0.572914 0.000000
0.000000 0.570386 0.000000
0.022991 0.567853 0.000000
0.060070 0.565315 0.000000
0.097160 0.562772 0.000000
0.134264 0.560226 0.000000
0.171381 0.557675 0.000000
0.208510 0.555119 0.000000
0.245652 0.552560 0.000000
0.282807 0.549996 0.000000
0.319975 0.547428 0.000000
0.357157 0.544856 0.000000
0.394351 0.542280 0.000000
0.431558 0.539699 0.000000
0.468779 0.537115 0.000000
0.506013 0.534527 0.000000
0.543260 0.531934 0.000000
0.580520 0.529338 0.000000
0.617794 0.526738 0.000000
0.655080 0.524135 0.000000
0.692381 0.521527 0.000000
0.729695 0.518916 0.000000
0.767022 0.516301 0.000000
0.804363 0.513682 0.000000
0.841717 0.511060 0.000000
0.879085 0.508434 0.000000
0.916466 0.505804 0.000000
0.953861 0.503171 0.000000
0.991269 0.500534 0.000000
1.000000 0.497894 0.000000
1.000000 0.495250 0.000000
1.000000 0.492603 0.000000
0.000000 0.605992 0.000000
0.000000 0.603452 0.000000
0.000000 0.600908 0.000000
0.016367 0.598360 0.000000
0.053488 0.595807 0.000000
0.090622 0.593250 0.000000
0.127769 0.590689 0.000000
0.164929 0.588124 0.000000
0.202101 0.585554 0.000000
0.239287 0.582981 0.000000
0.276486 0.580403 0.000000
0.313699 0.577821 0.000000
0.350924 0.575236 0.000000
0.388163 0.572646 0.000000
0.425414 0.570052 0.000000
0.462680 0.567455 0.000000
0.499958 0.564853 0.000000
0.537250 0.562248 0.000000
0.574555 0.559639 0.000000
0.611874 0.557027 0.000000
0.649206 0.554410 0.000000
0.686552 0.551790 0.000000
0.723911 0.549167 0.000000
0.761283 0.546539 0.000000
0.798670 0.543908 0.000000
0.836070 0.541274 0.000000
0.873483 0.538636 0.000000
0.910910 0.535995 0.000000
0.948351 0.533350 0.000000
0.985806 0.530701 0.000000
1.000000 0.528049 0.000000
1.000000 0.525394 0.000000
1.000000 0.522735 0.000000
0.000000 0.636494 0.000000
0.000000 0.633940 0.000000
0.000000 0.631381 0.000000
0.009887 0.628818 0.000000
0.047052 0.626251 0.000000
0.084229 0.623680 0.000000
0.121420 0.621105 0.000000
0.158624 0.618526 0.000000
0.195841 0.615943 0.000000
0.233071 0.613356 0.000000
0.270314 0.610765 0.000000
0.307571 0.608170 0.000000
0.344841 0.605571 0.000000
0.382124 0.602968 0.000000
0.419421 0.600361 0.000000
0.456731 0.597751 0.000000
0.494055 0.595137 0.000000
0.531392 0.592519 0.000000
0.568742 0.589898 0.000000
0.606106 0.587273 0.000000
0.643484 0.584644 0.000000
0.680875 0.582012 0.000000
0.718280 0.579376 0.000000
0.755699 0.576737 0.000000
0.793131 0.574094 0.000000
0.830577 0.571448 0.000000
0.868036 0.568799 0.000000
0.905510 0.566145 0.000000
0.942997 0.563489 0.000000
0.980498 0.560829 0.000000
1.000000 0.558166 0.000000
1.000000 0.555499 0.000000
1.000000 0.552830 0.000000
0.000000 0.666947 0.000000
0.000000 0.664378 0.000000
0.000000 0.661806 0.000000
0.003554 0.659229 0.000000
0.040763 0.656649 0.000000
0.077985 0.654064 0.000000
0.115220 0.651475 0.000000
0.152468 0.648883 0.000000
0.189729 0.646286 0.000000
0.227004 0.643686 0.000000
0.264292 0.641082 0.000000
0.301594 0.638474 0.000000
0.338909 0.635862 0.000000
0.376238 0.633247 0.000000
0.413579 0.630628 0.000000
0.450935 0.628005 0.000000
0.488304 0.625379 0.000000
0.525687 0.622749 0.000000
0.563083 0.620116 0.000000
0.600493 0.617479 0.000000
0.637916 0.614838 0.000000
0.675353 0.612194 0.000000
0.712804 0.609546 0.000000
0.750269 0.606896 0.000000
0.787747 0.604241 0.000000
0.825239 0.601584 0.000000
0.862745 0.598922 0.000000
0.900265 0.596258 0.000000
0.937799 0.593590 0.000000
0.975347 0.590919 0.000000
1.000000 0.588245 0.000000
1.000000 0.585568 0.000000
1.000000 0.582887 0.000000
0.000000 0.697353 0.000000
0.000000 0.694771 0.000000
0.000000 0.692185 0.000000
0.000000 0.689594 0.000000
0.034623 0.687000 0.000000
0.071890 0.684403 0.000000
0.109169 0.681801 0.000000
0.146462 0.679195 0.000000
0.183769 0.676586 0.000000
0.221089 0.673973 0.000000
0.258422 0.671356 0.000000
0.295769 0.668736 0.000000
0.333129 0.666112 0.000000
0.370503 0.663484 0.000000
0.407891 0.660853 0.000000
0.445292 0.658218 0.000000
0.482707 0.655580 0.000000
0.520135 0.652938 0.000000
0.557577 0.650293 0.000000
0.595033 0.647644 0.000000
0.632503 0.644992 0.000000
0.669986 0.642337 0.000000
0.707484 0.639678 0.000000
0.744995 0.637015 0.000000
0.782520 0.634350 0.000000
0.820058 0.631681 0.000000
0.857611 0.629009 0.000000
0.895177 0.626333 0.000000
0.932758 0.623655 0.000000
0.970352 0.620973 0.000000
1.000000 0.618288 0.000000
1.000000 0.615599 0.000000
1.000000 0.612908 0.000000
0.000000 0.727713 0.000000
0.000000 0.725118 0.000000
0.000000 0.722518 0.000000
0.000000 0.719915 0.000000
0.028634 0.717308 0.000000
0.065945 0.714698 0.000000
0.103270 0.712083 0.000000
0.140608 0.709465 0.000000
0.177960 0.706844 0.000000
0.215326 0.704218 0.000000
0.252704 0.701589 0.000000
0.290097 0.698957 0.000000
0.327503 0.696321 0.000000
0.364923 0.693681 0.000000
0.402356 0.691038 0.000000
0.439803 0.688392 0.000000
0.477264 0.685742 0.000000
0.514739 0.683088 0.000000
0.552227 0.680431 0.000000
0.589730 0.677771 0.000000
0.627246 0.675108 0.000000
0.664776 0.672441 0.000000
0.702319 0.669771 0.000000
0.739877 0.667098 0.000000
0.777449 0.664421 0.000000
0.815034 0.661741 0.000000
0.852634 0.659058 0.000000
0.890247 0.656372 0.000000
0.927875 0.653682 0.000000
0.965517 0.650990 0.000000
1.000000 0.648294 0.000000
1.000000 0.645595 0.000000
1.000000 0.642893 0.000000
0.000000 0.758029 0.000000
0.000000 0.755421 0.000000
0.000000 0.752809 0.000000
0.000000 0.750193 0.000000
0.022797 0.747574 0.000000
0.060153 0.744951 0.000000
0.097524 0.742324 0.000000
0.134907 0.739694 0.000000
0.172305 0.737060 0.000000
0.209716 0.734423 0.000000
0.247141 0.731782 0.000000
0.284579 0.729138 0.000000
0.322031 0.726490 0.000000
0.359497 0.723839 0.000000
0.396977 0.721184 0.000000
0.434470 0.718526 0.000000
0.471978 0.715864 0.000000
0.509499 0.713200 0.000000
0.547034 0.710532 0.000000
0.584583 0.707860 0.000000
0.622145 0.705186 0.000000
0.659722 0.702508 0.000000
0.697313 0.699827 0.000000
0.734917 0.697143 0.000000
0.772536 0.694455 0.000000
0.810169 0.691765 0.000000
0.847815 0.689071 0.000000
0.885476 0.686374 0.000000
0.923151 0.683674 0.000000
0.960840 0.680971 0.000000
0.998543 0.678265 0.000000
1.000000 0.675556 0.000000
1.000000 0.672844 0.000000
0.000000 0.788303 0.000000
0.000000 0.785682 0.000000
0.000000 0.783057 0.000000
0.000000 0.780430 0.000000
0.017112 0.777798 0.000000
0.054515 0.775163 0.000000
0.091931 0.772524 0.000000
0.129360 0.769882 0.000000
0.166804 0.767236 0.000000
0.204261 0.764587 0.000000
0.241732 0.761935 0.000000
0.279216 0.759279 0.000000
0.316715 0.756620 0.000000
0.354227 0.753957 0.000000
0.391753 0.751291 0.000000
0.429294 0.748622 0.000000
0.466847 0.745950 0.000000
0.504415 0.743274 0.000000
0.541997 0.740595 0.000000
0.579593 0.737913 0.000000
0.617203 0.735227 0.000000
0.654826 0.732539 0.000000
0.692464 0.729847 0.000000
0.730116 0.727152 0.000000
0.767782 0.724454 0.000000
0.805462 0.721753 0.000000
0.843156 0.719049 0.000000
0.880864 0.716342 0.000000
0.918586 0.713632 0.000000
0.956322 0.710918 0.000000
0.994073 0.708202 0.000000
1.000000 0.705483 0.000000
1.000000 0.702761 0.000000
0.000000 0.818534 0.000000
0.000000 0.815902 0.000000
0.000000 0.813265 0.000000
0.000000 0.810625 0.000000
0.011582 0.807982 0.000000
0.049030 0.805335 0.000000
0.086492 0.802685 0.000000
0.123968 0.800031 0.000000
0.161458 0.797374 0.000000
0.198962 0.794713 0.000000
0.236479 0.792050 0.000000
0.274010 0.789382 0.000000
0.311555 0.786712 0.000000
0.349114 0.784038 0.000000
0.386687 0.781361 0.000000
0.424274 0.778681 0.000000
0.461875 0.775998 0.000000
0.499490 0.773311 0.000000
0.537118 0.770622 0.000000
0.574761 0.767929 0.000000
0.612418 0.765233 0.000000
0.650089 0.762534 0.000000
0.687774 0.759832 0.000000
