asset_packs/kamikochi_taisho_dusk/mood/grade_33.cube
TITLE "kamikochi_taisho_dusk mood grade"
# Generated by construction_code_v2/gen_asset_packs.py. Domain: display-referred sRGB in, sRGB out.
LUT_3D_SIZE 33
DOMAIN_MIN 0.0 0.0 0.0
DOMAIN_MAX 1.0 1.0 1.0
0.047921 0.034923 0.028728
0.067779 0.029952 0.023837
0.087962 0.025303 0.019264
0.108379 0.020884 0.014918
0.128994 0.016660 0.010761
0.149784 0.012608 0.006774
0.170736 0.008714 0.002940
0.191837 0.004967 0.000000
0.213080 0.001357 0.000000
0.234456 0.000000 0.000000
0.255960 0.000000 0.000000
0.277587 0.000000 0.000000
0.299332 0.000000 0.000000
0.321190 0.000000 0.000000
0.343160 0.000000 0.000000
0.365237 0.000000 0.000000
0.387419 0.000000 0.000000
0.409703 0.000000 0.000000
0.432086 0.000000 0.000000
0.454567 0.000000 0.000000
0.477144 0.000000 0.000000
0.499814 0.000000 0.000000
0.522575 0.000000 0.000000
0.545427 0.000000 0.000000
0.568368 0.000000 0.000000
0.591396 0.000000 0.000000
0.614510 0.000000 0.000000
0.637708 0.000000 0.000000
0.660990 0.000000 0.000000
0.684353 0.000000 0.000000
0.707798 0.000000 0.000000
0.731323 0.000000 0.000000
0.754927 0.000000 0.000000
0.031761 0.044325 0.013384
0.052442 0.040166 0.009291
0.073292 0.036173 0.005361
0.094300 0.032333 0.001580
0.115453 0.028637 0.000000
0.136745 0.025076 0.000000
0.158169 0.021643 0.000000
0.179718 0.018332 0.000000
0.201388 0.015139 0.000000
0.223175 0.012059 0.000000
0.245075 0.009089 0.000000
0.267084 0.006225 0.000000
0.289199 0.003464 0.000000
0.311418 0.000803 0.000000
0.333739 0.000000 0.000000
0.356158 0.000000 0.000000
0.378674 0.000000 0.000000
0.401285 0.000000 0.000000
0.423988 0.000000 0.000000
0.446783 0.000000 0.000000
0.469668 0.000000 0.000000
0.492640 0.000000 0.000000
0.515699 0.000000 0.000000
0.538844 0.000000 0.000000
0.562073 0.000000 0.000000
0.585384 0.000000 0.000000
0.608778 0.000000 0.000000
0.632252 0.000000 0.000000
0.655806 0.000000 0.000000
0.679438 0.000000 0.000000
0.703148 0.000000 0.000000
0.726935 0.000000 0.000000
0.750798 0.000000 0.000000
0.017883 0.055972 0.000238
0.039088 0.052325 0.000000
0.060428 0.048811 0.000000
0.081898 0.045423 0.000000
0.103492 0.042156 0.000000
0.125205 0.039005 0.000000
0.147033 0.035965 0.000000
0.168973 0.033034 0.000000
0.191021 0.030208 0.000000
0.213175 0.027483 0.000000
0.235431 0.024859 0.000000
0.257788 0.022331 0.000000
0.280242 0.019898 0.000000
0.302793 0.017558 0.000000
0.325438 0.015308 0.000000
0.348175 0.013148 0.000000
0.371003 0.011075 0.000000
0.393919 0.009087 0.000000
0.416924 0.007184 0.000000
0.440014 0.005364 0.000000
0.463190 0.003625 0.000000
0.486449 0.001967 0.000000
0.509790 0.000387 0.000000
0.533213 0.000000 0.000000
0.556716 0.000000 0.000000
0.580299 0.000000 0.000000
0.603959 0.000000 0.000000
0.627698 0.000000 0.000000
0.651512 0.000000 0.000000
0.675402 0.000000 0.000000
0.699367 0.000000 0.000000
0.723406 0.000000 0.000000
0.747519 0.000000 0.000000
0.005644 0.069220 0.000000
0.027282 0.065995 0.000000
0.049037 0.062885 0.000000
0.070906 0.059886 0.000000
0.092886 0.056993 0.000000
0.114973 0.054204 0.000000
0.137164 0.051516 0.000000
0.159457 0.048927 0.000000
0.181850 0.046434 0.000000
0.204340 0.044035 0.000000
0.226925 0.041728 0.000000
0.249603 0.039511 0.000000
0.272374 0.037383 0.000000
0.295234 0.035341 0.000000
0.318183 0.033385 0.000000
0.341219 0.031512 0.000000
0.364340 0.029721 0.000000
0.387546 0.028012 0.000000
0.410835 0.026383 0.000000
0.434207 0.024832 0.000000
0.457659 0.023359 0.000000
0.481191 0.021962 0.000000
0.504802 0.020642 0.000000
0.528491 0.019395 0.000000
0.552257 0.018223 0.000000
0.576099 0.017123 0.000000
0.600017 0.016096 0.000000
0.624009 0.015139 0.000000
0.648075 0.014253 0.000000
0.672213 0.013437 0.000000
0.696424 0.012690 0.000000
0.720707 0.012010 0.000000
0.745060 0.011399 0.000000
0.000000 0.083820 0.000000
0.016813 0.080966 0.000000
0.038938 0.078214 0.000000
0.061167 0.075563 0.000000
0.083497 0.073009 0.000000
0.105925 0.070550 0.000000
0.128450 0.068185 0.000000
0.151069 0.065911 0.000000
0.173781 0.063726 0.000000
0.196584 0.061630 0.000000
0.219477 0.059619 0.000000
0.242458 0.057693 0.000000
0.265525 0.055850 0.000000
0.288677 0.054090 0.000000
0.311914 0.052410 0.000000
0.335233 0.050809 0.000000
0.358634 0.049287 0.000000
0.382115 0.047842 0.000000
0.405676 0.046473 0.000000
0.429316 0.045179 0.000000
0.453033 0.043960 0.000000
0.476827 0.042814 0.000000
0.500697 0.041741 0.000000
0.524641 0.040739 0.000000
0.548660 0.039809 0.000000
0.572753 0.038948 0.000000
0.596918 0.038157 0.000000
0.621155 0.037434 0.000000
0.645463 0.036780 0.000000
0.669842 0.036193 0.000000
0.694291 0.035672 0.000000
0.718810 0.035218 0.000000
0.743397 0.034829 0.000000
0.000000 0.099622 0.000000
0.007549 0.097103 0.000000
0.030013 0.094678 0.000000
0.052572 0.092347 0.000000
0.075225 0.090105 0.000000
0.097971 0.087953 0.000000
0.120807 0.085888 0.000000
0.143732 0.083908 0.000000
0.166744 0.082013 0.000000
0.189842 0.080200 0.000000
0.213026 0.078469 0.000000
0.236292 0.076818 0.000000
0.259641 0.075246 0.000000
0.283072 0.073752 0.000000
0.306582 0.072335 0.000000
0.330172 0.070993 0.000000
0.353840 0.069727 0.000000
0.377585 0.068534 0.000000
0.401407 0.067415 0.000000
0.425304 0.066368 0.000000
0.449276 0.065392 0.000000
0.473321 0.064487 0.000000
0.497440 0.063652 0.000000
0.521632 0.062886 0.000000
0.545895 0.062188 0.000000
0.570229 0.061558 0.000000
0.594634 0.060996 0.000000
0.619108 0.060499 0.000000
0.643652 0.060069 0.000000
0.668264 0.059704 0.000000
0.692944 0.059403 0.000000
0.717691 0.059167 0.000000
0.742506 0.058994 0.000000
0.000000 0.116520 0.000000
0.000000 0.114312 0.000000
0.022173 0.112191 0.000000
0.045041 0.110157 0.000000
0.067998 0.108208 0.000000
0.091042 0.106343 0.000000
0.114171 0.104560 0.000000
0.137385 0.102858 0.000000
0.160682 0.101236 0.000000
0.184061 0.099693 0.000000
0.207520 0.098227 0.000000
0.231060 0.096837 0.000000
0.254678 0.095524 0.000000
0.278374 0.094284 0.000000
0.302147 0.093119 0.000000
0.325996 0.092026 0.000000
0.349921 0.091005 0.000000
0.373920 0.090055 0.000000
0.397992 0.089175 0.000000
0.422138 0.088365 0.000000
0.446355 0.087624 0.000000
0.470644 0.086951 0.000000
0.495004 0.086346 0.000000
0.519434 0.085807 0.000000
0.543934 0.085335 0.000000
0.568503 0.084928 0.000000
0.593139 0.084587 0.000000
0.617844 0.084310 0.000000
0.642616 0.084096 0.000000
0.667455 0.083947 0.000000
0.692360 0.083860 0.000000
0.717330 0.083835 0.000000
0.742366 0.083872 0.000000
0.000000 0.134438 0.000000
0.000000 0.132520 0.000000
0.015351 0.130685 0.000000
0.038511 0.128931 0.000000
0.061755 0.127259 0.000000
0.085082 0.125665 0.000000
0.108490 0.124150 0.000000
0.131979 0.122712 0.000000
0.155548 0.121350 0.000000
0.179194 0.120064 0.000000
0.202919 0.118851 0.000000
0.226719 0.117712 0.000000
0.250596 0.116646 0.000000
0.274548 0.115651 0.000000
0.298574 0.114726 0.000000
0.322673 0.113872 0.000000
0.346844 0.113087 0.000000
0.371088 0.112371 0.000000
0.395403 0.111723 0.000000
0.419789 0.111142 0.000000
0.444244 0.110628 0.000000
0.468769 0.110179 0.000000
0.493362 0.109797 0.000000
0.518024 0.109478 0.000000
0.542753 0.109225 0.000000
0.567550 0.109035 0.000000
0.592412 0.108908 0.000000
0.617341 0.108843 0.000000
0.642335 0.108841 0.000000
0.667395 0.108901 0.000000
0.692518 0.109022 0.000000
0.717706 0.109203 0.000000
0.742958 0.109445 0.000000
0.000000 0.153313 0.000000
0.000000 0.151669 0.000000
0.009493 0.150105 0.000000
0.032931 0.148618 0.000000
0.056449 0.147208 0.000000
0.080046 0.145873 0.000000
0.103721 0.144614 0.000000
0.127473 0.143428 0.000000
0.151302 0.142316 0.000000
0.175206 0.141275 0.000000
0.199185 0.140306 0.000000
0.223237 0.139407 0.000000
0.247363 0.138579 0.000000
0.271561 0.137819 0.000000
0.295831 0.137127 0.000000
0.320171 0.136504 0.000000
0.344582 0.135947 0.000000
0.369063 0.135457 0.000000
0.393613 0.135032 0.000000
0.418231 0.134673 0.000000
0.442918 0.134379 0.000000
0.467672 0.134148 0.000000
0.492492 0.133981 0.000000
0.517379 0.133877 0.000000
0.542332 0.133835 0.000000
0.567350 0.133856 0.000000
0.592432 0.133938 0.000000
0.617579 0.134081 0.000000
0.642790 0.134284 0.000000
0.668065 0.134548 0.000000
0.693402 0.134871 0.000000
0.718802 0.135254 0.000000
0.744264 0.135696 0.000000
0.000000 0.173096 0.000000
0.000000 0.171713 0.000000
0.004555 0.170406 0.000000
0.028258 0.169174 0.000000
0.052038 0.168015 0.000000
0.075894 0.166928 0.000000
0.099825 0.165914 0.000000
0.123831 0.164971 0.000000
0.147910 0.164098 0.000000
0.172062 0.163294 0.000000
0.196287 0.162559 0.000000
0.220582 0.161893 0.000000
0.244949 0.161293 0.000000
0.269385 0.160761 0.000000
0.293891 0.160295 0.000000
0.318466 0.159894 0.000000
0.343109 0.159559 0.000000
0.367820 0.159287 0.000000
0.392598 0.159080 0.000000
0.417443 0.158936 0.000000
0.442354 0.158855 0.000000
0.467331 0.158836 0.000000
0.492372 0.158879 0.000000
0.517478 0.158983 0.000000
0.542649 0.159148 0.000000
0.567883 0.159373 0.000000
0.593180 0.159659 0.000000
0.618541 0.160004 0.000000
0.643963 0.160408 0.000000
0.669448 0.160871 0.000000
0.694994 0.161392 0.000000
0.720602 0.161971 0.000000
0.746270 0.162608 0.000000
0.000000 0.193743 0.000000
0.000000 0.192611 0.000000
0.000496 0.191551 0.000000
0.024455 0.190562 0.000000
0.048487 0.189645 0.000000
0.072593 0.188797 0.000000
0.096772 0.188019 0.000000
0.121022 0.187309 0.000000
0.145344 0.186667 0.000000
0.169736 0.186092 0.000000
0.194197 0.185584 0.000000
0.218729 0.185141 0.000000
0.243328 0.184764 0.000000
0.267996 0.184452 0.000000
0.292732 0.184204 0.000000
0.317534 0.184020 0.000000
0.342403 0.183899 0.000000
0.367338 0.183841 0.000000
0.392338 0.183844 0.000000
0.417403 0.183910 0.000000
0.442533 0.184036 0.000000
0.467727 0.184223 0.000000
0.492984 0.184470 0.000000
0.518304 0.184778 0.000000
0.543687 0.185144 0.000000
0.569133 0.185570 0.000000
0.594640 0.186054 0.000000
0.620209 0.186596 0.000000
0.645838 0.187196 0.000000
0.671529 0.187854 0.000000
0.697280 0.188568 0.000000
0.723090 0.189339 0.000000
0.748961 0.190167 0.000000
0.000000 0.215220 0.000000
0.000000 0.214328 0.000000
0.000000 0.213506 0.000000
0.021490 0.212752 0.000000
0.045767 0.212067 0.000000
0.070114 0.211450 0.000000
0.094532 0.210899 0.000000
0.119019 0.210415 0.000000
0.143575 0.209997 0.000000
0.168200 0.209643 0.000000
0.192892 0.209355 0.000000
0.217652 0.209130 0.000000
0.242479 0.208969 0.000000
0.267372 0.208871 0.000000
0.292330 0.208835 0.000000
0.317354 0.208861 0.000000
0.342443 0.208949 0.000000
0.367596 0.209097 0.000000
0.392813 0.209306 0.000000
0.418093 0.209575 0.000000
0.443437 0.209904 0.000000
0.468842 0.210292 0.000000
0.494310 0.210739 0.000000
0.519840 0.211245 0.000000
0.545431 0.211808 0.000000
0.571083 0.212429 0.000000
0.596795 0.213107 0.000000
0.622568 0.213842 0.000000
0.648400 0.214634 0.000000
0.674292 0.215482 0.000000
0.700243 0.216385 0.000000
0.726253 0.217345 0.000000
0.752322 0.218359 0.000000
0.000000 0.237495 0.000000
0.000000 0.236835 0.000000
0.000000 0.236242 0.000000
0.019337 0.235715 0.000000
0.043849 0.235255 0.000000
0.068430 0.234861 0.000000
0.093080 0.234531 0.000000
0.117797 0.234266 0.000000
0.142581 0.234064 0.000000
0.167432 0.233926 0.000000
0.192349 0.233850 0.000000
0.217332 0.233837 0.000000
0.242379 0.233886 0.000000
0.267491 0.233996 0.000000
0.292668 0.234166 0.000000
0.317908 0.234397 0.000000
0.343211 0.234688 0.000000
0.368577 0.235039 0.000000
0.394005 0.235448 0.000000
0.419496 0.235916 0.000000
0.445048 0.236443 0.000000
0.470661 0.237027 0.000000
0.496335 0.237669 0.000000
0.522069 0.238368 0.000000
0.547864 0.239124 0.000000
0.573718 0.239936 0.000000
0.599632 0.240804 0.000000
0.625604 0.241728 0.000000
0.651636 0.242707 0.000000
0.677725 0.243742 0.000000
0.703873 0.244831 0.000000
0.730078 0.245974 0.000000
0.756341 0.247172 0.000000
0.000000 0.260540 0.000000
0.000000 0.260104 0.000000
0.000000 0.259733 0.000000
0.017969 0.259427 0.000000
0.042711 0.259185 0.000000
0.067519 0.259006 0.000000
0.092394 0.258891 0.000000
0.117335 0.258838 0.000000
0.142341 0.258848 0.000000
0.167413 0.258919 0.000000
0.192548 0.259051 0.000000
0.217748 0.259243 0.000000
0.243011 0.259496 0.000000
0.268337 0.259809 0.000000
0.293726 0.260181 0.000000
0.319177 0.260612 0.000000
0.344690 0.261101 0.000000
0.370264 0.261649 0.000000
0.395899 0.262254 0.000000
0.421595 0.262917 0.000000
0.447352 0.263637 0.000000
0.473168 0.264413 0.000000
0.499044 0.265246 0.000000
0.524979 0.266134 0.000000
0.550973 0.267078 0.000000
0.577025 0.268078 0.000000
0.603136 0.269132 0.000000
0.629305 0.270241 0.000000
0.655531 0.271404 0.000000
0.681815 0.272621 0.000000
0.708156 0.273892 0.000000
0.734553 0.275216 0.000000
0.761007 0.276594 0.000000
0.000000 0.284331 0.000000
0.000000 0.284113 0.000000
0.000000 0.283957 0.000000
0.017365 0.283865 0.000000
0.042330 0.283835 0.000000
0.067360 0.283866 0.000000
0.092455 0.283960 0.000000
0.117613 0.284114 0.000000
0.142836 0.284329 0.000000
0.168122 0.284603 0.000000
0.193471 0.284938 0.000000
0.218883 0.285331 0.000000
0.244356 0.285783 0.000000
0.269892 0.286294 0.000000
0.295488 0.286863 0.000000
0.321146 0.287489 0.000000
0.346864 0.288173 0.000000
0.372642 0.288913 0.000000
0.398480 0.289710 0.000000
0.424377 0.290563 0.000000
0.450334 0.291471 0.000000
0.476349 0.292436 0.000000
0.502423 0.293455 0.000000
0.528555 0.294529 0.000000
0.554745 0.295658 0.000000
0.580992 0.296841 0.000000
0.607296 0.298078 0.000000
0.633658 0.299368 0.000000
0.660076 0.300712 0.000000
0.686550 0.302108 0.000000
0.713080 0.303558 0.000000
0.739666 0.305059 0.000000
0.766308 0.306613 0.000000
0.000000 0.308847 0.000000
0.000000 0.308839 0.000000
0.000000 0.308893 0.000000
0.017505 0.309009 0.000000
0.042687 0.309185 0.000000
0.067933 0.309422 0.000000
0.093242 0.309718 0.000000
0.118614 0.310074 0.000000
0.144048 0.310489 0.000000
0.169544 0.310963 0.000000
0.195102 0.311494 0.000000
0.220721 0.312084 0.000000
0.246400 0.312731 0.000000
0.272140 0.313435 0.000000
0.297940 0.314196 0.000000
0.323800 0.315014 0.000000
0.349719 0.315887 0.000000
0.375697 0.316816 0.000000
0.401734 0.317800 0.000000
0.427829 0.318840 0.000000
0.453982 0.319934 0.000000
0.480192 0.321082 0.000000
0.506460 0.322285 0.000000
0.532785 0.323541 0.000000
0.559167 0.324851 0.000000
0.585606 0.326214 0.000000
0.612100 0.327630 0.000000
0.638651 0.329098 0.000000
0.665257 0.330619 0.000000
0.691919 0.332192 0.000000
0.718636 0.333817 0.000000
0.745407 0.335493 0.000000
0.772233 0.337221 0.000000
0.000000 0.334066 0.000000
0.000000 0.334264 0.000000
0.000000 0.334523 0.000000
0.018370 0.334841 0.000000
0.043765 0.335218 0.000000
0.069222 0.335655 0.000000
0.094740 0.336150 0.000000
0.120320 0.336702 0.000000
0.145961 0.337313 0.000000
0.171663 0.337981 0.000000
0.197424 0.338706 0.000000
0.223246 0.339487 0.000000
0.249128 0.340325 0.000000
0.275068 0.341219 0.000000
0.301068 0.342168 0.000000
0.327125 0.343173 0.000000
0.353242 0.344232 0.000000
0.379416 0.345346 0.000000
0.405647 0.346514 0.000000
0.431936 0.347736 0.000000
0.458282 0.349012 0.000000
0.484685 0.350341 0.000000
0.511143 0.351723 0.000000
0.537658 0.353158 0.000000
0.564229 0.354646 0.000000
0.590856 0.356186 0.000000
0.617538 0.357778 0.000000
0.644274 0.359421 0.000000
0.671066 0.361116 0.000000
0.697912 0.362862 0.000000
0.724812 0.364659 0.000000
0.751766 0.366507 0.000000
0.778774 0.368405 0.000000
0.000000 0.359971 0.000000
0.000000 0.360370 0.000000
0.000000 0.360828 0.000000
0.019944 0.361344 0.000000
0.045546 0.361918 0.000000
0.071209 0.362550 0.000000
0.096933 0.363238 0.000000
0.122717 0.363984 0.000000
0.148560 0.364786 0.000000
0.174463 0.365644 0.000000
0.200425 0.366558 0.000000
0.226446 0.367527 0.000000
0.252525 0.368552 0.000000
0.278662 0.369631 0.000000
0.304857 0.370765 0.000000
0.331110 0.371953 0.000000
0.357420 0.373194 0.000000
0.383786 0.374490 0.000000
0.410209 0.375838 0.000000
0.436689 0.377240 0.000000
0.463224 0.378694 0.000000
0.489815 0.380200 0.000000
0.516462 0.381759 0.000000
0.543163 0.383370 0.000000
0.569920 0.385032 0.000000
0.596732 0.386746 0.000000
0.623597 0.388511 0.000000
0.650517 0.390326 0.000000
0.677491 0.392192 0.000000
0.704519 0.394109 0.000000
0.731600 0.396076 0.000000
0.758734 0.398092 0.000000
0.785921 0.400159 0.000000
0.000000 0.386546 0.000000
0.000000 0.387141 0.000000
0.000000 0.387794 0.000000
0.022211 0.388503 0.000000
0.048017 0.389269 0.000000
0.073882 0.390092 0.000000
0.099807 0.390970 0.000000
0.125790 0.391905 0.000000
0.151832 0.392894 0.000000
0.177932 0.393938 0.000000
0.204091 0.395038 0.000000
0.230307 0.396191 0.000000
0.256580 0.397398 0.000000
0.282910 0.398660 0.000000
0.309298 0.399974 0.000000
0.335741 0.401342 0.000000
0.362241 0.402763 0.000000
0.388797 0.404236 0.000000
0.415408 0.405762 0.000000
0.442075 0.407340 0.000000
0.468797 0.408969 0.000000
0.495573 0.410650 0.000000
0.522405 0.412382 0.000000
0.549290 0.414166 0.000000
0.576230 0.416000 0.000000
0.603223 0.417884 0.000000
0.630270 0.419819 0.000000
0.657371 0.421804 0.000000
0.684524 0.423839 0.000000
0.711731 0.425923 0.000000
0.738990 0.428057 0.000000
0.766302 0.430240 0.000000
0.793665 0.432472 0.000000
0.000000 0.413776 0.000000
0.000000 0.414562 0.000000
0.000000 0.415405 0.000000
0.025158 0.416304 0.000000
0.051163 0.417258 0.000000
0.077226 0.418268 0.000000
0.103347 0.419332 0.000000
0.129527 0.420451 0.000000
0.155764 0.421624 0.000000
0.182058 0.422851 0.000000
0.208409 0.424132 0.000000
0.234817 0.425466 0.000000
0.261281 0.426853 0.000000
0.287801 0.428293 0.000000
0.314377 0.429786 0.000000
0.341009 0.431330 0.000000
0.367695 0.432927 0.000000
0.394437 0.434575 0.000000
0.421234 0.436275 0.000000
0.448085 0.438026 0.000000
0.474990 0.439828 0.000000
0.501949 0.441680 0.000000
0.528962 0.443583 0.000000
0.556029 0.445536 0.000000
0.583149 0.447539 0.000000
0.610321 0.449592 0.000000
0.637547 0.451694 0.000000
0.664825 0.453846 0.000000
0.692156 0.456047 0.000000
0.719539 0.458296 0.000000
0.746974 0.460594 0.000000
0.774460 0.462941 0.000000
0.801998 0.465336 0.000000
0.000000 0.441645 0.000000
0.000000 0.442620 0.000000
0.002627 0.443649 0.000000
0.028770 0.444733 0.000000
0.054970 0.445872 0.000000
0.081228 0.447065 0.000000
0.107543 0.448312 0.000000
0.133915 0.449612 0.000000
0.160343 0.450965 0.000000
0.186828 0.452372 0.000000
0.213368 0.453831 0.000000
0.239965 0.455342 0.000000
0.266616 0.456906 0.000000
0.293323 0.458521 0.000000
0.320085 0.460188 0.000000
0.346901 0.461906 0.000000
0.373772 0.463676 0.000000
0.400697 0.465496 0.000000
0.427676 0.467367 0.000000
0.454708 0.469288 0.000000
0.481794 0.471260 0.000000
0.508934 0.473281 0.000000
0.536126 0.475352 0.000000
0.563370 0.477472 0.000000
0.590668 0.479641 0.000000
0.618018 0.481860 0.000000
0.645419 0.484127 0.000000
0.672873 0.486443 0.000000
0.700378 0.488807 0.000000
0.727935 0.491220 0.000000
0.755543 0.493680 0.000000
0.783202 0.496188 0.000000
0.810912 0.498744 0.000000
0.000000 0.470142 0.000000
0.000000 0.471300 0.000000
0.006700 0.472513 0.000000
0.033036 0.473779 0.000000
0.059428 0.475098 0.000000
0.085877 0.476471 0.000000
0.112382 0.477897 0.000000
0.138943 0.479375 0.000000
0.165559 0.480905 0.000000
0.192231 0.482488 0.000000
0.218958 0.484122 0.000000
0.245740 0.485808 0.000000
0.272576 0.487545 0.000000
0.299467 0.489333 0.000000
0.326411 0.491171 0.000000
0.353410 0.493061 0.000000
0.380462 0.495000 0.000000
0.407567 0.496990 0.000000
0.434725 0.499029 0.000000
0.461937 0.501118 0.000000
0.489201 0.503256 0.000000
0.516517 0.505444 0.000000
0.543886 0.507680 0.000000
0.571307 0.509965 0.000000
0.598779 0.512298 0.000000
0.626303 0.514680 0.000000
0.653879 0.517110 0.000000
0.681505 0.519588 0.000000
0.709183 0.522113 0.000000
0.736911 0.524686 0.000000
0.764690 0.527306 0.000000
0.792520 0.529973 0.000000
0.820399 0.532688 0.000000
0.000000 0.499253 0.000000
0.000000 0.500592 0.000000
0.011419 0.501984 0.000000
0.037944 0.503429 0.000000
0.064525 0.504926 0.000000
0.091162 0.506475 0.000000
0.117854 0.508077 0.000000
0.144600 0.509730 0.000000
0.171402 0.511434 0.000000
0.198258 0.513190 0.000000
0.225168 0.514996 0.000000
0.252133 0.516853 0.000000
0.279151 0.518761 0.000000
0.306222 0.520719 0.000000
0.333347 0.522726 0.000000
0.360524 0.524784 0.000000
0.387755 0.526891 0.000000
0.415038 0.529047 0.000000
0.442374 0.531252 0.000000
0.469761 0.533506 0.000000
0.497201 0.535809 0.000000
0.524692 0.538160 0.000000
0.552235 0.540559 0.000000
0.579829 0.543006 0.000000
0.607474 0.545502 0.000000
0.635170 0.548044 0.000000
0.662917 0.550634 0.000000
0.690715 0.553272 0.000000
0.718562 0.555956 0.000000
0.746460 0.558687 0.000000
0.774408 0.561465 0.000000
0.802406 0.564290 0.000000
0.830453 0.567160 0.000000
0.000000 0.528968 0.000000
0.000000 0.530484 0.000000
0.016771 0.532052 0.000000
0.043483 0.533673 0.000000
0.070250 0.535344 0.000000
0.097071 0.537067 0.000000
0.123947 0.538841 0.000000
0.150877 0.540666 0.000000
0.177861 0.542542 0.000000
0.204898 0.544468 0.000000
0.231989 0.546444 0.000000
0.259133 0.548470 0.000000
0.286330 0.550545 0.000000
0.313580 0.552670 0.000000
0.340882 0.554844 0.000000
0.368237 0.557067 0.000000
0.395643 0.559339 0.000000
0.423102 0.561659 0.000000
0.450612 0.564028 0.000000
0.478173 0.566445 0.000000
0.505786 0.568909 0.000000
0.533450 0.571422 0.000000
0.561165 0.573982 0.000000
0.588930 0.576589 0.000000
0.616746 0.579244 0.000000
0.644612 0.581945 0.000000
0.672528 0.584693 0.000000
0.700494 0.587488 0.000000
0.728510 0.590329 0.000000
0.756575 0.593217 0.000000
0.784689 0.596150 0.000300
0.812853 0.599130 0.002922
0.841066 0.602155 0.005585
0.000000 0.559275 0.000000
0.000000 0.560966 0.000000
0.022748 0.562707 0.000000
0.049644 0.564500 0.000000
0.076593 0.566343 0.000000
0.103597 0.568237 0.000000
0.130654 0.570181 0.000000
0.157764 0.572176 0.000000
0.184927 0.574219 0.000000
0.212143 0.576313 0.000000
0.239412 0.578456 0.000000
0.266733 0.580648 0.000000
0.294107 0.582888 0.000000
0.321532 0.585178 0.000000
0.349010 0.587516 0.000000
0.376538 0.589902 0.000000
0.404119 0.592336 0.000000
0.431750 0.594818 0.000000
0.459432 0.597348 0.000000
0.487165 0.599926 0.000000
0.514949 0.602550 0.000000
0.542783 0.605222 0.000000
0.570668 0.607940 0.000000
0.598602 0.610705 0.000000
0.626586 0.613517 0.000000
0.654620 0.616375 0.000000
0.682703 0.619279 0.000000
0.710836 0.622230 0.001249
0.739017 0.625226 0.003887
0.767248 0.628267 0.006565
0.795528 0.631355 0.009286
0.823856 0.634487 0.012047
0.852232 0.637665 0.014850
0.000000 0.590165 0.000000
0.002316 0.592027 0.000000
0.029339 0.593939 0.000000
0.056416 0.595902 0.000000
0.083545 0.597914 0.000000
0.110728 0.599976 0.000000
0.137963 0.602087 0.000000
0.165251 0.604248 0.000000
0.192592 0.606458 0.000000
0.219984 0.608716 0.000000
0.247428 0.611023 0.000000
0.274924 0.613379 0.000000
0.302472 0.615783 0.000000
0.330071 0.618234 0.000000
0.357721 0.620734 0.000000
0.385422 0.623281 0.000000
0.413173 0.625876 0.000000
0.440975 0.628517 0.000000
0.468827 0.631206 0.000000
0.496730 0.633941 0.000000
0.524682 0.636724 0.000000
0.552685 0.639552 0.000000
0.580737 0.642427 0.000000
0.608838 0.645348 0.000000
0.636988 0.648315 0.002205
0.665188 0.651328 0.004857
0.693436 0.654386 0.007551
0.721734 0.657490 0.010286
0.750079 0.660639 0.013063
0.778473 0.663833 0.015880
0.806916 0.667072 0.018738
0.835406 0.670356 0.021637
0.863945 0.673684 0.024577
0.000000 0.621628 0.000000
0.009334 0.623659 0.000000
0.036536 0.625739 0.000000
0.063790 0.627868 0.000000
0.091097 0.630047 0.000000
0.118456 0.632274 0.000000
0.145868 0.634551 0.000000
0.173331 0.636875 0.000000
0.200846 0.639249 0.000000
0.228412 0.641670 0.000000
0.256030 0.644139 0.000000
0.283698 0.646656 0.000000
0.311417 0.649220 0.000000
0.339187 0.651832 0.000000
0.367008 0.654491 0.000000
0.394878 0.657196 0.000000
0.422799 0.659949 0.000000
0.450770 0.662748 0.000000
0.478790 0.665594 0.000000
0.506860 0.668485 0.000000
0.534979 0.671423 0.000540
0.563147 0.674407 0.003165
0.591365 0.677436 0.005833
