asset_packs/kamikochi_taisho_dusk/mood/grade_33.cube
TITLE "kamikochi_taisho_dusk mood grade"
# Generated by construction_code_v2/gen_asset_packs.py. Domain: display-referred sRGB in, sRGB out.
LUT_3D_SIZE 5
DOMAIN_MIN 0.0 0.0 0.0
DOMAIN_MAX 1.0 1.0 1.0
0.047921 0.034923 0.028728
0.213080 0.001357 0.000000
0.387419 0.000000 0.000000
0.568368 0.000000 0.000000
0.754927 0.000000 0.000000
0.000000 0.153313 0.000000
0.151302 0.142316 0.000000
0.344582 0.135947 0.000000
0.542332 0.133835 0.000000
0.744264 0.135696 0.000000
0.000000 0.334066 0.000000
0.145961 0.337313 0.000000
0.353242 0.344232 0.000000
0.564229 0.354646 0.000000
0.778774 0.368405 0.000000
0.000000 0.559275 0.000000
0.184927 0.574219 0.000000
0.404119 0.592336 0.000000
0.626586 0.613517 0.000000
0.852232 0.637665 0.014850
0.035560 0.821970 0.001021
0.262341 0.847176 0.023245
0.492185 0.875232 0.048058
0.725016 0.906063 0.075386
0.960763 0.939599 0.105158
0.034656 0.022114 0.216128
0.203530 0.000000 0.186645
0.380271 0.000000 0.164557
0.563210 0.000000 0.148194
0.751525 0.000000 0.136734
0.000000 0.149031 0.143486
0.148498 0.139655 0.133672
0.343333 0.134768 0.128086
0.542531 0.134034 0.126393
0.745831 0.137189 0.128327
0.000000 0.334745 0.126689
0.148008 0.339260 0.129889
0.356565 0.347385 0.136437
0.568777 0.358950 0.146166
0.784500 0.373816 0.158933
0.000000 0.563987 0.150469
0.191071 0.580022 0.164311
0.411386 0.599191 0.181026
0.634944 0.621390 0.200510
0.861649 0.646525 0.222670
0.044306 0.830205 0.208273
0.272137 0.856388 0.231385
0.503003 0.885395 0.257061
0.736832 0.917152 0.285226
0.973555 0.951592 0.315813
0.023010 0.010901 0.405093
0.194863 0.000000 0.378429
0.373832 0.000000 0.358408
0.558669 0.000000 0.343782
0.748682 0.000000 0.333860
0.000000 0.145318 0.339653
0.146235 0.137511 0.331319
0.342586 0.134068 0.327089
0.543203 0.134681 0.326654
0.747845 0.139106 0.329770
0.000000 0.335862 0.327389
0.150494 0.341624 0.331747
0.360310 0.350934 0.339392
0.573729 0.363635 0.350167
0.790615 0.379592 0.363938
0.000000 0.569074 0.354841
0.197600 0.586186 0.369671
0.419028 0.606395 0.387337
0.643664 0.629601 0.407740
0.871420 0.655714 0.430789
0.053412 0.838775 0.415829
0.282283 0.865926 0.439821
0.514163 0.895875 0.466350
0.748982 0.928551 0.495345
0.986674 0.963888 0.526740
0.012526 0.000825 0.595166
0.187004 0.000000 0.570966
0.368066 0.000000 0.552877
0.554723 0.000000 0.539912
0.746381 0.000000 0.531473
0.000000 0.142154 0.536340
0.144500 0.135869 0.529440
0.342330 0.133835 0.526529
0.544339 0.135767 0.527325
0.750301 0.141440 0.531600
0.000000 0.337410 0.528489
0.153415 0.344396 0.533983
0.364471 0.354874 0.542708
0.579081 0.368695 0.554514
0.797117 0.385730 0.569274
0.000000 0.574531 0.559552
0.204511 0.592707 0.575358
0.427039 0.613944 0.593964
0.652745 0.638147 0.615275
0.881540 0.665228 0.639204
0.062875 0.847678 0.623688
0.292776 0.875787 0.648550
0.525661 0.906670 0.675924
0.761463 0.940256 0.705741
1.000000 0.976483 0.737938
0.003027 0.000000 0.786169
0.179896 0.000000 0.764199
0.362942 0.000000 0.747935
0.551353 0.000000 0.736562
0.744607 0.000000 0.729560
0.000000 0.139522 0.733529
0.143278 0.134717 0.728020
0.342556 0.134058 0.726396
0.545931 0.137284 0.728397
0.753190 0.144183 0.733809
0.000000 0.339381 0.729982
0.156762 0.347571 0.736591
0.369041 0.359200 0.746378
0.584828 0.374126 0.759202
0.804001 0.392225 0.774937
0.000000 0.580354 0.764599
0.211800 0.599581 0.781367
0.435417 0.621836 0.800903
0.662181 0.647025 0.823112
0.892008 0.675066 0.847911
0.072690 0.856908 0.831845
0.303613 0.885967 0.857568
0.537496 0.917776 0.885779
0.774273 0.952266 0.916411
1.000000 0.989375 0.949402
