asset_packs/kamikochi_taisho_dusk/mood/grade_33.cube
TITLE "kamikochi_taisho_dusk mood grade"
# Generated by construction_code_v2/gen_asset_packs.py. Domain: display-referred sRGB in, sRGB out.
LUT_3D_SIZE 9
DOMAIN_MIN 0.0 0.0 0.0
DOMAIN_MAX 1.0 1.0 1.0
0.047921 0.034923 0.028728
0.128994 0.016660 0.010761
0.213080 0.001357 0.000000
0.299332 0.000000 0.000000
0.387419 0.000000 0.000000
0.477144 0.000000 0.000000
0.568368 0.000000 0.000000
0.660990 0.000000 0.000000
0.754927 0.000000 0.000000
0.000000 0.083820 0.000000
0.083497 0.073009 0.000000
0.173781 0.063726 0.000000
0.265525 0.055850 0.000000
0.358634 0.049287 0.000000
0.453033 0.043960 0.000000
0.548660 0.039809 0.000000
0.645463 0.036780 0.000000
0.743397 0.034829 0.000000
0.000000 0.153313 0.000000
0.056449 0.147208 0.000000
0.151302 0.142316 0.000000
0.247363 0.138579 0.000000
0.344582 0.135947 0.000000
0.442918 0.134379 0.000000
0.542332 0.133835 0.000000
0.642790 0.134284 0.000000
0.744264 0.135696 0.000000
0.000000 0.237495 0.000000
0.043849 0.235255 0.000000
0.142581 0.234064 0.000000
0.242379 0.233886 0.000000
0.343211 0.234688 0.000000
0.445048 0.236443 0.000000
0.547864 0.239124 0.000000
0.651636 0.242707 0.000000
0.756341 0.247172 0.000000
0.000000 0.334066 0.000000
0.043765 0.335218 0.000000
0.145961 0.337313 0.000000
0.249128 0.340325 0.000000
0.353242 0.344232 0.000000
0.458282 0.349012 0.000000
0.564229 0.354646 0.000000
0.671066 0.361116 0.000000
0.778774 0.368405 0.000000
0.000000 0.441645 0.000000
0.054970 0.445872 0.000000
0.160343 0.450965 0.000000
0.266616 0.456906 0.000000
0.373772 0.463676 0.000000
0.481794 0.471260 0.000000
0.590668 0.479641 0.000000
0.700378 0.488807 0.000000
0.810912 0.498744 0.000000
0.000000 0.559275 0.000000
0.076593 0.566343 0.000000
0.184927 0.574219 0.000000
0.294107 0.582888 0.000000
0.404119 0.592336 0.000000
0.514949 0.602550 0.000000
0.626586 0.613517 0.000000
0.739017 0.625226 0.003887
0.852232 0.637665 0.014850
0.000000 0.686239 0.000000
0.107968 0.695967 0.000000
0.219093 0.706456 0.000000
0.331020 0.717695 0.000000
0.443738 0.729670 0.007801
0.557236 0.742373 0.019004
0.671502 0.755791 0.030858
0.786528 0.769916 0.043352
0.902304 0.784738 0.056479
0.035560 0.821970 0.001021
0.148563 0.834211 0.011804
0.262341 0.847176 0.023245
0.376885 0.860853 0.035333
0.492185 0.875232 0.048058
0.608232 0.890305 0.061413
0.725016 0.906063 0.075386
0.842529 0.922497 0.089970
0.960763 0.939599 0.105158
0.041022 0.028256 0.122168
0.123315 0.011195 0.105382
0.208189 0.000000 0.091058
0.295092 0.000000 0.078646
0.383753 0.000000 0.067874
0.474001 0.000000 0.058570
0.565710 0.000000 0.050609
0.658787 0.000000 0.043897
0.753155 0.000000 0.038359
0.000000 0.079968 0.074545
0.080027 0.069692 0.064324
0.170819 0.060899 0.055521
0.263036 0.053478 0.048025
0.356590 0.047342 0.041749
0.451413 0.042421 0.036622
0.547445 0.038657 0.032586
0.644637 0.035999 0.029592
0.742945 0.034405 0.027597
0.000000 0.151100 0.045603
0.054562 0.145413 0.039752
0.149831 0.140920 0.035029
0.246291 0.137563 0.031378
0.343894 0.135297 0.028752
0.442600 0.134081 0.027111
0.542372 0.133878 0.026418
0.643179 0.134657 0.026641
0.744991 0.136389 0.027753
0.000000 0.236614 0.030306
0.043297 0.234735 0.028043
0.142395 0.233892 0.026751
0.242547 0.234050 0.026395
0.343723 0.235179 0.026945
0.445896 0.237251 0.028372
0.549039 0.240241 0.030653
0.653130 0.244126 0.033763
0.758148 0.248885 0.037682
0.000000 0.334350 0.026492
0.044400 0.335825 0.027364
0.146929 0.338234 0.029105
0.250420 0.341553 0.031690
0.354850 0.345758 0.035097
0.460201 0.350830 0.039305
0.566452 0.356750 0.044296
0.673587 0.363500 0.050052
0.781588 0.371064 0.056557
0.000000 0.442982 0.032836
0.056693 0.447506 0.036537
0.162373 0.452888 0.041033
0.268948 0.459113 0.046304
0.376400 0.466161 0.052334
0.484713 0.474017 0.059107
0.593872 0.482667 0.066609
0.703864 0.492096 0.074824
0.814675 0.502291 0.083741
0.000000 0.561584 0.048412
0.079328 0.568928 0.054715
0.187950 0.577075 0.061755
0.297414 0.586010 0.069518
0.407706 0.595720 0.077990
0.518811 0.606191 0.087158
0.630719 0.617411 0.097011
0.743418 0.629369 0.107536
0.856896 0.642054 0.118722
0.001066 0.689456 0.072521
0.111655 0.699444 0.081248
0.223054 0.710189 0.090667
0.335251 0.721679 0.100765
0.448235 0.733903 0.111532
0.561995 0.746850 0.122957
0.676520 0.760510 0.135029
0.791802 0.774872 0.147740
0.907830 0.789929 0.161078
0.039888 0.826045 0.104608
0.153155 0.838534 0.115616
0.267195 0.851741 0.127278
0.381997 0.865658 0.139583
0.497551 0.880274 0.152524
0.613849 0.895581 0.166089
0.730882 0.911569 0.180271
0.848641 0.928231 0.195061
0.967118 0.945558 0.210451
0.034656 0.022114 0.216128
0.117927 0.006014 0.200279
0.203530 0.000000 0.186645
0.291054 0.000000 0.174814
0.380271 0.000000 0.164557
0.471027 0.000000 0.155721
0.563210 0.000000 0.148194
0.656733 0.000000 0.141888
0.751525 0.000000 0.136734
0.000000 0.076303 0.170906
0.076734 0.066546 0.161182
0.168021 0.058230 0.152834
0.260701 0.051254 0.145761
0.354693 0.045538 0.139882
0.449933 0.041016 0.135132
0.546364 0.037632 0.131455
0.643939 0.035340 0.128805
0.742618 0.034098 0.127140
0.000000 0.149031 0.143486
0.052819 0.143756 0.138025
0.148498 0.139655 0.133672
0.245351 0.136674 0.130374
0.343333 0.134768 0.128086
0.442404 0.133900 0.126771
0.542531 0.134034 0.126393
0.643683 0.135140 0.126921
0.745831 0.137189 0.128327
0.000000 0.235858 0.129426
0.042870 0.234334 0.127497
0.142330 0.233835 0.126526
0.242833 0.234326 0.126481
0.344351 0.235778 0.127332
0.446855 0.238164 0.129052
0.550323 0.241461 0.131617
0.654731 0.245645 0.135004
0.760059 0.250696 0.139193
0.000000 0.334745 0.126689
0.045150 0.336540 0.127859
0.148008 0.339260 0.129889
0.251820 0.342883 0.132756
0.356565 0.347385 0.136437
0.462224 0.352747 0.140913
0.568777 0.358950 0.146166
0.676208 0.365979 0.152178
0.784500 0.373816 0.158933
0.000000 0.444421 0.134003
0.058521 0.449238 0.137976
0.164507 0.454909 0.142737
0.271381 0.461415 0.148268
0.379127 0.468739 0.154552
0.487729 0.476867 0.161574
0.597173 0.485782 0.169319
0.707444 0.495473 0.177774
0.818530 0.505926 0.186926
0.000000 0.563987 0.150469
0.082161 0.571606 0.157024
0.191071 0.580022 0.164311
0.300817 0.589222 0.172316
0.411386 0.599191 0.181026
0.522766 0.609918 0.190428
0.634944 0.621390 0.200510
0.747908 0.633596 0.211261
0.861649 0.646525 0.222670
0.004570 0.692763 0.175406
0.115436 0.703009 0.184369
0.227108 0.714009 0.194020
0.339573 0.725749 0.204347
0.452822 0.738220 0.215339
0.566843 0.751409 0.226985
0.681626 0.765309 0.239275
0.797162 0.779908 0.252200
0.913442 0.795198 0.265750
0.044306 0.830205 0.208273
0.157837 0.842939 0.219504
0.272137 0.856388 0.231385
0.387195 0.870543 0.243907
0.503003 0.885395 0.257061
0.619552 0.900934 0.270836
0.736832 0.917152 0.285226
0.854836 0.934041 0.300221
0.973555 0.951592 0.315813
0.028671 0.016349 0.310455
0.112802 0.001091 0.295428
0.199091 0.000000 0.282439
0.287211 0.000000 0.271163
0.376965 0.000000 0.261403
0.468217 0.000000 0.253022
0.560864 0.000000 0.245919
0.654825 0.000000 0.240012
0.750035 0.000000 0.235235
0.000000 0.072820 0.267442
0.073613 0.063566 0.258198
0.165383 0.055715 0.250293
0.258517 0.049175 0.243634
0.352940 0.043871 0.238145
0.448589 0.039741 0.233765
0.545414 0.036733 0.230442
0.643369 0.034802 0.228131
0.742414 0.033909 0.226792
0.000000 0.147105 0.241504
0.051217 0.142235 0.236425
0.147300 0.138519 0.232436
0.244541 0.135908 0.229486
0.342897 0.134359 0.227533
0.442331 0.133835 0.226539
0.542809 0.134302 0.226472
0.644302 0.135731 0.227301
0.746783 0.138095 0.229000
0.000000 0.235223 0.228661
0.042568 0.234051 0.227062
0.142385 0.233892 0.226409
0.243236 0.234713 0.226671
0.345092 0.236485 0.227820
0.447926 0.239183 0.229830
0.551715 0.242783 0.232676
0.656438 0.247264 0.236338
0.762075 0.252605 0.240794
0.000000 0.335249 0.226988
0.046012 0.337361 0.228453
0.149196 0.340391 0.230770
0.253328 0.344314 0.233916
0.358386 0.349110 0.237869
0.464350 0.354760 0.242611
0.571203 0.361246 0.248123
0.678928 0.368550 0.254389
0.787509 0.376658 0.261394
0.000000 0.445960 0.235263
0.060453 0.451069 0.239505
0.166743 0.457025 0.244529
0.273915 0.463811 0.250318
0.381954 0.471410 0.256855
0.490843 0.479807 0.264124
0.600569 0.488987 0.272112
0.711118 0.498938 0.280805
0.822478 0.509646 0.290190
0.000000 0.566484 0.252612
0.085092 0.574375 0.259417
0.194288 0.583059 0.266950
0.304315 0.592521 0.275196
0.415161 0.602749 0.284142
0.526813 0.613731 0.293776
0.639259 0.625453 0.304087
0.752488 0.637906 0.315062
0.866490 0.651078 0.326692
0.008169 0.696157 0.278372
0.119310 0.706661 0.287570
0.231252 0.717913 0.297452
0.343985 0.729903 0.308006
0.457497 0.742619 0.319221
0.571778 0.756051 0.331087
0.686818 0.770189 0.343593
0.802608 0.785024 0.356732
0.919138 0.800546 0.370492
0.048815 0.834449 0.312013
0.162608 0.847426 0.323466
0.277166 0.861117 0.335566
0.392480 0.875509 0.348304
0.508541 0.890596 0.361670
0.625338 0.906366 0.375655
0.742865 0.922813 0.390251
0.861113 0.939928 0.405449
0.980074 0.957702 0.421243
0.023010 0.010901 0.405093
0.107925 0.000000 0.390808
0.194863 0.000000 0.378429
0.283556 0.000000 0.367686
0.373832 0.000000 0.358408
0.465568 0.000000 0.350471
0.558669 0.000000 0.343782
0.653061 0.000000 0.338266
0.748682 0.000000 0.333860
0.000000 0.069513 0.364146
0.070659 0.060747 0.355369
0.162902 0.053351 0.347896
0.256482 0.047239 0.341642
0.351327 0.042340 0.336536
0.447382 0.038596 0.332521
0.544595 0.035959 0.329546
0.642924 0.034385 0.327569
0.742332 0.033836 0.326552
0.000000 0.145318 0.339653
0.049754 0.140846 0.334951
0.146235 0.137511 0.331319
0.243859 0.135265 0.328713
0.342586 0.134068 0.327089
0.442377 0.133884 0.326414
0.543203 0.134681 0.326654
0.645035 0.136430 0.327782
0.747845 0.139106 0.329770
0.000000 0.234710 0.328010
0.042388 0.233885 0.326735
0.142560 0.234062 0.326397
0.243755 0.235209 0.326963
0.345946 0.237299 0.328407
0.449107 0.240306 0.330703
0.553216 0.244207 0.333829
0.658251 0.248982 0.337763
0.764193 0.254612 0.342486
0.000000 0.335862 0.327389
0.046986 0.338288 0.329146
0.150494 0.341624 0.331747
0.254943 0.345846 0.335169
0.360310 0.350934 0.339392
0.466578 0.356870 0.344397
0.573729 0.363635 0.350167
0.681747 0.371214 0.356686
0.790615 0.379592 0.363938
0.000000 0.447599 0.336615
0.062489 0.452998 0.341125
0.169080 0.459238 0.346410
0.276549 0.466301 0.352455
0.384878 0.474173 0.359242
0.494053 0.482837 0.366757
0.604060 0.492281 0.374986
0.714886 0.502490 0.383915
0.826518 0.513453 0.393533
0.000000 0.569074 0.354841
0.088121 0.577236 0.361894
0.197600 0.586186 0.369671
0.307907 0.595910 0.378156
0.419028 0.606395 0.387337
0.530951 0.617629 0.397202
0.643664 0.629601 0.407740
0.757157 0.642299 0.418939
0.871420 0.655714 0.430789
0.011862 0.699640 0.381419
0.123276 0.710399 0.390850
0.235488 0.721903 0.400962
0.348487 0.734140 0.411741
0.462261 0.747101 0.423178
0.576801 0.760773 0.435263
0.692097 0.775149 0.447985
0.808139 0.790218 0.461335
0.924919 0.805972 0.475305
0.053412 0.838775 0.415829
0.167467 0.851996 0.427503
0.282283 0.865926 0.439821
0.397851 0.880555 0.452773
0.514163 0.895875 0.466350
0.631209 0.911876 0.480544
0.748982 0.928551 0.495345
0.867473 0.945890 0.510747
0.986674 0.963888 0.526740
0.017636 0.005734 0.500004
0.103278 0.000000 0.486407
0.190836 0.000000 0.474607
0.280083 0.000000 0.464378
0.370867 0.000000 0.455567
0.463076 0.000000 0.448064
0.556623 0.000000 0.441781
0.651439 0.000000 0.436648
0.747464 0.000000 0.432606
0.000000 0.066376 0.461012
0.067870 0.058087 0.452689
0.160576 0.051135 0.445639
0.254592 0.045442 0.439782
0.349855 0.040942 0.435053
0.446308 0.037579 0.431396
0.543904 0.035307 0.428764
0.642604 0.034085 0.427118
0.742370 0.033877 0.426419
0.000000 0.143669 0.437933
0.048428 0.139588 0.433600
0.145303 0.136628 0.430321
0.243305 0.134743 0.428053
0.342397 0.133893 0.426755
0.442544 0.134046 0.426394
0.543714 0.135170 0.426939
0.645881 0.137237 0.428362
0.749018 0.140221 0.430637
0.000000 0.234315 0.427470
0.042330 0.233835 0.426517
0.142853 0.234344 0.426489
0.244389 0.235814 0.427357
0.346912 0.238218 0.429093
0.450397 0.241531 0.431673
0.554823 0.245732 0.435075
0.660168 0.250799 0.439279
0.766414 0.256715 0.444266
0.000000 0.336583 0.427890
0.048071 0.339320 0.429936
0.151901 0.342959 0.432818
0.256663 0.347478 0.436514
0.362339 0.352856 0.441005
0.468909 0.359075 0.446272
0.576356 0.366119 0.452298
0.684664 0.373971 0.459067
0.793818 0.382616 0.466564
0.000000 0.449337 0.438058
0.064628 0.455023 0.442834
0.171519 0.461545 0.448379
0.279281 0.468885 0.454677
0.387899 0.477027 0.461713
0.497359 0.485958 0.469472
0.607645 0.495663 0.477940
0.718746 0.506129 0.487105
0.830650 0.517345 0.496953
0.000000 0.571757 0.457154
0.091247 0.580188 0.464455
0.201008 0.589402 0.472474
0.311593 0.599386 0.481197
0.422988 0.610127 0.490611
0.535180 0.621613 0.500706
0.648160 0.633832 0.511470
0.761915 0.646775 0.522891
0.876436 0.660431 0.534960
0.015648 0.703209 0.484545
0.127335 0.714223 0.494209
0.239815 0.725977 0.504548
0.353078 0.738461 0.515552
0.467114 0.751664 0.527210
0.581911 0.765577 0.539512
0.697461 0.780189 0.552449
0.813755 0.795492 0.566011
0.930784 0.811477 0.580189
0.058099 0.843185 0.519721
0.172413 0.856648 0.531615
0.287486 0.870816 0.544149
0.403308 0.885681 0.557314
0.519870 0.901233 0.571102
0.637164 0.917464 0.585502
0.755181 0.934365 0.600509
0.873914 0.951929 0.616112
0.993355 0.970148 0.632305
0.012526 0.000825 0.595166
0.098852 0.000000 0.582211
0.187004 0.000000 0.570966
0.276787 0.000000 0.561233
0.368066 0.000000 0.552877
0.460738 0.000000 0.545797
0.554723 0.000000 0.539912
0.649956 0.000000 0.535155
0.746381 0.000000 0.531473
0.000000 0.063405 0.558037
0.065241 0.055580 0.550157
0.158400 0.049064 0.543520
0.252847 0.043783 0.538053
0.348519 0.039675 0.533693
0.445365 0.036687 0.530389
0.543341 0.034776 0.528097
0.642406 0.033902 0.526776
0.742528 0.034031 0.526392
0.000000 0.142154 0.536340
0.047237 0.138460 0.532371
0.144500 0.135869 0.529440
0.242876 0.134340 0.527505
0.342330 0.133835 0.526529
0.442828 0.134320 0.526479
0.544339 0.135767 0.527325
0.646839 0.138148 0.529040
0.750301 0.141440 0.531600
0.000000 0.234039 0.527041
0.042392 0.233898 0.526406
0.143262 0.234737 0.526685
0.245136 0.236527 0.527850
0.347989 0.239243 0.529876
0.451796 0.242860 0.532737
0.556536 0.247357 0.536414
0.662189 0.252714 0.540886
0.768737 0.258913 0.546134
0.000000 0.337410 0.528489
0.049265 0.340456 0.530822
0.153415 0.344396 0.533983
0.258489 0.349209 0.537951
0.364471 0.354874 0.542708
0.471340 0.361376 0.548234
0.579081 0.368695 0.554514
0.687679 0.376818 0.561532
0.797117 0.385730 0.569274
0.000000 0.451173 0.539592
0.066870 0.457145 0.544631
0.174058 0.463947 0.550434
0.282113 0.471561 0.556985
0.391018 0.479972 0.564268
0.500760 0.489167 0.572269
0.611324 0.499133 0.580975
0.722699 0.509855 0.590373
0.834873 0.521323 0.600451
0.000000 0.574531 0.559552
0.094469 0.583230 0.567098
0.204511 0.592707 0.575358
0.315372 0.602949 0.584317
0.427039 0.613944 0.593964
0.539501 0.625681 0.604287
0.652745 0.638147 0.615275
0.766761 0.651333 0.626917
0.881540 0.665228 0.639204
0.019527 0.706866 0.587750
0.131485 0.718132 0.597645
0.244232 0.730135 0.608211
0.357759 0.742865 0.619438
0.472054 0.756310 0.631316
0.587108 0.770462 0.643835
0.702912 0.785309 0.656985
0.819456 0.800845 0.670757
0.936732 0.817059 0.685143
0.062875 0.847678 0.623688
0.177447 0.861381 0.635800
0.292776 0.875787 0.648550
0.408850 0.890886 0.661927
0.525661 0.906670 0.675924
0.643202 0.923129 0.690531
0.761463 0.940256 0.705741
0.880437 0.958043 0.721546
1.000000 0.976483 0.737938
0.007661 0.000000 0.690559
0.094635 0.000000 0.678212
0.183359 0.000000 0.667498
0.273663 0.000000 0.658246
0.365425 0.000000 0.650334
0.458552 0.000000 0.643668
0.552968 0.000000 0.638173
0.648611 0.000000 0.633787
0.745429 0.000000 0.630458
0.000000 0.060596 0.655216
0.062769 0.053225 0.647767
0.156373 0.047136 0.641535
0.251242 0.042259 0.636451
0.347319 0.038537 0.632455
0.444553 0.035920 0.629499
0.542903 0.034365 0.627541
0.642331 0.033835 0.626542
0.742803 0.034297 0.626470
0.000000 0.140773 0.634873
0.046180 0.137458 0.631261
0.143825 0.135233 0.628673
0.242572 0.134055 0.627068
0.342384 0.133890 0.626410
0.443229 0.134705 0.626667
0.545079 0.136472 0.627811
0.647907 0.139165 0.629816
0.751691 0.142761 0.632658
0.000000 0.233880 0.626721
0.042573 0.234075 0.626399
0.143787 0.235240 0.626983
0.245996 0.237347 0.628443
0.349176 0.240371 0.630755
0.453302 0.244289 0.633896
0.558354 0.249081 0.637845
0.664314 0.254726 0.642582
0.771162 0.261207 0.648090
0.000000 0.338343 0.629187
0.050569 0.341695 0.631803
0.155035 0.345934 0.635241
0.260420 0.351038 0.639479
0.366705 0.356989 0.644499
0.473872 0.363770 0.650283
0.581906 0.371365 0.656816
0.690790 0.379757 0.664081
0.800512 0.388933 0.672065
0.000000 0.453108 0.641217
0.069213 0.459363 0.646517
0.176697 0.466442 0.652576
0.285043 0.474329 0.659377
0.394233 0.483008 0.666905
0.504256 0.492466 0.675147
0.615097 0.502690 0.684090
0.726745 0.513667 0.693720
0.839186 0.525385 0.704027
0.000000 0.577397 0.662034
0.097787 0.586362 0.669824
0.208109 0.596100 0.678322
0.319245 0.606599 0.687517
0.431183 0.617848 0.697395
0.543911 0.629833 0.707945
0.657419 0.642545 0.719156
0.771695 0.655973 0.731018
0.886731 0.670107 0.743521
0.023499 0.710608 0.691034
0.135726 0.722126 0.701158
0.248739 0.734377 0.711950
0.362528 0.747351 0.723400
0.477082 0.761037 0.735496
0.592392 0.775426 0.748230
0.708448 0.790509 0.761593
0.825242 0.806275 0.775574
0.942764 0.822718 0.790167
0.067738 0.852252 0.727729
0.182569 0.866195 0.740059
0.298151 0.880837 0.753023
0.414477 0.896170 0.766611
0.531537 0.912184 0.780816
0.649323 0.928871 0.795629
0.767827 0.946223 0.811042
0.887042 0.964232 0.827047
1.000000 0.982892 0.843637
0.003027 0.000000 0.786169
0.090619 0.000000 0.774400
0.179896 0.000000 0.764199
0.270707 0.000000 0.755414
0.362942 0.000000 0.747935
0.456514 0.000000 0.741674
0.551353 0.000000 0.736562
0.647401 0.000000 0.732540
0.744607 0.000000 0.729560
0.000000 0.057944 0.752545
0.060451 0.051017 0.745518
0.154492 0.045347 0.739683
0.249777 0.040868 0.734974
0.346252 0.037526 0.731337
0.443870 0.035274 0.728724
0.542590 0.034072 0.727096
0.642376 0.033882 0.726415
0.743196 0.034674 0.726650
0.000000 0.139522 0.733529
0.045255 0.136583 0.730270
0.143278 0.134717 0.728020
0.242390 0.133887 0.726740
0.342556 0.134058 0.726396
0.443746 0.135200 0.726958
0.545931 0.137284 0.728397
0.649087 0.140286 0.730688
0.753190 0.144183 0.733809
0.000000 0.233835 0.726508
0.042872 0.234363 0.726497
0.144427 0.235851 0.727381
0.246969 0.238272 0.729134
0.350472 0.241602 0.731730
0.454915 0.245819 0.735147
0.560277 0.250903 0.739366
0.666540 0.256834 0.744367
0.773686 0.263595 0.750133
0.000000 0.339381 0.729982
0.051982 0.343036 0.732880
0.156762 0.347571 0.736591
0.262454 0.352965 0.741097
0.369041 0.359200 0.746378
0.476504 0.366259 0.752419
0.584828 0.374126 0.759202
0.693999 0.382786 0.766712
0.804001 0.392225 0.774937
0.000000 0.455139 0.742931
0.071657 0.461675 0.748490
0.179436 0.469030 0.754803
0.288070 0.477188 0.761853
0.397545 0.486133 0.769625
0.507847 0.495853 0.778106
0.618963 0.506334 0.787284
0.730881 0.517564 0.797145
0.843590 0.529531 0.807679
0.000000 0.580354 0.764599
0.101200 0.589583 0.772631
0.211800 0.599581 0.781367
0.323210 0.610336 0.790795
0.435417 0.621836 0.800903
0.548411 0.634069 0.811678
0.662181 0.647025 0.823112
0.776717 0.660694 0.835193
0.892008 0.675066 0.847911
0.027562 0.714437 0.794397
0.140057 0.726205 0.804749
0.253335 0.738703 0.815765
0.367385 0.751920 0.827436
0.482197 0.765846 0.839750
0.597761 0.780471 0.852698
0.714069 0.795787 0.866272
0.831111 0.811784 0.880462
0.948880 0.828455 0.895260
0.072690 0.856908 0.831845
0.187777 0.871090 0.844391
0.303613 0.885967 0.857568
0.420189 0.901532 0.871367
0.537496 0.917776 0.885779
0.655527 0.934689 0.900797
0.774273 0.952266 0.916411
0.893728 0.970497 0.932616
1.000000 0.989375 0.949402
