asset_packs/ivy_bound_trunk_canopy/mood/grade_33.cube
TITLE "ivy_bound_trunk_canopy mood grade"
# Generated by construction_code_v2/gen_asset_packs.py. Domain: display-referred sRGB in, sRGB out.
LUT_3D_SIZE 9
DOMAIN_MIN 0.0 0.0 0.0
DOMAIN_MAX 1.0 1.0 1.0
0.007148 0.012630 0.000000
0.114245 0.000000 0.000000
0.225295 0.000000 0.000000
0.338629 0.000000 0.000000
0.453715 0.000000 0.000000
0.570261 0.000000 0.000000
0.688075 0.000000 0.000000
0.807020 0.000000 0.000000
0.926992 0.000000 0.000000
0.000000 0.083415 0.000000
0.066964 0.071280 0.000000
0.183991 0.060538 0.000000
0.302230 0.051019 0.000000
0.421560 0.042603 0.000000
0.541885 0.035192 0.000000
0.663130 0.028713 0.000000
0.785232 0.023102 0.000000
0.908138 0.018306 0.000000
0.000000 0.175364 0.000000
0.036232 0.167324 0.000000
0.156900 0.160261 0.000000
0.278463 0.154104 0.000000
0.400864 0.148795 0.000000
0.524052 0.144285 0.000000
0.647986 0.140532 0.000000
0.772628 0.137498 0.000000
0.897946 0.135151 0.000000
0.000000 0.279607 0.000000
0.016600 0.274594 0.000000
0.140064 0.270364 0.000000
0.264260 0.266877 0.000000
0.389151 0.264097 0.000000
0.514708 0.261993 0.000000
0.640902 0.260537 0.000000
0.767709 0.259705 0.000000
0.895106 0.259475 0.000000
0.000000 0.393316 0.000000
0.005763 0.390785 0.000000
0.131555 0.388920 0.000000
0.257975 0.387695 0.000000
0.385000 0.387084 0.000000
0.512606 0.387068 0.000000
0.640776 0.387625 0.000000
0.769490 0.388738 0.000000
0.898733 0.390390 0.000000
0.000000 0.514934 0.000000
0.002367 0.514542 0.000000
0.130181 0.514736 0.000000
0.258551 0.515498 0.000000
0.387459 0.516809 0.000000
0.516890 0.518653 0.000000
0.646828 0.521016 0.000000
0.777260 0.523884 0.000000
0.908173 0.527244 0.000000
0.000000 0.643444 0.000000
0.005497 0.644951 0.000000
0.135114 0.646986 0.000000
0.265234 0.649534 0.000000
0.395842 0.652582 0.000000
0.526927 0.656118 0.000000
0.658476 0.660129 0.000000
0.790478 0.664605 0.000000
0.922924 0.669534 0.000000
0.000000 0.778118 0.000000
0.014488 0.781345 0.000000
0.145743 0.785055 0.000000
0.277458 0.789237 0.000000
0.409623 0.793879 0.000000
0.542227 0.798971 0.000000
0.675261 0.804505 0.000000
0.808716 0.810470 0.000000
0.942584 0.816859 0.000000
0.000000 0.918405 0.000000
0.028826 0.923212 0.000000
0.161588 0.928467 0.000000
0.294776 0.934158 0.000000
0.428382 0.940279 0.000000
0.562397 0.946820 0.000000
0.696814 0.953774 0.000000
0.831625 0.961132 0.000000
0.966822 0.968888 0.000000
0.000000 0.004840 0.090881
0.108338 0.000000 0.074042
0.220251 0.000000 0.060065
0.334223 0.000000 0.047977
0.449832 0.000000 0.037354
0.566826 0.000000 0.027948
0.685038 0.000000 0.019589
0.804342 0.000000 0.012153
0.924644 0.000000 0.005544
0.000000 0.079125 0.043955
0.063252 0.067485 0.033799
0.180706 0.057175 0.024791
0.299328 0.048043 0.016780
0.419005 0.039977 0.009655
0.539650 0.032891 0.003328
0.661193 0.026713 0.000000
0.783573 0.021384 0.000000
0.906743 0.016855 0.000000
0.000000 0.172519 0.014089
0.033796 0.164819 0.007263
0.154776 0.158071 0.001208
0.276629 0.152208 0.000000
0.399303 0.147176 0.000000
0.522749 0.142928 0.000000
0.646927 0.139422 0.000000
0.771802 0.136625 0.000000
0.897343 0.134505 0.000000
0.000000 0.277814 0.000000
0.015134 0.273072 0.000000
0.138851 0.269099 0.000000
0.263287 0.265855 0.000000
0.388408 0.263308 0.000000
0.514184 0.261427 0.000000
0.640589 0.260186 0.000000
0.767599 0.259561 0.000000
0.895191 0.259530 0.000000
0.000000 0.392380 0.000000
0.005101 0.390079 0.000000
0.131109 0.388434 0.000000
0.257736 0.387420 0.000000
0.384961 0.387013 0.000000
0.512761 0.387193 0.000000
0.641117 0.387941 0.000000
0.770013 0.389239 0.000000
0.899431 0.391071 0.000000
0.000000 0.514734 0.000000
0.002399 0.514543 0.000000
0.130404 0.514932 0.000000
0.258959 0.515882 0.000000
0.388046 0.517376 0.000000
0.517651 0.519398 0.000000
0.647759 0.521934 0.000000
0.778355 0.524971 0.000000
0.909428 0.528494 0.000000
0.000000 0.643895 0.000000
0.006148 0.645583 0.000000
0.135938 0.647794 0.000000
0.266225 0.650514 0.000000
0.396996 0.653729 0.000000
0.528240 0.657427 0.000000
0.659944 0.661597 0.000000
0.792098 0.666228 0.000000
0.924692 0.671310 0.000000
0.000000 0.779159 0.000000
0.015700 0.782551 0.000000
0.147113 0.786423 0.000000
0.278982 0.790762 0.000000
0.411297 0.795558 0.000000
0.544048 0.800802 0.000000
0.677226 0.806483 0.000000
0.810822 0.812593 0.000000
0.944828 0.819124 0.000000
0.000000 0.919987 0.000000
0.030554 0.924947 0.000000
0.163461 0.930351 0.000000
0.296793 0.936189 0.000000
0.430539 0.942454 0.000000
0.564691 0.949136 0.000000
0.699242 0.956227 0.000000
0.834185 0.963722 0.000000
0.969512 0.971611 0.003225
0.000000 0.000000 0.212248
0.102764 0.000000 0.196575
0.215442 0.000000 0.183306
0.330006 0.000000 0.171751
0.446108 0.000000 0.161565
0.563532 0.000000 0.152530
0.682126 0.000000 0.144497
0.801779 0.000000 0.137351
0.922402 0.000000 0.131005
0.000000 0.075011 0.167897
0.059690 0.063843 0.158151
0.177555 0.053948 0.149496
0.296547 0.045189 0.141797
0.416562 0.037465 0.134952
0.537519 0.030694 0.128879
0.659352 0.024810 0.123511
0.782006 0.019758 0.118794
0.905433 0.015491 0.114681
0.000000 0.169793 0.139211
0.031469 0.162425 0.132655
0.152752 0.155984 0.126846
0.274890 0.150409 0.121721
0.397831 0.145648 0.117229
0.521529 0.141656 0.113325
0.645948 0.138395 0.109971
0.771052 0.135831 0.107133
0.896813 0.133934 0.104780
0.000000 0.276115 0.120015
0.013756 0.271639 0.115742
0.137721 0.267917 0.112042
0.262393 0.264914 0.108879
0.387740 0.262596 0.106221
0.513732 0.260935 0.104039
0.640345 0.259906 0.102307
0.767555 0.259485 0.101002
0.895341 0.259651 0.100103
0.000000 0.391523 0.107855
0.004512 0.389448 0.105373
0.130734 0.388020 0.103358
0.257566 0.387214 0.101784
0.384989 0.387010 0.100629
0.512980 0.387385 0.099873
0.641521 0.388321 0.099497
0.770596 0.389802 0.099485
0.900188 0.391812 0.099820
0.000000 0.514603 0.101316
0.002497 0.514611 0.100308
0.130691 0.515193 0.099693
0.259428 0.516329 0.099451
0.388693 0.518004 0.099567
0.518470 0.520203 0.100025
0.648745 0.522910 0.100811
0.779505 0.526113 0.101911
0.910737 0.529800 0.103314
0.000000 0.644409 0.099453
0.006859 0.646276 0.099695
0.136819 0.648661 0.100274
0.267272 0.651551 0.101176
0.398205 0.654931 0.102387
0.529606 0.658791 0.103897
0.661464 0.663119 0.105694
0.793768 0.667904 0.107767
0.926509 0.673137 0.110106
0.000000 0.780257 0.101581
0.016966 0.783813 0.102903
0.148535 0.787844 0.104519
0.280557 0.792340 0.106417
0.413021 0.797289 0.108588
0.545919 0.802682 0.111022
0.679240 0.808510 0.113709
0.812975 0.814764 0.116641
0.947118 0.821436 0.119810
0.000000 0.921621 0.107176
0.032331 0.926733 0.109444
0.165384 0.932285 0.111971
0.298857 0.938269 0.114749
0.432742 0.944677 0.117768
0.567031 0.951499 0.121021
0.701716 0.958728 0.124500
0.836790 0.966357 0.128198
0.972245 0.974379 0.132108
0.000000 0.000000 0.334112
0.097477 0.000000 0.319377
0.210848 0.000000 0.306742
0.325964 0.000000 0.295682
0.442535 0.000000 0.285907
0.560372 0.000000 0.277227
0.679337 0.000000 0.269506
0.799328 0.000000 0.262641
0.920263 0.000000 0.256550
0.000000 0.071066 0.291986
0.056274 0.060348 0.282628
0.174535 0.050851 0.274311
0.293884 0.042454 0.266913
0.414227 0.035062 0.260338
0.535489 0.028600 0.254511
0.657606 0.023004 0.249370
0.780528 0.018223 0.244863
0.904208 0.014213 0.240945
0.000000 0.167182 0.264428
0.029248 0.160137 0.258133
0.150828 0.153996 0.252563
0.273244 0.148703 0.247658
0.396446 0.144208 0.243371
0.520393 0.140468 0.239657
0.645049 0.137447 0.236482
0.770379 0.135113 0.233812
0.896356 0.133437 0.231618
0.000000 0.274508 0.246028
0.012464 0.270292 0.241954
0.136672 0.266818 0.238441
0.261577 0.264051 0.235453
0.387146 0.261959 0.232959
0.513352 0.260516 0.230933
0.640170 0.259696 0.229348
0.767578 0.259476 0.228183
0.895556 0.259837 0.227418
0.000000 0.390744 0.234489
0.003997 0.388892 0.232169
0.130429 0.387678 0.230306
0.257464 0.387079 0.228877
0.385082 0.387073 0.227860
0.513262 0.387641 0.227235
0.641986 0.388764 0.226984
0.771238 0.390426 0.227091
0.901003 0.392612 0.227541
0.000000 0.514540 0.228460
0.002660 0.514745 0.227588
0.131040 0.515517 0.227101
0.259959 0.516839 0.226983
0.389399 0.518693 0.227216
0.519347 0.521066 0.227787
0.649788 0.523943 0.228681
0.780710 0.527312 0.229885
0.912099 0.531160 0.231388
0.000000 0.644984 0.227028
0.007627 0.647029 0.227386
0.137756 0.649587 0.228076
0.268374 0.652644 0.229084
0.399467 0.656189 0.230398
0.531025 0.660209 0.232007
0.663035 0.664693 0.233899
0.795489 0.669631 0.236063
0.928376 0.675014 0.238490
0.000000 0.781410 0.229528
0.018286 0.785129 0.230951
0.150010 0.789320 0.232663
0.282183 0.793970 0.234655
0.414796 0.799071 0.236917
0.547838 0.804613 0.239438
0.681301 0.810587 0.242209
0.815176 0.816984 0.245222
0.949455 0.823796 0.248470
0.000000 0.923307 0.235448
0.034159 0.928570 0.237805
0.167355 0.934270 0.240418
0.300969 0.940398 0.243278
0.434992 0.946947 0.246378
0.569416 0.953908 0.249709
0.704234 0.961274 0.253263
0.839438 0.969038 0.257034
0.975022 0.977192 0.261014
0.000000 0.000000 0.456351
0.092448 0.000000 0.442416
0.206454 0.000000 0.430358
0.322090 0.000000 0.419761
0.439109 0.000000 0.410376
0.557342 0.000000 0.402035
0.676666 0.000000 0.394615
0.796986 0.000000 0.388021
0.918225 0.000000 0.382176
0.000000 0.067280 0.416214
0.052997 0.056992 0.407225
0.171639 0.047881 0.399232
0.291336 0.039835 0.392123
0.411998 0.032767 0.385810
0.533557 0.026605 0.380222
0.655953 0.021292 0.375302
0.779137 0.016777 0.371000
0.903066 0.013020 0.367273
0.000000 0.164684 0.389736
0.027130 0.157953 0.383695
0.148999 0.152106 0.378356
0.271688 0.147089 0.373667
0.395148 0.142855 0.369578
0.519339 0.139363 0.366052
0.644227 0.136579 0.363051
0.769780 0.134472 0.360546
0.895971 0.133012 0.358508
0.000000 0.272991 0.372111
0.011255 0.269031 0.368231
0.135704 0.265801 0.364900
0.260837 0.263266 0.362083
0.386626 0.261398 0.359751
0.513042 0.260169 0.357878
0.640063 0.259555 0.356438
0.767667 0.259535 0.355411
0.895833 0.260089 0.354777
0.000000 0.390042 0.361180
0.003555 0.388409 0.359017
0.130194 0.387406 0.357304
0.257429 0.387011 0.356017
0.385240 0.387202 0.355136
0.513607 0.387961 0.354640
0.642512 0.389269 0.354513
0.771940 0.391110 0.354738
0.901876 0.393470 0.355300
0.000000 0.514545 0.355650
0.002887 0.514945 0.354911
0.131452 0.515905 0.354552
0.260549 0.517409 0.354555
0.390164 0.519441 0.354904
0.520281 0.521987 0.355586
0.650886 0.525033 0.356587
0.781968 0.528565 0.357894
0.913514 0.532574 0.359495
0.000000 0.645620 0.354643
0.008454 0.647841 0.355115
0.138750 0.650570 0.355914
0.269531 0.653794 0.357028
0.400783 0.657502 0.358444
0.532496 0.661680 0.360149
0.664658 0.666320 0.362135
0.797260 0.671410 0.364389
0.930292 0.676941 0.366904
0.000000 0.782620 0.357509
0.019659 0.786500 0.359032
0.151536 0.790848 0.360840
0.283860 0.795653 0.362925
0.416619 0.800904 0.365275
0.549805 0.806594 0.367882
0.683409 0.812712 0.370737
0.817422 0.819251 0.373831
0.951837 0.826202 0.377156
0.000000 0.925045 0.363750
0.036035 0.930457 0.366195
0.169374 0.936303 0.368893
0.303128 0.942576 0.371836
0.437288 0.949265 0.375015
0.571847 0.956365 0.378422
0.706797 0.963866 0.382051
0.842131 0.971763 0.385893
0.977842 0.980048 0.389943
0.000000 0.000000 0.578900
0.087651 0.000000 0.565668
0.202246 0.000000 0.554141
0.318374 0.000000 0.543978
0.435822 0.000000 0.534964
0.554437 0.000000 0.526948
0.674109 0.000000 0.519818
0.794749 0.000000 0.513486
0.916287 0.000000 0.507882
0.000000 0.063646 0.540573
0.049853 0.053773 0.531937
0.168865 0.045034 0.524255
0.288898 0.037329 0.517425
0.409873 0.030575 0.511365
0.531722 0.024708 0.506010
0.654390 0.019671 0.501305
0.777832 0.015418 0.497203
0.902006 0.011909 0.493663
0.000000 0.162295 0.515133
0.025112 0.155871 0.509337
0.147265 0.150312 0.504225
0.270221 0.145566 0.499744
0.393933 0.141588 0.495851
0.518365 0.138340 0.492507
0.643482 0.135789 0.489678
0.769255 0.133905 0.487334
0.895656 0.132660 0.485449
0.000000 0.271562 0.498261
0.010130 0.267854 0.494572
0.134815 0.264864 0.491419
0.260174 0.262559 0.488770
0.386178 0.260910 0.486596
0.512802 0.259892 0.484872
0.640023 0.259482 0.483575
0.767820 0.259659 0.482684
0.896174 0.260404 0.482179
0.000000 0.389415 0.487925
0.003184 0.387999 0.485918
0.130028 0.387205 0.484352
0.257461 0.387011 0.483205
0.385462 0.387397 0.482456
0.514014 0.388344 0.482087
0.643099 0.389835 0.482082
0.772701 0.391854 0.482423
0.902805 0.394387 0.483097
0.000000 0.514617 0.482887
0.003177 0.515209 0.482279
0.131925 0.516356 0.482044
0.261200 0.518041 0.482166
0.390986 0.520249 0.482631
0.521270 0.522966 0.483422
0.652039 0.526178 0.484528
0.783280 0.529874 0.485937
0.914982 0.534041 0.487636
0.000000 0.646316 0.482297
0.009338 0.648711 0.482882
0.139800 0.651610 0.483789
0.270742 0.655000 0.485007
0.402152 0.658868 0.486522
0.534018 0.663205 0.488324
0.666331 0.667999 0.490402
0.799080 0.673239 0.492746
0.932256 0.678918 0.495347
0.000000 0.783884 0.485525
0.021084 0.787925 0.487146
0.153114 0.792429 0.489049
0.285587 0.797387 0.491225
0.418492 0.802788 0.493664
0.551821 0.808624 0.496356
0.685565 0.814886 0.499292
0.819715 0.821566 0.502466
0.954264 0.828655 0.505868
0.000000 0.926833 0.492083
0.037961 0.932394 0.494615
0.171442 0.938386 0.497397
0.305334 0.944801 0.500421
0.439631 0.951631 0.503678
0.574323 0.958868 0.507161
0.709404 0.966504 0.510863
0.844867 0.974534 0.514777
0.980705 0.982949 0.518896
0.000000 0.000000 0.701716
0.083068 0.000000 0.689114
0.198214 0.000000 0.678081
0.314811 0.000000 0.668328
0.432669 0.000000 0.659667
0.551655 0.000000 0.651963
0.671664 0.000000 0.645113
0.792616 0.000000 0.639036
0.914444 0.000000 0.633665
0.000000 0.060158 0.665057
0.046840 0.050683 0.656758
0.166209 0.042306 0.649375
0.286570 0.034932 0.642815
0.407848 0.028486 0.637002
0.529981 0.022907 0.631873
0.652917 0.018141 0.627378
0.776612 0.014145 0.623471
0.901026 0.010880 0.620113
0.000000 0.160013 0.640616
0.023193 0.153889 0.635058
0.145624 0.148611 0.630166
0.268841 0.144131 0.625889
0.392802 0.140405 0.622187
0.517470 0.137397 0.619021
0.642813 0.135076 0.616360
0.768802 0.133411 0.614175
0.895411 0.132379 0.612441
0.000000 0.270220 0.624477
0.009085 0.266760 0.620974
0.134003 0.264006 0.617995
0.259584 0.261926 0.615511
0.385802 0.260495 0.613493
0.512631 0.259686 0.611916
0.640050 0.259478 0.610759
0.768038 0.259850 0.610001
0.896576 0.260783 0.609623
0.000000 0.388863 0.614723
0.002883 0.387661 0.612869
0.129929 0.387073 0.611448
0.257558 0.387078 0.610438
0.385748 0.387657 0.609820
0.514483 0.388790 0.609577
0.643745 0.390462 0.609691
0.773519 0.392658 0.610147
0.903791 0.395362 0.610930
0.000000 0.514755 0.610169
0.003530 0.515537 0.609689
0.132459 0.516869 0.609578
0.261909 0.518733 0.609818
0.391866 0.521115 0.610395
0.522316 0.524002 0.611295
0.653247 0.527380 0.612505
0.784645 0.531237 0.614013
0.916501 0.535562 0.615808
0.000000 0.647072 0.609990
0.010279 0.649640 0.610686
0.140905 0.652707 0.611700
0.272007 0.656260 0.613020
0.403573 0.660289 0.614634
0.535593 0.664782 0.616531
0.668055 0.669729 0.618700
0.800950 0.675119 0.621132
0.934268 0.680945 0.623818
0.000000 0.785204 0.613574
0.022562 0.789403 0.615292
0.154743 0.794062 0.617289
0.287364 0.799172 0.619555
0.420414 0.804722 0.622081
0.553885 0.810703 0.624857
0.687768 0.817108 0.627875
0.822054 0.823928 0.631127
0.956737 0.831155 0.634605
0.000000 0.928673 0.620445
0.039935 0.934381 0.623063
0.173556 0.940518 0.625928
0.307587 0.947074 0.629032
0.442018 0.954043 0.632367
0.576844 0.961417 0.635926
0.712055 0.969187 0.639700
0.847646 0.977349 0.643684
0.983610 0.985894 0.647871
0.000000 0.000000 0.824767
0.078684 0.000000 0.812740
0.194349 0.000000 0.802167
0.311392 0.000000 0.792803
0.429646 0.000000 0.784481
0.548990 0.000000 0.777077
0.669328 0.000000 0.770498
0.790584 0.000000 0.764667
0.912697 0.000000 0.759522
0.000000 0.056811 0.789660
0.043951 0.047721 0.781684
0.163666 0.039694 0.774591
0.284347 0.032642 0.768292
0.405921 0.026497 0.762717
0.528333 0.021199 0.757809
0.651531 0.016700 0.753518
0.775474 0.012956 0.749802
0.900125 0.009931 0.746623
0.000000 0.157835 0.766182
0.021370 0.152004 0.760856
0.144073 0.147002 0.756178
0.267547 0.142783 0.752101
0.391752 0.139305 0.748584
0.516652 0.136533 0.745593
0.642218 0.134438 0.743097
0.768420 0.132991 0.741068
0.895235 0.132167 0.739481
0.000000 0.268964 0.750758
0.008121 0.265747 0.747436
0.133267 0.263225 0.744629
0.259068 0.261369 0.742306
0.385496 0.260151 0.740440
0.512528 0.259549 0.739009
0.640142 0.259540 0.737989
0.768319 0.260105 0.737362
0.897041 0.261225 0.737110
0.000000 0.388384 0.741575
0.002652 0.387393 0.739870
0.129898 0.387009 0.738591
0.257719 0.387211 0.737716
0.386097 0.387980 0.737228
0.515012 0.389298 0.737107
0.644450 0.391150 0.737339
0.774394 0.393520 0.737908
0.904833 0.396394 0.738800
0.000000 0.514958 0.737495
0.003945 0.515929 0.737142
0.133053 0.517443 0.737152
0.262677 0.519485 0.737508
0.392803 0.522040 0.738196
0.523417 0.525095 0.739203
0.654508 0.528636 0.740515
0.786063 0.532654 0.742122
0.918071 0.537135 0.744012
0.000000 0.647887 0.737721
0.011276 0.650626 0.738526
0.142065 0.653859 0.739646
0.273326 0.657576 0.741067
0.405047 0.661763 0.742778
0.537218 0.666412 0.744768
0.669828 0.671510 0.747028
0.802868 0.677049 0.749548
0.936328 0.683021 0.752318
0.000000 0.786578 0.741657
0.024091 0.790934 0.743471
0.156423 0.795747 0.745560
0.289191 0.801007 0.747916
0.422385 0.806705 0.750527
0.555996 0.812831 0.753387
0.690017 0.819378 0.756485
0.824439 0.826337 0.759814
0.959254 0.833700 0.763367
0.000000 0.930563 0.748837
0.041957 0.936417 0.751540
0.175718 0.942698 0.754487
0.309886 0.949395 0.757671
0.444452 0.956502 0.761082
0.579409 0.964011 0.764715
0.714750 0.971916 0.768561
0.850468 0.980208 0.772615
0.986558 0.988882 0.776869
0.000000 0.000000 0.948030
0.074487 0.000000 0.936532
0.190642 0.000000 0.926392
0.308112 0.000000 0.917398
0.426749 0.000000 0.909400
0.546439 0.000000 0.902286
0.667097 0.000000 0.895968
0.788651 0.000000 0.890377
0.911042 0.000000 0.885453
0.000000 0.053598 0.914378
0.041184 0.044880 0.906712
0.161235 0.037193 0.899897
0.282227 0.030457 0.893852
0.404092 0.024606 0.888510
0.526775 0.019584 0.883816
0.650231 0.015346 0.879725
0.774418 0.011850 0.876195
0.899302 0.009062 0.873192
0.000000 0.155759 0.891829
0.019641 0.150215 0.886729
0.142611 0.145484 0.882259
0.266337 0.141520 0.878377
0.390782 0.138286 0.875042
0.515912 0.135748 0.872223
0.641696 0.133875 0.869888
0.768109 0.132643 0.868012
0.895127 0.132025 0.866570
0.000000 0.267791 0.877101
0.007236 0.264814 0.873958
0.132608 0.262522 0.871318
0.258624 0.260885 0.869153
0.385260 0.259879 0.867438
0.512492 0.259480 0.866148
0.640299 0.259668 0.865264
0.768663 0.260423 0.864767
0.897566 0.261728 0.864637
0.000000 0.387978 0.868478
0.002489 0.387196 0.866920
0.129933 0.387013 0.865781
0.257945 0.387410 0.865039
0.386507 0.388367 0.864678
0.515602 0.389868 0.864679
0.645213 0.391897 0.865026
0.775327 0.394440 0.865707
0.905930 0.397483 0.866706
0.000000 0.515226 0.864865
0.004422 0.516383 0.864637
0.133706 0.518078 0.864766
0.263502 0.520296 0.865236
0.393796 0.523022 0.866034
0.524573 0.526243 0.867146
0.655823 0.529948 0.868560
0.787533 0.534124 0.870264
0.919693 0.538761 0.872248
0.000000 0.648761 0.865490
0.012328 0.651669 0.866403
0.143279 0.655068 0.867626
0.274698 0.658946 0.869147
0.406573 0.663291 0.870954
0.538894 0.668093 0.873037
0.671651 0.673342 0.875386
0.804835 0.679029 0.877992
0.938436 0.685145 0.880845
0.000000 0.788005 0.869772
0.025672 0.792518 0.871681
0.158153 0.797484 0.873862
0.291066 0.802894 0.876306
0.424403 0.808738 0.879002
0.558154 0.815008 0.881944
0.692312 0.821695 0.885121
0.826869 0.828792 0.888527
0.961816 0.836292 0.892155
0.000000 0.932503 0.877259
0.044026 0.938503 0.880045
0.177927 0.944926 0.883074
0.312230 0.951763 0.886335
0.446930 0.959008 0.889823
0.582019 0.966652 0.893529
0.717488 0.974689 0.897446
0.853333 0.983111 0.901569
0.989547 0.991914 0.905890
