asset_packs/ivy_bound_trunk_canopy/mood/grade_33.cube
TITLE "ivy_bound_trunk_canopy mood grade"
# Generated by construction_code_v2/gen_asset_packs.py. Domain: display-referred sRGB in, sRGB out.
LUT_3D_SIZE 33
DOMAIN_MIN 0.0 0.0 0.0
DOMAIN_MAX 1.0 1.0 1.0
0.007148 0.012630 0.000000
0.033249 0.006775 0.000000
0.059936 0.001507 0.000000
0.086961 0.000000 0.000000
0.114245 0.000000 0.000000
0.141745 0.000000 0.000000
0.169433 0.000000 0.000000
0.197288 0.000000 0.000000
0.225295 0.000000 0.000000
0.253441 0.000000 0.000000
0.281718 0.000000 0.000000
0.310116 0.000000 0.000000
0.338629 0.000000 0.000000
0.367250 0.000000 0.000000
0.395974 0.000000 0.000000
0.424797 0.000000 0.000000
0.453715 0.000000 0.000000
0.482723 0.000000 0.000000
0.511819 0.000000 0.000000
0.540999 0.000000 0.000000
0.570261 0.000000 0.000000
0.599601 0.000000 0.000000
0.629019 0.000000 0.000000
0.658510 0.000000 0.000000
0.688075 0.000000 0.000000
0.717709 0.000000 0.000000
0.747413 0.000000 0.000000
0.777183 0.000000 0.000000
0.807020 0.000000 0.000000
0.836920 0.000000 0.000000
0.866883 0.000000 0.000000
0.896907 0.000000 0.000000
0.926992 0.000000 0.000000
0.000000 0.026734 0.000000
0.016978 0.022148 0.000000
0.044549 0.017767 0.000000
0.072299 0.013566 0.000000
0.100211 0.009527 0.000000
0.128270 0.005636 0.000000
0.156465 0.001881 0.000000
0.184787 0.000000 0.000000
0.213228 0.000000 0.000000
0.241780 0.000000 0.000000
0.270440 0.000000 0.000000
0.299201 0.000000 0.000000
0.328059 0.000000 0.000000
0.357010 0.000000 0.000000
0.386050 0.000000 0.000000
0.415177 0.000000 0.000000
0.444387 0.000000 0.000000
0.473678 0.000000 0.000000
0.503047 0.000000 0.000000
0.532491 0.000000 0.000000
0.562010 0.000000 0.000000
0.591600 0.000000 0.000000
0.621260 0.000000 0.000000
0.650988 0.000000 0.000000
0.680782 0.000000 0.000000
0.710642 0.000000 0.000000
0.740565 0.000000 0.000000
0.770551 0.000000 0.000000
0.800597 0.000000 0.000000
0.830704 0.000000 0.000000
0.860869 0.000000 0.000000
0.891091 0.000000 0.000000
0.921370 0.000000 0.000000
0.000000 0.043960 0.000000
0.003154 0.039977 0.000000
0.031264 0.036136 0.000000
0.059506 0.032429 0.000000
0.087872 0.028846 0.000000
0.116354 0.025381 0.000000
0.144946 0.022026 0.000000
0.173643 0.018776 0.000000
0.202440 0.015627 0.000000
0.231332 0.012574 0.000000
0.260316 0.009614 0.000000
0.289389 0.006742 0.000000
0.318546 0.003957 0.000000
0.347786 0.001254 0.000000
0.377105 0.000000 0.000000
0.406502 0.000000 0.000000
0.435974 0.000000 0.000000
0.465518 0.000000 0.000000
0.495134 0.000000 0.000000
0.524819 0.000000 0.000000
0.554571 0.000000 0.000000
0.584390 0.000000 0.000000
0.614273 0.000000 0.000000
0.644219 0.000000 0.000000
0.674227 0.000000 0.000000
0.704295 0.000000 0.000000
0.734423 0.000000 0.000000
0.764609 0.000000 0.000000
0.794852 0.000000 0.000000
0.825151 0.000000 0.000000
0.855505 0.000000 0.000000
0.885914 0.000000 0.000000
0.916376 0.000000 0.000000
0.000000 0.062994 0.000000
0.000000 0.059454 0.000000
0.019495 0.056030 0.000000
0.048126 0.052714 0.000000
0.076860 0.049501 0.000000
0.105692 0.046388 0.000000
0.134618 0.043369 0.000000
0.163635 0.040441 0.000000
0.192738 0.037601 0.000000
0.221926 0.034846 0.000000
0.251195 0.032173 0.000000
0.280543 0.029580 0.000000
0.309967 0.027063 0.000000
0.339465 0.024622 0.000000
0.369036 0.022253 0.000000
0.398677 0.019956 0.000000
0.428387 0.017728 0.000000
0.458164 0.015567 0.000000
0.488006 0.013473 0.000000
0.517912 0.011443 0.000000
0.547881 0.009477 0.000000
0.577911 0.007572 0.000000
0.608001 0.005729 0.000000
0.638150 0.003945 0.000000
0.668357 0.002219 0.000000
0.698621 0.000551 0.000000
0.728940 0.000000 0.000000
0.759314 0.000000 0.000000
0.789742 0.000000 0.000000
0.820223 0.000000 0.000000
0.850756 0.000000 0.000000
0.881340 0.000000 0.000000
0.911975 0.000000 0.000000
0.000000 0.083415 0.000000
0.000000 0.080239 0.000000
0.008956 0.077161 0.000000
0.037916 0.074175 0.000000
0.066964 0.071280 0.000000
0.096099 0.068472 0.000000
0.125317 0.065747 0.000000
0.154615 0.063103 0.000000
0.183991 0.060538 0.000000
0.213442 0.058049 0.000000
0.242967 0.055634 0.000000
0.272564 0.053291 0.000000
0.302230 0.051019 0.000000
0.331964 0.048816 0.000000
0.361765 0.046680 0.000000
0.391631 0.044609 0.000000
0.421560 0.042603 0.000000
0.451551 0.040659 0.000000
0.481603 0.038777 0.000000
0.511715 0.036955 0.000000
0.541885 0.035192 0.000000
0.572113 0.033488 0.000000
0.602397 0.031841 0.000000
0.632736 0.030249 0.000000
0.663130 0.028713 0.000000
0.693577 0.027231 0.000000
0.724077 0.025802 0.000000
0.754629 0.024426 0.000000
0.785232 0.023102 0.000000
0.815885 0.021828 0.000000
0.846587 0.020605 0.000000
0.877339 0.019431 0.000000
0.908138 0.018306 0.000000
0.000000 0.104994 0.000000
0.000000 0.102131 0.000000
0.000000 0.099353 0.000000
0.028718 0.096658 0.000000
0.058045 0.094043 0.000000
0.087448 0.091506 0.000000
0.116927 0.089044 0.000000
0.146478 0.086656 0.000000
0.176100 0.084339 0.000000
0.205792 0.082092 0.000000
0.235550 0.079913 0.000000
0.265375 0.077801 0.000000
0.295264 0.075754 0.000000
0.325216 0.073771 0.000000
0.355229 0.071850 0.000000
0.385303 0.069990 0.000000
0.415436 0.068189 0.000000
0.445627 0.066448 0.000000
0.475876 0.064764 0.000000
0.506180 0.063138 0.000000
0.536539 0.061566 0.000000
0.566953 0.060050 0.000000
0.597419 0.058587 0.000000
0.627938 0.057178 0.000000
0.658509 0.055821 0.000000
0.689130 0.054515 0.000000
0.719801 0.053260 0.000000
0.750521 0.052055 0.000000
0.781290 0.050899 0.000000
0.812107 0.049791 0.000000
0.842972 0.048732 0.000000
0.873882 0.047720 0.000000
0.904839 0.046755 0.000000
0.000000 0.127579 0.000000
0.000000 0.124993 0.000000
0.000000 0.122483 0.000000
0.020421 0.120049 0.000000
0.049999 0.117687 0.000000
0.079646 0.115396 0.000000
0.109362 0.113174 0.000000
0.139145 0.111020 0.000000
0.168993 0.108931 0.000000
0.198905 0.106908 0.000000
0.228879 0.104947 0.000000
0.258915 0.103048 0.000000
0.289011 0.101210 0.000000
0.319165 0.099432 0.000000
0.349377 0.097711 0.000000
0.379646 0.096048 0.000000
0.409970 0.094442 0.000000
0.440350 0.092891 0.000000
0.470782 0.091394 0.000000
0.501268 0.089951 0.000000
0.531806 0.088561 0.000000
0.562395 0.087222 0.000000
0.593034 0.085935 0.000000
0.623724 0.084698 0.000000
0.654462 0.083511 0.000000
0.685248 0.082373 0.000000
0.716083 0.081283 0.000000
0.746964 0.080241 0.000000
0.777892 0.079246 0.000000
0.808865 0.078297 0.000000
0.839884 0.077395 0.000000
0.870947 0.076538 0.000000
0.902054 0.075725 0.000000
0.000000 0.151063 0.000000
0.000000 0.148727 0.000000
0.000000 0.146462 0.000000
0.012941 0.144265 0.000000
0.042748 0.142135 0.000000
0.072620 0.140070 0.000000
0.102555 0.138069 0.000000
0.132552 0.136131 0.000000
0.162609 0.134255 0.000000
0.192726 0.132439 0.000000
0.222902 0.130681 0.000000
0.253135 0.128982 0.000000
0.283424 0.127340 0.000000
0.313768 0.125754 0.000000
0.344167 0.124222 0.000000
0.374619 0.122745 0.000000
0.405124 0.121322 0.000000
0.435681 0.119950 0.000000
0.466288 0.118631 0.000000
0.496946 0.117362 0.000000
0.527653 0.116143 0.000000
0.558409 0.114974 0.000000
0.589213 0.113853 0.000000
0.620064 0.112781 0.000000
0.650962 0.111756 0.000000
0.681907 0.110778 0.000000
0.712897 0.109846 0.000000
0.743932 0.108960 0.000000
0.775011 0.108119 0.000000
0.806134 0.107323 0.000000
0.837301 0.106571 0.000000
0.868511 0.105862 0.000000
0.899763 0.105197 0.000000
0.000000 0.175364 0.000000
0.000000 0.173258 0.000000
0.000000 0.171217 0.000000
0.006213 0.169239 0.000000
0.036232 0.167324 0.000000
0.066311 0.165470 0.000000
0.096450 0.163675 0.000000
0.126646 0.161939 0.000000
0.156900 0.160261 0.000000
0.187209 0.158639 0.000000
0.217573 0.157073 0.000000
0.247992 0.155561 0.000000
0.278463 0.154104 0.000000
0.308987 0.152699 0.000000
0.339562 0.151347 0.000000
0.370188 0.150046 0.000000
0.400864 0.148795 0.000000
0.431589 0.147594 0.000000
0.462362 0.146443 0.000000
0.493183 0.145340 0.000000
0.524052 0.144285 0.000000
0.554967 0.143277 0.000000
0.585928 0.142316 0.000000
0.616934 0.141401 0.000000
0.647986 0.140532 0.000000
0.679081 0.139707 0.000000
0.710220 0.138927 0.000000
0.741402 0.138191 0.000000
0.772628 0.137498 0.000000
0.803895 0.136848 0.000000
0.835204 0.136240 0.000000
0.866554 0.135675 0.000000
0.897946 0.135151 0.000000
0.000000 0.200418 0.000000
0.000000 0.198525 0.000000
0.000000 0.196692 0.000000
0.000181 0.194919 0.000000
0.030398 0.193204 0.000000
0.060672 0.191546 0.000000
0.091001 0.189945 0.000000
0.121386 0.188399 0.000000
0.151823 0.186907 0.000000
0.182314 0.185469 0.000000
0.212856 0.184084 0.000000
0.243450 0.182750 0.000000
0.274094 0.181467 0.000000
0.304788 0.180235 0.000000
0.335531 0.179052 0.000000
0.366322 0.177919 0.000000
0.397160 0.176833 0.000000
0.428046 0.175796 0.000000
0.458978 0.174805 0.000000
0.489955 0.173861 0.000000
0.520978 0.172962 0.000000
0.552045 0.172109 0.000000
0.583157 0.171301 0.000000
0.614312 0.170537 0.000000
0.645510 0.169816 0.000000
0.676750 0.169139 0.000000
0.708033 0.168505 0.000000
0.739357 0.167913 0.000000
0.770722 0.167362 0.000000
0.802128 0.166853 0.000000
0.833575 0.166385 0.000000
0.865061 0.165958 0.000000
0.896586 0.165571 0.000000
0.000000 0.226171 0.000000
0.000000 0.224477 0.000000
0.000000 0.222840 0.000000
0.000000 0.221259 0.000000
0.025205 0.219733 0.000000
0.055662 0.218260 0.000000
0.086172 0.216841 0.000000
0.116733 0.215475 0.000000
0.147345 0.214160 0.000000
0.178007 0.212896 0.000000
0.208719 0.211682 0.000000
0.239479 0.210517 0.000000
0.270288 0.209401 0.000000
0.301143 0.208333 0.000000
0.332046 0.207312 0.000000
0.362994 0.206339 0.000000
0.393988 0.205411 0.000000
0.425028 0.204529 0.000000
0.456111 0.203693 0.000000
0.487238 0.202900 0.000000
0.518409 0.202152 0.000000
0.549622 0.201448 0.000000
0.580878 0.200786 0.000000
0.612176 0.200167 0.000000
0.643515 0.199590 0.000000
0.674896 0.199055 0.000000
0.706316 0.198561 0.000000
0.737777 0.198108 0.000000
0.769278 0.197695 0.000000
0.800818 0.197323 0.000000
0.832396 0.196989 0.000000
0.864014 0.196696 0.000000
0.895669 0.196441 0.000000
0.000000 0.252580 0.000000
0.000000 0.251073 0.000000
0.000000 0.249620 0.000000
0.000000 0.248221 0.000000
0.020616 0.246873 0.000000
0.051246 0.245577 0.000000
0.081927 0.244331 0.000000
0.112656 0.243135 0.000000
0.143434 0.241988 0.000000
0.174260 0.240889 0.000000
0.205133 0.239839 0.000000
0.236052 0.238835 0.000000
0.267017 0.237879 0.000000
0.298028 0.236968 0.000000
0.329083 0.236102 0.000000
0.360182 0.235282 0.000000
0.391326 0.234506 0.000000
0.422512 0.233773 0.000000
0.453741 0.233085 0.000000
0.485012 0.232439 0.000000
0.516325 0.231835 0.000000
0.547679 0.231273 0.000000
0.579074 0.230753 0.000000
0.610510 0.230274 0.000000
0.641985 0.229836 0.000000
0.673500 0.229438 0.000000
0.705054 0.229080 0.000000
0.736647 0.228761 0.000000
0.768278 0.228481 0.000000
0.799948 0.228240 0.000000
0.831655 0.228038 0.000000
0.863399 0.227873 0.000000
0.895180 0.227746 0.000000
0.000000 0.279607 0.000000
0.000000 0.278278 0.000000
0.000000 0.277000 0.000000
0.000000 0.275772 0.000000
0.016600 0.274594 0.000000
0.047395 0.273465 0.000000
0.078238 0.272384 0.000000
0.109128 0.271351 0.000000
0.140064 0.270364 0.000000
0.171046 0.269424 0.000000
0.202073 0.268530 0.000000
0.233144 0.267681 0.000000
0.264260 0.266877 0.000000
0.295419 0.266117 0.000000
0.326621 0.265401 0.000000
0.357865 0.264727 0.000000
0.389151 0.264097 0.000000
0.420479 0.263508 0.000000
0.451848 0.262962 0.000000
0.483258 0.262457 0.000000
0.514708 0.261993 0.000000
0.546198 0.261569 0.000000
0.577727 0.261186 0.000000
0.609296 0.260842 0.000000
0.640902 0.260537 0.000000
0.672548 0.260272 0.000000
0.704231 0.260045 0.000000
0.735951 0.259856 0.000000
0.767709 0.259705 0.000000
0.799504 0.259592 0.000000
0.831335 0.259516 0.000000
0.863203 0.259477 0.000000
0.895106 0.259475 0.000000
0.000000 0.307221 0.000000
0.000000 0.306060 0.000000
0.000000 0.304949 0.000000
0.000000 0.303885 0.000000
0.013130 0.302869 0.000000
0.044082 0.301900 0.000000
0.075081 0.300976 0.000000
0.106124 0.300099 0.000000
0.137211 0.299266 0.000000
0.168343 0.298478 0.000000
0.199517 0.297734 0.000000
0.230735 0.297033 0.000000
0.261995 0.296376 0.000000
0.293296 0.295761 0.000000
0.324639 0.295188 0.000000
0.356023 0.294656 0.000000
0.387448 0.294166 0.000000
0.418912 0.293717 0.000000
0.450416 0.293308 0.000000
0.481960 0.292939 0.000000
0.513542 0.292609 0.000000
0.545163 0.292319 0.000000
0.576822 0.292068 0.000000
0.608519 0.291855 0.000000
0.640253 0.291680 0.000000
0.672025 0.291543 0.000000
0.703833 0.291443 0.000000
0.735677 0.291381 0.000000
0.767558 0.291355 0.000000
0.799474 0.291366 0.000000
0.831426 0.291413 0.000000
0.863413 0.291496 0.000000
0.895435 0.291614 0.000000
0.000000 0.335393 0.000000
0.000000 0.334394 0.000000
0.000000 0.333441 0.000000
0.000000 0.332534 0.000000
0.010181 0.331673 0.000000
0.041284 0.330857 0.000000
0.072431 0.330085 0.000000
0.103622 0.329357 0.000000
0.134855 0.328672 0.000000
0.166130 0.328030 0.000000
0.197446 0.327430 0.000000
0.228804 0.326872 0.000000
0.260203 0.326356 0.000000
0.291642 0.325881 0.000000
0.323121 0.325446 0.000000
0.354640 0.325051 0.000000
0.386197 0.324697 0.000000
0.417794 0.324382 0.000000
0.449429 0.324106 0.000000
0.481102 0.323868 0.000000
0.512812 0.323669 0.000000
0.544560 0.323508 0.000000
0.576345 0.323385 0.000000
0.608166 0.323299 0.000000
0.640024 0.323250 0.000000
0.671918 0.323238 0.000000
0.703847 0.323262 0.000000
0.735812 0.323322 0.000000
0.767812 0.323418 0.000000
0.799846 0.323549 0.000000
0.831915 0.323716 0.000000
0.864019 0.323917 0.000000
0.896156 0.324153 0.000000
0.000000 0.364099 0.000000
0.000000 0.363254 0.000000
0.000000 0.362454 0.000000
0.000000 0.361697 0.000000
0.007732 0.360985 0.000000
0.038980 0.360316 0.000000
0.070270 0.359689 0.000000
0.101602 0.359105 0.000000
0.132975 0.358562 0.000000
0.164388 0.358061 0.000000
0.195842 0.357600 0.000000
0.227336 0.357180 0.000000
0.258868 0.356801 0.000000
0.290440 0.356460 0.000000
0.322051 0.356160 0.000000
0.353700 0.355898 0.000000
0.385386 0.355674 0.000000
0.417110 0.355489 0.000000
0.448872 0.355342 0.000000
0.480670 0.355232 0.000000
0.512504 0.355160 0.000000
0.544375 0.355124 0.000000
0.576282 0.355125 0.000000
0.608224 0.355162 0.000000
0.640202 0.355235 0.000000
0.672214 0.355344 0.000000
0.704262 0.355489 0.000000
0.736343 0.355668 0.000000
0.768459 0.355882 0.000000
0.800609 0.356131 0.000000
0.832792 0.356414 0.000000
0.865009 0.356731 0.000000
0.897259 0.357082 0.000000
0.000000 0.393316 0.000000
0.000000 0.392619 0.000000
0.000000 0.391966 0.000000
0.000000 0.391354 0.000000
0.005763 0.390785 0.000000
0.037151 0.390258 0.000000
0.068579 0.389771 0.000000
0.100047 0.389326 0.000000
0.131555 0.388920 0.000000
0.163102 0.388555 0.000000
0.194688 0.388229 0.000000
0.226313 0.387943 0.000000
0.257975 0.387695 0.000000
0.289676 0.387485 0.000000
0.321413 0.387314 0.000000
0.353188 0.387180 0.000000
0.385000 0.387084 0.000000
0.416847 0.387025 0.000000
0.448731 0.387003 0.000000
0.480651 0.387017 0.000000
0.512606 0.387068 0.000000
0.544597 0.387154 0.000000
0.576622 0.387276 0.000000
0.608682 0.387433 0.000000
0.640776 0.387625 0.000000
0.672904 0.387851 0.000000
0.705066 0.388113 0.000000
0.737261 0.388408 0.000000
0.769490 0.388738 0.000000
0.801752 0.389101 0.000000
0.834046 0.389497 0.000000
0.866373 0.389927 0.000000
0.898733 0.390390 0.000000
0.000000 0.423025 0.000000
0.000000 0.422471 0.000000
0.000000 0.421959 0.000000
0.000000 0.421487 0.000000
0.004258 0.421056 0.000000
0.035780 0.420666 0.000000
0.067341 0.420315 0.000000
0.098941 0.420003 0.000000
0.130580 0.419731 0.000000
0.162256 0.419497 0.000000
0.193970 0.419301 0.000000
0.225721 0.419144 0.000000
0.257509 0.419024 0.000000
0.289334 0.418941 0.000000
0.321195 0.418896 0.000000
0.353092 0.418887 0.000000
0.385025 0.418914 0.000000
0.416993 0.418978 0.000000
0.448996 0.419077 0.000000
0.481034 0.419211 0.000000
0.513106 0.419381 0.000000
0.545213 0.419586 0.000000
0.577353 0.419825 0.000000
0.609528 0.420099 0.000000
0.641735 0.420407 0.000000
0.673976 0.420749 0.000000
0.706250 0.421124 0.000000
0.738556 0.421533 0.000000
0.770895 0.421975 0.000000
0.803266 0.422449 0.000000
0.835668 0.422957 0.000000
0.868103 0.423496 0.000000
0.900569 0.424068 0.000000
0.000000 0.453208 0.000000
0.000000 0.452792 0.000000
0.000000 0.452416 0.000000
0.000000 0.452080 0.000000
0.003200 0.451782 0.000000
0.034852 0.451524 0.000000
0.066542 0.451304 0.000000
0.098269 0.451122 0.000000
0.130034 0.450979 0.000000
0.161836 0.450872 0.000000
0.193674 0.450803 0.000000
0.225548 0.450771 0.000000
0.257458 0.450775 0.000000
0.289403 0.450816 0.000000
0.321384 0.450892 0.000000
0.353400 0.451005 0.000000
0.385450 0.451152 0.000000
0.417535 0.451335 0.000000
0.449654 0.451552 0.000000
0.481807 0.451804 0.000000
0.513993 0.452090 0.000000
0.546213 0.452410 0.000000
0.578466 0.452764 0.000000
0.610752 0.453152 0.000000
0.643070 0.453573 0.000000
0.675420 0.454026 0.000000
0.707803 0.454513 0.000000
0.740217 0.455032 0.000000
0.772663 0.455584 0.000000
0.805141 0.456167 0.000000
0.837650 0.456783 0.000000
0.870190 0.457430 0.000000
0.902760 0.458109 0.000000
0.000000 0.483850 0.000000
0.000000 0.483567 0.000000
0.000000 0.483322 0.000000
0.000000 0.483116 0.000000
0.002574 0.482949 0.000000
0.034352 0.482818 0.000000
0.066167 0.482726 0.000000
0.098018 0.482670 0.000000
0.129905 0.482651 0.000000
0.161828 0.482669 0.000000
0.193787 0.482722 0.000000
0.225780 0.482812 0.000000
0.257809 0.482937 0.000000
0.289872 0.483097 0.000000
0.321969 0.483293 0.000000
0.354100 0.483523 0.000000
0.386265 0.483787 0.000000
0.418464 0.484086 0.000000
0.450696 0.484418 0.000000
0.482960 0.484784 0.000000
0.515258 0.485184 0.000000
0.547588 0.485617 0.000000
0.579950 0.486083 0.000000
0.612344 0.486581 0.000000
0.644770 0.487112 0.000000
0.677228 0.487675 0.000000
0.709717 0.488270 0.000000
0.742237 0.488897 0.000000
0.774788 0.489556 0.000000
0.807370 0.490246 0.000000
0.839982 0.490968 0.000000
0.872624 0.491720 0.000000
0.905297 0.492503 0.000000
0.000000 0.514934 0.000000
0.000000 0.514780 0.000000
0.000000 0.514663 0.000000
0.000000 0.514584 0.000000
0.002367 0.514542 0.000000
0.034267 0.514536 0.000000
0.066203 0.514567 0.000000
0.098174 0.514634 0.000000
0.130181 0.514736 0.000000
0.162222 0.514874 0.000000
0.194297 0.515047 0.000000
0.226407 0.515255 0.000000
0.258551 0.515498 0.000000
0.290728 0.515775 0.000000
0.322939 0.516086 0.000000
0.355182 0.516430 0.000000
0.387459 0.516809 0.000000
0.419768 0.517221 0.000000
0.452110 0.517665 0.000000
0.484484 0.518143 0.000000
0.516890 0.518653 0.000000
0.549327 0.519196 0.000000
0.581797 0.519771 0.000000
0.614297 0.520378 0.000000
0.646828 0.521016 0.000000
0.679390 0.521687 0.000000
0.711983 0.522388 0.000000
0.744607 0.523121 0.000000
0.777260 0.523884 0.000000
0.809944 0.524679 0.000000
0.842657 0.525503 0.000000
0.875400 0.526359 0.000000
0.908173 0.527244 0.000000
0.000000 0.546447 0.000000
0.000000 0.546418 0.000000
0.000000 0.546426 0.000000
0.000000 0.546470 0.000000
0.002567 0.546550 0.000000
0.034586 0.546665 0.000000
0.066640 0.546816 0.000000
0.098728 0.547002 0.000000
0.130850 0.547222 0.000000
0.163006 0.547477 0.000000
0.195195 0.547767 0.000000
0.227418 0.548090 0.000000
0.259674 0.548447 0.000000
0.291962 0.548838 0.000000
0.324283 0.549261 0.000000
0.356637 0.549718 0.000000
0.389022 0.550208 0.000000
0.421440 0.550730 0.000000
0.453889 0.551284 0.000000
0.486369 0.551871 0.000000
0.518881 0.552489 0.000000
0.551424 0.553140 0.000000
0.583997 0.553821 0.000000
0.616601 0.554534 0.000000
0.649235 0.555278 0.000000
0.681900 0.556053 0.000000
0.714594 0.556858 0.000000
0.747318 0.557694 0.000000
0.780072 0.558560 0.000000
0.812855 0.559456 0.000000
0.845668 0.560383 0.000000
0.878509 0.561339 0.000000
0.911380 0.562324 0.000000
0.000000 0.578378 0.000000
0.000000 0.578470 0.000000
0.000000 0.578599 0.000000
0.000000 0.578762 0.000000
0.003162 0.578961 0.000000
0.035297 0.579194 0.000000
0.067465 0.579462 0.000000
0.099666 0.579763 0.000000
0.131901 0.580099 0.000000
0.164169 0.580468 0.000000
0.196470 0.580871 0.000000
0.228803 0.581307 0.000000
0.261168 0.581776 0.000000
0.293565 0.582277 0.000000
0.325994 0.582811 0.000000
0.358454 0.583377 0.000000
0.390946 0.583975 0.000000
0.423469 0.584605 0.000000
0.456023 0.585267 0.000000
0.488607 0.585960 0.000000
0.521223 0.586684 0.000000
0.553868 0.587439 0.000000
0.586543 0.588225 0.000000
0.619249 0.589042 0.000000
0.651984 0.589889 0.000000
0.684748 0.590766 0.000000
0.717542 0.591673 0.000000
0.750365 0.592610 0.000000
0.783217 0.593577 0.000000
0.816098 0.594573 0.000000
0.849007 0.595598 0.000000
0.881945 0.596653 0.000000
0.914911 0.597737 0.000000
0.000000 0.610713 0.000000
0.000000 0.610924 0.000000
0.000000 0.611170 0.000000
0.000000 0.611450 0.000000
0.004142 0.611764 0.000000
0.036389 0.612112 0.000000
0.068669 0.612494 0.000000
0.100981 0.612909 0.000000
0.133326 0.613356 0.000000
0.165703 0.613837 0.000000
0.198112 0.614350 0.000000
0.230552 0.614896 0.000000
0.263024 0.615474 0.000000
0.295527 0.616084 0.000000
0.328061 0.616725 0.000000
0.360626 0.617398 0.000000
0.393222 0.618103 0.000000
0.425848 0.618838 0.000000
0.458504 0.619605 0.000000
0.491191 0.620402 0.000000
0.523907 0.621229 0.000000
0.556653 0.622087 0.000000
0.589428 0.622975 0.000000
0.622233 0.623893 0.000000
0.655066 0.624841 0.000000
0.687929 0.625819 0.000000
0.720820 0.626826 0.000000
0.753740 0.627862 0.000000
0.786688 0.628927 0.000000
0.819664 0.630021 0.000000
0.852669 0.631144 0.000000
0.885701 0.632296 0.000000
0.918761 0.633476 0.000000
0.000000 0.643444 0.000000
0.000000 0.643770 0.000000
0.000000 0.644130 0.000000
0.000000 0.644524 0.000000
0.005497 0.644951 0.000000
0.037854 0.645410 0.000000
0.070242 0.645903 0.000000
0.102663 0.646428 0.000000
0.135114 0.646986 0.000000
0.167598 0.647575 0.000000
0.200112 0.648197 0.000000
0.232658 0.648850 0.000000
0.265234 0.649534 0.000000
0.297841 0.650250 0.000000
0.330478 0.650997 0.000000
0.363145 0.651774 0.000000
0.395842 0.652582 0.000000
0.428569 0.653421 0.000000
0.461326 0.654290 0.000000
0.494112 0.655189 0.000000
0.526927 0.656118 0.000000
0.559771 0.657077 0.000000
0.592644 0.658065 0.000000
0.625546 0.659082 0.000000
0.658476 0.660129 0.000000
0.691434 0.661205 0.000000
0.724421 0.662309 0.000000
0.757436 0.663443 0.000000
0.790478 0.664605 0.000000
0.823548 0.665795 0.000000
0.856646 0.667013 0.000000
0.889771 0.668260 0.000000
0.922924 0.669534 0.000000
0.000000 0.676558 0.000000
0.000000 0.676997 0.000000
0.000000 0.677469 0.000000
0.000000 0.677973 0.000000
0.007218 0.678510 0.000000
0.039681 0.679079 0.000000
0.072176 0.679681 0.000000
0.104702 0.680313 0.000000
0.137258 0.680978 0.000000
0.169846 0.681674 0.000000
0.202463 0.682401 0.000000
0.235112 0.683159 0.000000
0.267790 0.683948 0.000000
0.300498 0.684767 0.000000
0.333236 0.685617 0.000000
0.366003 0.686497 0.000000
0.398799 0.687407 0.000000
0.431625 0.688346 0.000000
0.464480 0.689316 0.000000
0.497363 0.690315 0.000000
0.530275 0.691343 0.000000
0.563216 0.692400 0.000000
0.596185 0.693486 0.000000
0.629181 0.694602 0.000000
0.662206 0.695745 0.000000
0.695259 0.696918 0.000000
0.728339 0.698118 0.000000
0.761447 0.699347 0.000000
0.794582 0.700604 0.000000
0.827744 0.701888 0.000000
0.860933 0.703200 0.000000
0.894150 0.704540 0.000000
0.927392 0.705908 0.000000
0.000000 0.710048 0.000000
0.000000 0.710597 0.000000
0.000000 0.711177 0.000000
0.000000 0.711790 0.000000
0.009295 0.712435 0.000000
0.041863 0.713110 0.000000
0.074461 0.713818 0.000000
0.107090 0.714556 0.000000
0.139749 0.715325 0.000000
0.172438 0.716125 0.000000
0.205157 0.716956 0.000000
0.237906 0.717816 0.000000
0.270684 0.718707 0.000000
0.303491 0.719628 0.000000
0.336327 0.720579 0.000000
0.369192 0.721559 0.000000
0.402086 0.722568 0.000000
0.435009 0.723607 0.000000
0.467959 0.724675 0.000000
0.500938 0.725772 0.000000
0.533946 0.726897 0.000000
0.566981 0.728052 0.000000
0.600043 0.729234 0.000000
