asset_packs/ivy_bound_trunk_canopy/mood/grade_33.cube
TITLE "ivy_bound_trunk_canopy mood grade"
# Generated by construction_code_v2/gen_asset_packs.py. Domain: display-referred sRGB in, sRGB out.
LUT_3D_SIZE 5
DOMAIN_MIN 0.0 0.0 0.0
DOMAIN_MAX 1.0 1.0 1.0
0.007148 0.012630 0.000000
0.225295 0.000000 0.000000
0.453715 0.000000 0.000000
0.688075 0.000000 0.000000
0.926992 0.000000 0.000000
0.000000 0.175364 0.000000
0.156900 0.160261 0.000000
0.400864 0.148795 0.000000
0.647986 0.140532 0.000000
0.897946 0.135151 0.000000
0.000000 0.393316 0.000000
0.131555 0.388920 0.000000
0.385000 0.387084 0.000000
0.640776 0.387625 0.000000
0.898733 0.390390 0.000000
0.000000 0.643444 0.000000
0.135114 0.646986 0.000000
0.395842 0.652582 0.000000
0.658476 0.660129 0.000000
0.922924 0.669534 0.000000
0.000000 0.918405 0.000000
0.161588 0.928467 0.000000
0.428382 0.940279 0.000000
0.696814 0.953774 0.000000
0.966822 0.968888 0.000000
0.000000 0.000000 0.212248
0.215442 0.000000 0.183306
0.446108 0.000000 0.161565
0.682126 0.000000 0.144497
0.922402 0.000000 0.131005
0.000000 0.169793 0.139211
0.152752 0.155984 0.126846
0.397831 0.145648 0.117229
0.645948 0.138395 0.109971
0.896813 0.133934 0.104780
0.000000 0.391523 0.107855
0.130734 0.388020 0.103358
0.384989 0.387010 0.100629
0.641521 0.388321 0.099497
0.900188 0.391812 0.099820
0.000000 0.644409 0.099453
0.136819 0.648661 0.100274
0.398205 0.654931 0.102387
0.661464 0.663119 0.105694
0.926509 0.673137 0.110106
0.000000 0.921621 0.107176
0.165384 0.932285 0.111971
0.432742 0.944677 0.117768
0.701716 0.958728 0.124500
0.972245 0.974379 0.132108
0.000000 0.000000 0.456351
0.206454 0.000000 0.430358
0.439109 0.000000 0.410376
0.676666 0.000000 0.394615
0.918225 0.000000 0.382176
0.000000 0.164684 0.389736
0.148999 0.152106 0.378356
0.395148 0.142855 0.369578
0.644227 0.136579 0.363051
0.895971 0.133012 0.358508
0.000000 0.390042 0.361180
0.130194 0.387406 0.357304
0.385240 0.387202 0.355136
0.642512 0.389269 0.354513
0.901876 0.393470 0.355300
0.000000 0.645620 0.354643
0.138750 0.650570 0.355914
0.400783 0.657502 0.358444
0.664658 0.666320 0.362135
0.930292 0.676941 0.366904
0.000000 0.925045 0.363750
0.169374 0.936303 0.368893
0.437288 0.949265 0.375015
0.706797 0.963866 0.382051
0.977842 0.980048 0.389943
0.000000 0.000000 0.701716
0.198214 0.000000 0.678081
0.432669 0.000000 0.659667
0.671664 0.000000 0.645113
0.914444 0.000000 0.633665
0.000000 0.160013 0.640616
0.145624 0.148611 0.630166
0.392802 0.140405 0.622187
0.642813 0.135076 0.616360
0.895411 0.132379 0.612441
0.000000 0.388863 0.614723
0.129929 0.387073 0.611448
0.385748 0.387657 0.609820
0.643745 0.390462 0.609691
0.903791 0.395362 0.610930
0.000000 0.647072 0.609990
0.140905 0.652707 0.611700
0.403573 0.660289 0.614634
0.668055 0.669729 0.618700
0.934268 0.680945 0.623818
0.000000 0.928673 0.620445
0.173556 0.940518 0.625928
0.442018 0.954043 0.632367
0.712055 0.969187 0.639700
0.983610 0.985894 0.647871
0.000000 0.000000 0.948030
0.190642 0.000000 0.926392
0.426749 0.000000 0.909400
0.667097 0.000000 0.895968
0.911042 0.000000 0.885453
0.000000 0.155759 0.891829
0.142611 0.145484 0.882259
0.390782 0.138286 0.875042
0.641696 0.133875 0.869888
0.895127 0.132025 0.866570
0.000000 0.387978 0.868478
0.129933 0.387013 0.865781
0.386507 0.388367 0.864678
0.645213 0.391897 0.865026
0.905930 0.397483 0.866706
0.000000 0.648761 0.865490
0.143279 0.655068 0.867626
0.406573 0.663291 0.870954
0.671651 0.673342 0.875386
0.938436 0.685145 0.880845
0.000000 0.932503 0.877259
0.177927 0.944926 0.883074
0.446930 0.959008 0.889823
0.717488 0.974689 0.897446
0.989547 0.991914 0.905890
