asset_packs/oak_lichen_evening/mood/grade_33.cube
TITLE "oak_lichen_evening mood grade"
# Generated by construction_code_v2/gen_asset_packs.py. Domain: display-referred sRGB in, sRGB out.
LUT_3D_SIZE 33
DOMAIN_MIN 0.0 0.0 0.0
DOMAIN_MAX 1.0 1.0 1.0
0.011616 0.004370 0.000000
0.045549 0.000000 0.000000
0.080116 0.000000 0.000000
0.114966 0.000000 0.000000
0.150014 0.000000 0.000000
0.185214 0.000000 0.000000
0.220541 0.000000 0.000000
0.255977 0.000000 0.000000
0.291507 0.000000 0.000000
0.327123 0.000000 0.000000
0.362817 0.000000 0.000000
0.398581 0.000000 0.000000
0.434412 0.000000 0.000000
0.470303 0.000000 0.000000
0.506252 0.000000 0.000000
0.542254 0.000000 0.000000
0.578308 0.000000 0.000000
0.614411 0.000000 0.000000
0.650560 0.000000 0.000000
0.686753 0.000000 0.000000
0.722989 0.000000 0.000000
0.759265 0.000000 0.000000
0.795581 0.000000 0.000000
0.831935 0.000000 0.000000
0.868325 0.000000 0.000000
0.904751 0.000000 0.000000
0.941211 0.000000 0.000000
0.977705 0.000000 0.000000
1.000000 0.000000 0.000000
1.000000 0.000000 0.000000
1.000000 0.000000 0.000000
1.000000 0.000000 0.000000
1.000000 0.000000 0.000000
0.000000 0.028413 0.000000
0.031404 0.024537 0.000000
0.066653 0.020799 0.000000
0.102021 0.017175 0.000000
0.137493 0.013651 0.000000
0.173056 0.010213 0.000000
0.208701 0.006854 0.000000
0.244421 0.003565 0.000000
0.280210 0.000341 0.000000
0.316063 0.000000 0.000000
0.351975 0.000000 0.000000
0.387944 0.000000 0.000000
0.423966 0.000000 0.000000
0.460038 0.000000 0.000000
0.496158 0.000000 0.000000
0.532323 0.000000 0.000000
0.568532 0.000000 0.000000
0.604783 0.000000 0.000000
0.641074 0.000000 0.000000
0.677403 0.000000 0.000000
0.713770 0.000000 0.000000
0.750174 0.000000 0.000000
0.786612 0.000000 0.000000
0.823085 0.000000 0.000000
0.859590 0.000000 0.000000
0.896128 0.000000 0.000000
0.932696 0.000000 0.000000
0.969296 0.000000 0.000000
1.000000 0.000000 0.000000
1.000000 0.000000 0.000000
1.000000 0.000000 0.000000
1.000000 0.000000 0.000000
1.000000 0.000000 0.000000
0.000000 0.054944 0.000000
0.019021 0.051452 0.000000
0.054615 0.048044 0.000000
0.090288 0.044711 0.000000
0.126034 0.041446 0.000000
0.161847 0.038244 0.000000
0.197722 0.035100 0.000000
0.233655 0.032010 0.000000
0.269644 0.028971 0.000000
0.305684 0.025979 0.000000
0.341774 0.023032 0.000000
0.377910 0.020128 0.000000
0.414092 0.017264 0.000000
0.450316 0.014439 0.000000
0.486581 0.011651 0.000000
0.522887 0.008898 0.000000
0.559230 0.006179 0.000000
0.595611 0.003493 0.000000
0.632027 0.000838 0.000000
0.668478 0.000000 0.000000
0.704962 0.000000 0.000000
0.741480 0.000000 0.000000
0.778029 0.000000 0.000000
0.814609 0.000000 0.000000
0.851219 0.000000 0.000000
0.887858 0.000000 0.000000
0.924526 0.000000 0.000000
0.961223 0.000000 0.000000
0.997947 0.000000 0.000000
1.000000 0.000000 0.000000
1.000000 0.000000 0.000000
1.000000 0.000000 0.000000
1.000000 0.000000 0.000000
0.000000 0.082578 0.000000
0.007656 0.079336 0.000000
0.043492 0.076156 0.000000
0.079389 0.073032 0.000000
0.115342 0.069961 0.000000
0.151350 0.066939 0.000000
0.187409 0.063964 0.000000
0.223516 0.061033 0.000000
0.259669 0.058144 0.000000
0.295866 0.055294 0.000000
0.332105 0.052483 0.000000
0.368386 0.049707 0.000000
0.404705 0.046967 0.000000
0.441062 0.044260 0.000000
0.477456 0.041586 0.000000
0.513885 0.038942 0.000000
0.550348 0.036328 0.000000
0.586845 0.033743 0.000000
0.623373 0.031187 0.000000
0.659934 0.028657 0.000000
0.696525 0.026154 0.000000
0.733146 0.023676 0.000000
0.769796 0.021223 0.000000
0.806474 0.018794 0.000000
0.843181 0.016389 0.000000
0.879914 0.014007 0.000000
0.916675 0.011647 0.000000
0.953461 0.009309 0.000000
0.990274 0.006992 0.000000
1.000000 0.004696 0.000000
1.000000 0.002421 0.000000
1.000000 0.000165 0.000000
1.000000 0.000000 0.000000
0.000000 0.110970 0.000000
0.000000 0.107918 0.000000
0.033063 0.104913 0.000000
0.069140 0.101954 0.000000
0.105264 0.099039 0.000000
0.141433 0.096164 0.000000
0.177646 0.093329 0.000000
0.213900 0.090531 0.000000
0.250195 0.087768 0.000000
0.286528 0.085040 0.000000
0.322899 0.082345 0.000000
0.359305 0.079682 0.000000
0.395747 0.077049 0.000000
0.432223 0.074446 0.000000
0.468731 0.071872 0.000000
0.505271 0.069325 0.000000
0.541843 0.066805 0.000000
0.578445 0.064311 0.000000
0.615077 0.061843 0.000000
0.651737 0.059399 0.000000
0.688426 0.056979 0.000000
0.725142 0.054582 0.000000
0.761886 0.052208 0.000000
0.798656 0.049856 0.000000
0.835452 0.047526 0.000000
0.872273 0.045217 0.000000
0.909120 0.042928 0.000000
0.945990 0.040660 0.000000
0.982886 0.038411 0.000000
1.000000 0.036182 0.000000
1.000000 0.033972 0.000000
1.000000 0.031781 0.000000
1.000000 0.029607 0.000000
0.000000 0.139950 0.000000
0.000000 0.137050 0.000000
0.023203 0.134190 0.000000
0.059431 0.131368 0.000000
0.095701 0.128583 0.000000
0.132009 0.125834 0.000000
0.168356 0.123118 0.000000
0.204740 0.120435 0.000000
0.241160 0.117783 0.000000
0.277614 0.115161 0.000000
0.314101 0.112568 0.000000
0.350622 0.110004 0.000000
0.387173 0.107467 0.000000
0.423756 0.104957 0.000000
0.460369 0.102472 0.000000
0.497011 0.100013 0.000000
0.533682 0.097577 0.000000
0.570381 0.095166 0.000000
0.607107 0.092777 0.000000
0.643861 0.090411 0.000000
0.680640 0.088068 0.000000
0.717445 0.085745 0.000000
0.754276 0.083444 0.000000
0.791131 0.081163 0.000000
0.828011 0.078902 0.000000
0.864915 0.076660 0.000000
0.901842 0.074438 0.000000
0.938792 0.072235 0.000000
0.975765 0.070050 0.000000
1.000000 0.067883 0.000000
1.000000 0.065734 0.000000
1.000000 0.063602 0.000000
1.000000 0.061487 0.000000
0.000000 0.169413 0.000000
0.000000 0.166641 0.000000
0.013829 0.163904 0.000000
0.050190 0.161200 0.000000
0.086587 0.158528 0.000000
0.123019 0.155887 0.000000
0.159485 0.153276 0.000000
0.195985 0.150694 0.000000
0.232516 0.148140 0.000000
0.269080 0.145613 0.000000
0.305673 0.143112 0.000000
0.342297 0.140636 0.000000
0.378950 0.138186 0.000000
0.415631 0.135759 0.000000
0.452340 0.133356 0.000000
0.489076 0.130976 0.000000
0.525839 0.128618 0.000000
0.562628 0.126282 0.000000
0.599442 0.123967 0.000000
0.636282 0.121673 0.000000
0.673146 0.119400 0.000000
0.710035 0.117146 0.000000
0.746947 0.114911 0.000000
0.783883 0.112696 0.000000
0.820842 0.110500 0.000000
0.857823 0.108321 0.000000
0.894826 0.106161 0.000000
0.931852 0.104018 0.000000
0.968899 0.101893 0.000000
1.000000 0.099784 0.000000
1.000000 0.097692 0.000000
1.000000 0.095617 0.000000
1.000000 0.093558 0.000000
0.000000 0.199286 0.000000
0.000000 0.196626 0.000000
0.004882 0.193996 0.000000
0.041361 0.191395 0.000000
0.077872 0.188823 0.000000
0.114415 0.186279 0.000000
0.150990 0.183762 0.000000
0.187595 0.181270 0.000000
0.224229 0.178804 0.000000
0.260892 0.176362 0.000000
0.297583 0.173944 0.000000
0.334302 0.171549 0.000000
0.371048 0.169177 0.000000
0.407821 0.166828 0.000000
0.444619 0.164499 0.000000
0.481443 0.162192 0.000000
0.518291 0.159906 0.000000
0.555165 0.157639 0.000000
0.592062 0.155393 0.000000
0.628983 0.153165 0.000000
0.665927 0.150957 0.000000
0.702894 0.148767 0.000000
0.739883 0.146595 0.000000
0.776895 0.144441 0.000000
0.813928 0.142305 0.000000
0.850983 0.140186 0.000000
0.888059 0.138083 0.000000
0.925156 0.135997 0.000000
0.962274 0.133928 0.000000
0.999412 0.131874 0.000000
1.000000 0.129837 0.000000
1.000000 0.127814 0.000000
1.000000 0.125807 0.000000
0.000000 0.229518 0.000000
0.000000 0.226956 0.000000
0.000000 0.224422 0.000000
0.032904 0.221914 0.000000
0.069520 0.219432 0.000000
0.106165 0.216974 0.000000
0.142838 0.214541 0.000000
0.179540 0.212132 0.000000
0.216268 0.209746 0.000000
0.253024 0.207382 0.000000
0.289806 0.205040 0.000000
0.326614 0.202720 0.000000
0.363446 0.200420 0.000000
0.400304 0.198141 0.000000
0.437186 0.195882 0.000000
0.474092 0.193642 0.000000
0.511021 0.191422 0.000000
0.547974 0.189220 0.000000
0.584949 0.187037 0.000000
0.621947 0.184871 0.000000
0.658966 0.182724 0.000000
0.696007 0.180594 0.000000
0.733070 0.178481 0.000000
0.770154 0.176384 0.000000
0.807259 0.174305 0.000000
0.844384 0.172241 0.000000
0.881529 0.170193 0.000000
0.918694 0.168161 0.000000
0.955879 0.166144 0.000000
0.993084 0.164143 0.000000
1.000000 0.162156 0.000000
1.000000 0.160184 0.000000
1.000000 0.158226 0.000000
0.000000 0.260070 0.000000
0.000000 0.257597 0.000000
0.000000 0.255148 0.000000
0.024788 0.252724 0.000000
0.061499 0.250323 0.000000
0.098238 0.247945 0.000000
0.135003 0.245589 0.000000
0.171795 0.243255 0.000000
0.208611 0.240942 0.000000
0.245453 0.238650 0.000000
0.282320 0.236378 0.000000
0.319211 0.234126 0.000000
0.356125 0.231894 0.000000
0.393063 0.229680 0.000000
0.430024 0.227485 0.000000
0.467007 0.225309 0.000000
0.504013 0.223150 0.000000
0.541040 0.221009 0.000000
0.578089 0.218885 0.000000
0.615160 0.216778 0.000000
0.652251 0.214688 0.000000
0.689363 0.212614 0.000000
0.726496 0.210556 0.000000
0.763648 0.208514 0.000000
0.800821 0.206487 0.000000
0.838013 0.204476 0.000000
0.875225 0.202480 0.000000
0.912455 0.200499 0.000000
0.949705 0.198532 0.000000
0.986973 0.196580 0.000000
1.000000 0.194642 0.000000
1.000000 0.192718 0.000000
1.000000 0.190807 0.000000
0.000000 0.290910 0.000000
0.000000 0.288517 0.000000
0.000000 0.286147 0.000000
0.016986 0.283800 0.000000
0.053787 0.281473 0.000000
0.090613 0.279168 0.000000
0.127464 0.276883 0.000000
0.164339 0.274619 0.000000
0.201238 0.272374 0.000000
0.238161 0.270148 0.000000
0.275108 0.267942 0.000000
0.312077 0.265753 0.000000
0.349068 0.263583 0.000000
0.386082 0.261431 0.000000
0.423117 0.259296 0.000000
0.460174 0.257179 0.000000
0.497252 0.255078 0.000000
0.534351 0.252993 0.000000
0.571471 0.250925 0.000000
0.608611 0.248873 0.000000
0.645771 0.246837 0.000000
0.682950 0.244816 0.000000
0.720149 0.242810 0.000000
0.757368 0.240820 0.000000
0.794605 0.238844 0.000000
0.831862 0.236882 0.000000
0.869137 0.234935 0.000000
0.906430 0.233002 0.000000
0.943742 0.231083 0.000000
0.981072 0.229178 0.000000
1.000000 0.227286 0.000000
1.000000 0.225407 0.000000
1.000000 0.223541 0.000000
0.000000 0.322013 0.000000
0.000000 0.319694 0.000000
0.000000 0.317396 0.000000
0.009477 0.315119 0.000000
0.046361 0.312862 0.000000
0.083269 0.310624 0.000000
0.120201 0.308405 0.000000
0.157155 0.306205 0.000000
0.194133 0.304024 0.000000
0.231132 0.301860 0.000000
0.268154 0.299714 0.000000
0.305197 0.297586 0.000000
0.342262 0.295474 0.000000
0.379348 0.293379 0.000000
0.416454 0.291301 0.000000
0.453581 0.289239 0.000000
0.490728 0.287193 0.000000
0.527895 0.285162 0.000000
0.565082 0.283147 0.000000
0.602288 0.281146 0.000000
0.639514 0.279161 0.000000
0.676758 0.277190 0.000000
0.714022 0.275234 0.000000
0.751303 0.273292 0.000000
0.788603 0.271364 0.000000
0.825922 0.269450 0.000000
0.863258 0.267550 0.000000
0.900612 0.265663 0.000000
0.937984 0.263789 0.000000
0.975373 0.261928 0.000000
1.000000 0.260080 0.000000
1.000000 0.258245 0.000000
1.000000 0.256423 0.000000
0.000000 0.353358 0.000000
0.000000 0.351107 0.000000
0.000000 0.348877 0.000000
0.002243 0.346665 0.000000
0.039206 0.344472 0.000000
0.076192 0.342297 0.000000
0.113199 0.340139 0.000000
0.150229 0.338000 0.000000
0.187280 0.335878 0.000000
0.224352 0.333772 0.000000
0.261446 0.331683 0.000000
0.298560 0.329611 0.000000
0.335694 0.327555 0.000000
0.372848 0.325514 0.000000
0.410023 0.323489 0.000000
0.447217 0.321479 0.000000
0.484430 0.319484 0.000000
0.521662 0.317504 0.000000
0.558914 0.315539 0.000000
0.596184 0.313588 0.000000
0.633472 0.311651 0.000000
0.670779 0.309728 0.000000
0.708104 0.307819 0.000000
0.745447 0.305924 0.000000
0.782807 0.304041 0.000000
0.820185 0.302172 0.000000
0.857580 0.300316 0.000000
0.894993 0.298473 0.000000
0.932422 0.296643 0.000000
0.969869 0.294825 0.000000
1.000000 0.293019 0.000000
1.000000 0.291226 0.000000
1.000000 0.289444 0.000000
0.000000 0.384927 0.000000
0.000000 0.382740 0.000000
0.000000 0.380572 0.000000
0.000000 0.378421 0.000000
0.032307 0.376288 0.000000
0.069365 0.374172 0.000000
0.106445 0.372072 0.000000
0.143546 0.369990 0.000000
0.180668 0.367923 0.000000
0.217809 0.365872 0.000000
0.254971 0.363837 0.000000
0.292153 0.361818 0.000000
0.329354 0.359814 0.000000
0.366574 0.357824 0.000000
0.403813 0.355850 0.000000
0.441071 0.353890 0.000000
0.478348 0.351944 0.000000
0.515643 0.350012 0.000000
0.552957 0.348094 0.000000
0.590288 0.346190 0.000000
0.627637 0.344299 0.000000
0.665004 0.342422 0.000000
0.702388 0.340558 0.000000
0.739790 0.338706 0.000000
0.777209 0.336868 0.000000
0.814644 0.335042 0.000000
0.852097 0.333228 0.000000
0.889566 0.331427 0.000000
0.927051 0.329638 0.000000
0.964553 0.327861 0.000000
1.000000 0.326096 0.000000
1.000000 0.324343 0.000000
1.000000 0.322601 0.000000
0.000000 0.416705 0.000000
0.000000 0.414578 0.000000
0.000000 0.412468 0.000000
0.000000 0.410375 0.000000
0.025650 0.408298 0.000000
0.062779 0.406237 0.000000
0.099928 0.404192 0.000000
0.137097 0.402163 0.000000
0.174285 0.400149 0.000000
0.211493 0.398150 0.000000
0.248720 0.396166 0.000000
0.285967 0.394197 0.000000
0.323232 0.392242 0.000000
0.360515 0.390301 0.000000
0.397817 0.388375 0.000000
0.435137 0.386462 0.000000
0.472475 0.384563 0.000000
0.509830 0.382677 0.000000
0.547204 0.380804 0.000000
0.584594 0.378945 0.000000
0.622002 0.377098 0.000000
0.659427 0.375264 0.000000
0.696869 0.373443 0.000000
0.734327 0.371634 0.000000
0.771802 0.369837 0.000000
0.809294 0.368052 0.000000
0.846802 0.366280 0.000000
0.884326 0.364519 0.000000
0.921865 0.362770 0.000000
0.959421 0.361032 0.000000
0.996993 0.359306 0.000000
1.000000 0.357591 0.000000
1.000000 0.355887 0.000000
0.000000 0.448679 0.000000
0.000000 0.446608 0.000000
0.000000 0.444553 0.000000
0.000000 0.442514 0.000000
0.019225 0.440491 0.000000
0.056420 0.438482 0.000000
0.093635 0.436489 0.000000
0.130869 0.434510 0.000000
0.168123 0.432546 0.000000
0.205394 0.430596 0.000000
0.242684 0.428661 0.000000
0.279993 0.426739 0.000000
0.317319 0.424831 0.000000
0.354664 0.422937 0.000000
0.392026 0.421056 0.000000
0.429406 0.419188 0.000000
0.466802 0.417333 0.000000
0.504216 0.415491 0.000000
0.541648 0.413662 0.000000
0.579095 0.411845 0.000000
0.616560 0.410041 0.000000
0.654041 0.408248 0.000000
0.691538 0.406468 0.000000
0.729052 0.404700 0.000000
0.766582 0.402943 0.000000
0.804128 0.401198 0.000000
0.841689 0.399465 0.000000
0.879266 0.397743 0.000000
0.916859 0.396032 0.000000
0.954467 0.394332 0.000000
0.992091 0.392643 0.000000
1.000000 0.390965 0.000000
1.000000 0.389298 0.000000
0.000000 0.480838 0.000000
0.000000 0.478820 0.000000
0.000000 0.476817 0.000000
0.000000 0.474829 0.000000
0.013021 0.472856 0.000000
0.050281 0.470897 0.000000
0.087559 0.468953 0.000000
0.124856 0.467022 0.000000
0.162171 0.465106 0.000000
0.199504 0.463203 0.000000
0.236855 0.461313 0.000000
0.274224 0.459437 0.000000
0.311610 0.457574 0.000000
0.349013 0.455724 0.000000
0.386433 0.453886 0.000000
0.423870 0.452062 0.000000
0.461324 0.450249 0.000000
0.498795 0.448449 0.000000
0.536282 0.446661 0.000000
0.573785 0.444886 0.000000
0.611305 0.443122 0.000000
0.648840 0.441369 0.000000
0.686392 0.439628 0.000000
0.723959 0.437899 0.000000
0.761542 0.436181 0.000000
0.799140 0.434474 0.000000
0.836754 0.432778 0.000000
0.874383 0.431093 0.000000
0.912027 0.429419 0.000000
0.949686 0.427756 0.000000
0.987361 0.426103 0.000000
1.000000 0.424461 0.000000
1.000000 0.422829 0.000000
0.000000 0.513172 0.000000
0.000000 0.511204 0.000000
0.000000 0.509250 0.000000
0.000000 0.507311 0.000000
0.007031 0.505385 0.000000
0.044352 0.503474 0.000000
0.081692 0.501576 0.000000
0.119049 0.499691 0.000000
0.156424 0.497820 0.000000
0.193816 0.495961 0.000000
0.231225 0.494116 0.000000
0.268652 0.492283 0.000000
0.306095 0.490463 0.000000
0.343555 0.488655 0.000000
0.381032 0.486860 0.000000
0.418525 0.485076 0.000000
0.456034 0.483304 0.000000
0.493560 0.481545 0.000000
0.531101 0.479797 0.000000
0.568658 0.478060 0.000000
0.606231 0.476335 0.000000
0.643820 0.474621 0.000000
0.681424 0.472918 0.000000
0.719043 0.471226 0.000000
0.756678 0.469545 0.000000
0.794327 0.467875 0.000000
0.831992 0.466216 0.000000
0.869671 0.464567 0.000000
0.907366 0.462928 0.000000
0.945075 0.461300 0.000000
0.982798 0.459682 0.000000
1.000000 0.458074 0.000000
1.000000 0.456477 0.000000
0.000000 0.545671 0.000000
0.000000 0.543750 0.000000
0.000000 0.541844 0.000000
0.000000 0.539951 0.000000
0.001245 0.538071 0.000000
0.038626 0.536204 0.000000
0.076025 0.534351 0.000000
0.113440 0.532510 0.000000
0.150873 0.530682 0.000000
0.188322 0.528866 0.000000
0.225788 0.527063 0.000000
0.263271 0.525271 0.000000
0.300770 0.523492 0.000000
0.338285 0.521725 0.000000
0.375816 0.519969 0.000000
0.413364 0.518226 0.000000
0.450927 0.516493 0.000000
0.488505 0.514772 0.000000
0.526099 0.513062 0.000000
0.563709 0.511363 0.000000
0.601334 0.509675 0.000000
0.638974 0.507998 0.000000
0.676629 0.506332 0.000000
0.714299 0.504677 0.000000
0.751984 0.503031 0.000000
0.789684 0.501397 0.000000
0.827398 0.499772 0.000000
0.865127 0.498158 0.000000
0.902870 0.496554 0.000000
0.940627 0.494960 0.000000
0.978399 0.493376 0.000000
1.000000 0.491801 0.000000
1.000000 0.490236 0.000000
0.000000 0.578327 0.000000
0.000000 0.576452 0.000000
0.000000 0.574590 0.000000
0.000000 0.572741 0.000000
0.000000 0.570905 0.000000
0.033096 0.569082 0.000000
0.070552 0.567270 0.000000
0.108024 0.565472 0.000000
0.145512 0.563685 0.000000
0.183017 0.561910 0.000000
0.220538 0.560147 0.000000
0.258075 0.558396 0.000000
0.295628 0.556656 0.000000
0.333197 0.554928 0.000000
0.370781 0.553211 0.000000
0.408381 0.551505 0.000000
0.445996 0.549810 0.000000
0.483627 0.548126 0.000000
0.521272 0.546453 0.000000
0.558933 0.544791 0.000000
0.596608 0.543139 0.000000
0.634299 0.541498 0.000000
0.672004 0.539867 0.000000
0.709723 0.538246 0.000000
0.747457 0.536635 0.000000
0.785206 0.535035 0.000000
0.822968 0.533444 0.000000
0.860745 0.531864 0.000000
0.898536 0.530293 0.000000
0.936341 0.528732 0.000000
0.974160 0.527180 0.000000
1.000000 0.525638 0.000000
1.000000 0.524105 0.000000
0.000000 0.611134 0.000000
0.000000 0.609302 0.000000
0.000000 0.607483 0.000000
0.000000 0.605677 0.000000
0.000000 0.603882 0.000000
0.027756 0.602100 0.000000
0.065267 0.600329 0.000000
0.102794 0.598571 0.000000
0.140336 0.596823 0.000000
0.177895 0.595088 0.000000
0.215470 0.593364 0.000000
0.253060 0.591651 0.000000
0.290665 0.589949 0.000000
0.328286 0.588258 0.000000
0.365922 0.586578 0.000000
0.403573 0.584909 0.000000
0.441239 0.583251 0.000000
0.478920 0.581603 0.000000
0.516615 0.579965 0.000000
0.554326 0.578338 0.000000
0.592050 0.576721 0.000000
0.629790 0.575114 0.000000
0.667543 0.573517 0.000000
0.705311 0.571930 0.000000
0.743093 0.570353 0.000000
0.780889 0.568786 0.000000
0.818699 0.567228 0.000000
0.856523 0.565680 0.000000
0.894361 0.564141 0.000000
0.932212 0.562612 0.000000
0.970077 0.561092 0.000000
1.000000 0.559581 0.000000
1.000000 0.558079 0.000000
0.000000 0.644084 0.000000
0.000000 0.642294 0.000000
0.000000 0.640516 0.000000
0.000000 0.638750 0.000000
0.000000 0.636996 0.000000
0.022600 0.635253 0.000000
0.060164 0.633521 0.000000
0.097744 0.631801 0.000000
0.135340 0.630093 0.000000
0.172951 0.628395 0.000000
0.210577 0.626708 0.000000
0.248219 0.625032 0.000000
0.285875 0.623367 0.000000
0.323546 0.621712 0.000000
0.361233 0.620068 0.000000
0.398934 0.618434 0.000000
0.436649 0.616811 0.000000
0.474379 0.615197 0.000000
0.512124 0.613594 0.000000
0.549883 0.612001 0.000000
0.587656 0.610417 0.000000
0.625443 0.608844 0.000000
0.663244 0.607280 0.000000
0.701059 0.605726 0.000000
0.738888 0.604181 0.000000
0.776731 0.602646 0.000000
0.814587 0.601120 0.000000
0.852457 0.599603 0.000000
0.890341 0.598095 0.000000
0.928238 0.596597 0.000000
0.966148 0.595107 0.000000
1.000000 0.593627 0.000000
1.000000 0.592155 0.000000
0.000000 0.677173 0.000000
0.000000 0.675422 0.000000
0.000000 0.673684 0.000000
0.000000 0.671956 0.000000
0.000000 0.670240 0.000000
0.017622 0.668536 0.000000
0.055239 0.666842 0.000000
0.092870 0.665159 0.000000
0.130517 0.663487 0.000000
0.168179 0.661826 0.000000
0.205856 0.660175 0.000000
0.243548 0.658534 0.000000
0.281254 0.656904 0.000000
0.318975 0.655285 0.000000
0.356710 0.653675 0.000000
0.394460 0.652075 0.000000
0.432224 0.650486 0.000000
0.470002 0.648906 0.000000
0.507795 0.647336 0.000000
0.545601 0.645776 0.000000
0.583421 0.644225 0.000000
0.621255 0.642683 0.000000
0.659103 0.641152 0.000000
0.696964 0.639629 0.000000
0.734839 0.638116 0.000000
0.772727 0.636611 0.000000
0.810629 0.635116 0.000000
0.848544 0.633630 0.000000
0.886473 0.632153 0.000000
0.924414 0.630684 0.000000
0.962369 0.629224 0.000000
1.000000 0.627773 0.000000
1.000000 0.626331 0.000000
0.000000 0.710393 0.000000
0.000000 0.708681 0.000000
0.000000 0.706980 0.000000
0.000000 0.705290 0.000000
0.000000 0.703612 0.000000
0.012818 0.701943 0.000000
0.050486 0.700286 0.000000
0.088168 0.698639 0.000000
0.125865 0.697002 0.000000
0.163577 0.695376 0.000000
0.201303 0.693760 0.000000
0.239043 0.692154 0.000000
0.276798 0.690558 0.000000
0.314568 0.688972 0.000000
0.352351 0.687396 0.000000
0.390148 0.685829 0.000000
0.427960 0.684272 0.000000
0.465785 0.682725 0.000000
0.503624 0.681187 0.000000
0.541476 0.679659 0.000000
0.579343 0.678139 0.000000
0.617223 0.676629 0.000000
0.655116 0.675128 0.000000
0.693022 0.673636 0.000000
0.730942 0.672154 0.000000
0.768875 0.670679 0.000000
0.806822 0.669214 0.000000
0.844781 0.667758 0.000000
0.882753 0.666310 0.000000
0.920738 0.664870 0.000000
0.958736 0.663440 0.000000
0.996747 0.662017 0.000000
1.000000 0.660603 0.000000
0.000000 0.743740 0.000000
0.000000 0.742065 0.000000
0.000000 0.740401 0.000000
0.000000 0.738747 0.000000
0.000000 0.737104 0.000000
0.008184 0.735471 0.000000
0.045901 0.733849 0.000000
0.083632 0.732237 0.000000
0.121378 0.730634 0.000000
0.159138 0.729042 0.000000
0.196913 0.727460 0.000000
0.234701 0.725887 0.000000
0.272504 0.724324 0.000000
0.310320 0.722770 0.000000
0.348150 0.721227 0.000000
0.385994 0.719692 0.000000
0.423852 0.718167 0.000000
0.461723 0.716651 0.000000
0.499608 0.715144 0.000000
0.537506 0.713647 0.000000
0.575417 0.712158 0.000000
0.613342 0.710678 0.000000
0.651280 0.709207 0.000000
0.689231 0.707745 0.000000
0.727195 0.706292 0.000000
0.765172 0.704847 0.000000
0.803162 0.703411 0.000000
0.841164 0.701983 0.000000
0.879180 0.700564 0.000000
0.917208 0.699153 0.000000
0.955249 0.697750 0.000000
0.993302 0.696356 0.000000
1.000000 0.694970 0.000000
0.000000 0.777211 0.000000
0.000000 0.775571 0.000000
0.000000 0.773942 0.000000
0.000000 0.772323 0.000000
0.000000 0.770715 0.000000
0.003715 0.769116 0.000000
0.041480 0.767527 0.000000
0.079260 0.765948 0.000000
0.117053 0.764379 0.000000
0.154861 0.762820 0.000000
0.192682 0.761270 0.000000
0.230518 0.759729 0.000000
0.268367 0.758198 0.000000
0.306229 0.756677 0.000000
0.344105 0.755164 0.000000
0.381995 0.753661 0.000000
0.419898 0.752166 0.000000
0.457814 0.750681 0.000000
0.495744 0.749204 0.000000
0.533686 0.747737 0.000000
0.571642 0.746278 0.000000
0.609611 0.744828 0.000000
0.647592 0.743386 0.000000
0.685587 0.741953 0.000000
0.723594 0.740528 0.000000
0.761614 0.739112 0.000000
0.799647 0.737704 0.000000
0.837692 0.736304 0.000000
0.875750 0.734913 0.000000
0.913820 0.733530 0.000000
0.951903 0.732154 0.000000
0.989998 0.730787 0.000000
1.000000 0.729428 0.000000
0.000000 0.810799 0.000000
0.000000 0.809194 0.000000
0.000000 0.807599 0.000000
0.000000 0.806014 0.000000
0.000000 0.804438 0.000000
0.000000 0.802873 0.000000
0.037220 0.801317 0.000000
0.075046 0.799770 0.000000
0.112887 0.798233 0.000000
0.150741 0.796706 0.000000
0.188608 0.795187 0.000000
0.226489 0.793678 0.000000
0.264384 0.792178 0.000000
0.302291 0.790687 0.000000
0.340213 0.789205 0.000000
0.378147 0.787732 0.000000
0.416094 0.786267 0.000000
0.454055 0.784811 0.000000
0.492028 0.783364 0.000000
0.530015 0.781926 0.000000
0.568014 0.780496 0.000000
0.606026 0.779074 0.000000
0.644050 0.777661 0.000000
