asset_packs/oak_lichen_evening/mood/grade_33.cube
TITLE "oak_lichen_evening mood grade"
# Generated by construction_code_v2/gen_asset_packs.py. Domain: display-referred sRGB in, sRGB out.
LUT_3D_SIZE 9
DOMAIN_MIN 0.0 0.0 0.0
DOMAIN_MAX 1.0 1.0 1.0
0.011616 0.004370 0.000000
0.150014 0.000000 0.000000
0.291507 0.000000 0.000000
0.434412 0.000000 0.000000
0.578308 0.000000 0.000000
0.722989 0.000000 0.000000
0.868325 0.000000 0.000000
1.000000 0.000000 0.000000
1.000000 0.000000 0.000000
0.000000 0.110970 0.000000
0.105264 0.099039 0.000000
0.250195 0.087768 0.000000
0.395747 0.077049 0.000000
0.541843 0.066805 0.000000
0.688426 0.056979 0.000000
0.835452 0.047526 0.000000
0.982886 0.038411 0.000000
1.000000 0.029607 0.000000
0.000000 0.229518 0.000000
0.069520 0.219432 0.000000
0.216268 0.209746 0.000000
0.363446 0.200420 0.000000
0.511021 0.191422 0.000000
0.658966 0.182724 0.000000
0.807259 0.174305 0.000000
0.955879 0.166144 0.000000
1.000000 0.158226 0.000000
0.000000 0.353358 0.000000
0.039206 0.344472 0.000000
0.187280 0.335878 0.000000
0.335694 0.327555 0.000000
0.484430 0.319484 0.000000
0.633472 0.311651 0.000000
0.782807 0.304041 0.000000
0.932422 0.296643 0.000000
1.000000 0.289444 0.000000
0.000000 0.480838 0.000000
0.013021 0.472856 0.000000
0.162171 0.465106 0.000000
0.311610 0.457574 0.000000
0.461324 0.450249 0.000000
0.611305 0.443122 0.000000
0.761542 0.436181 0.000000
0.912027 0.429419 0.000000
1.000000 0.422829 0.000000
0.000000 0.611134 0.000000
0.000000 0.603882 0.000000
0.140336 0.596823 0.000000
0.290665 0.589949 0.000000
0.441239 0.583251 0.000000
0.592050 0.576721 0.000000
0.743093 0.570353 0.000000
0.894361 0.564141 0.000000
1.000000 0.558079 0.000000
0.000000 0.743740 0.000000
0.000000 0.737104 0.000000
0.121378 0.730634 0.000000
0.272504 0.724324 0.000000
0.423852 0.718167 0.000000
0.575417 0.712158 0.000000
0.727195 0.706292 0.000000
0.879180 0.700564 0.000000
1.000000 0.694970 0.000000
0.000000 0.878315 0.000000
0.000000 0.872212 0.000000
0.105015 0.866256 0.000000
0.256868 0.860441 0.000000
0.408928 0.854762 0.000000
0.561188 0.849215 0.000000
0.713646 0.843797 0.000000
0.866298 0.838502 0.000000
1.000000 0.833329 0.000000
0.000000 1.000000 0.000000
0.000000 1.000000 0.000000
0.091035 1.000000 0.000000
0.243564 0.998105 0.000000
0.396285 0.992855 0.000000
0.549195 0.987724 0.000000
0.702290 0.982710 0.000000
0.855567 0.977808 0.000000
1.000000 0.973017 0.000000
0.004833 0.000000 0.119418
0.144799 0.000000 0.105169
0.286845 0.000000 0.092737
0.430118 0.000000 0.081270
0.574299 0.000000 0.070450
0.719214 0.000000 0.060101
0.864752 0.000000 0.050112
1.000000 0.000000 0.040408
1.000000 0.000000 0.030929
0.000000 0.106835 0.077267
0.101344 0.095143 0.066634
0.246497 0.084071 0.056427
0.392241 0.073520 0.046550
0.538508 0.063424 0.036933
0.685246 0.053728 0.027526
0.832414 0.044394 0.018286
0.979979 0.035388 0.009182
1.000000 0.026683 0.000186
0.000000 0.226045 0.043022
0.066243 0.216100 0.033487
0.213141 0.206540 0.024144
0.360457 0.197329 0.014957
0.508161 0.188435 0.005896
0.656226 0.179834 0.000000
0.804632 0.171505 0.000000
0.953360 0.163429 0.000000
1.000000 0.155590 0.000000
0.000000 0.350306 0.011645
0.036390 0.341521 0.002623
0.184582 0.333022 0.000000
0.333107 0.324786 0.000000
0.481948 0.316798 0.000000
0.631092 0.309042 0.000000
0.780523 0.301506 0.000000
0.930231 0.294176 0.000000
1.000000 0.287044 0.000000
0.000000 0.478100 0.000000
0.010577 0.470199 0.000000
0.159826 0.462524 0.000000
0.309360 0.455064 0.000000
0.459166 0.447807 0.000000
0.609234 0.440744 0.000000
0.759557 0.433865 0.000000
0.910125 0.427162 0.000000
1.000000 0.420629 0.000000
0.000000 0.608649 0.000000
0.000000 0.601464 0.000000
0.138297 0.594469 0.000000
0.288710 0.587655 0.000000
0.439365 0.581015 0.000000
0.590256 0.574541 0.000000
0.741376 0.568226 0.000000
0.892719 0.562066 0.000000
1.000000 0.556053 0.000000
0.000000 0.741468 0.000000
0.000000 0.734889 0.000000
0.119613 0.728474 0.000000
0.270814 0.722216 0.000000
0.422237 0.716110 0.000000
0.573875 0.710150 0.000000
0.725723 0.704332 0.000000
0.877778 0.698649 0.000000
1.000000 0.693100 0.000000
0.000000 0.876226 0.000000
0.000000 0.870174 0.000000
0.103498 0.864266 0.000000
0.255422 0.858497 0.000000
0.407551 0.852864 0.000000
0.559879 0.847361 0.000000
0.712403 0.841985 0.000000
0.865119 0.836732 0.000000
1.000000 0.831598 0.000000
0.000000 1.000000 0.000000
0.000000 1.000000 0.000000
0.089750 1.000000 0.000000
0.242344 0.996308 0.000000
0.395130 0.991099 0.000000
0.548103 0.986008 0.000000
0.701260 0.981033 0.000000
0.854598 0.976169 0.000000
1.000000 0.971414 0.000000
0.000000 0.000000 0.270505
0.139806 0.000000 0.257057
0.282321 0.000000 0.245005
0.425928 0.000000 0.233784
0.570374 0.000000 0.223139
0.715511 0.000000 0.212923
0.861241 0.000000 0.203038
1.000000 0.000000 0.193416
1.000000 0.000000 0.184004
0.000000 0.102788 0.229851
0.097504 0.091319 0.219375
0.242866 0.080433 0.209290
0.388795 0.070043 0.199508
0.535227 0.060088 0.189967
0.682115 0.050520 0.180621
0.829421 0.041300 0.171431
0.977115 0.032399 0.162366
1.000000 0.023792 0.153402
0.000000 0.222622 0.196009
0.063018 0.212812 0.186544
0.210062 0.203374 0.177259
0.357513 0.194274 0.168117
0.505342 0.185483 0.159092
0.653525 0.176976 0.150159
0.802042 0.168735 0.141298
0.950876 0.160741 0.132492
1.000000 0.152980 0.123726
0.000000 0.347289 0.164819
0.033615 0.338604 0.155830
0.181922 0.330196 0.146926
0.330556 0.322047 0.138087
0.479502 0.314139 0.129297
0.628744 0.306459 0.120541
0.778271 0.298994 0.111808
0.928070 0.291732 0.103086
1.000000 0.284664 0.094364
0.000000 0.475391 0.134882
0.008167 0.467567 0.126106
0.157514 0.459967 0.117360
0.307141 0.452577 0.108632
0.457038 0.445387 0.099911
0.607193 0.438388 0.091188
0.757600 0.431569 0.082453
0.908249 0.424925 0.073699
1.000000 0.418447 0.064919
0.000000 0.606187 0.105457
0.000000 0.599067 0.096736
0.136287 0.592135 0.088009
0.286783 0.585381 0.079269
0.437519 0.578798 0.070506
0.588489 0.572379 0.061714
0.739685 0.566117 0.052888
0.891102 0.560008 0.044020
1.000000 0.554044 0.035106
0.000000 0.739215 0.076081
0.000000 0.732692 0.067309
0.117873 0.726331 0.058505
0.269150 0.720126 0.049664
0.420647 0.714070 0.040780
0.572357 0.708159 0.031848
0.724276 0.702387 0.022862
0.876399 0.696750 0.013819
1.000000 0.691244 0.004714
0.000000 0.874154 0.046435
0.000000 0.868151 0.037534
0.102006 0.862291 0.028583
0.254000 0.856569 0.019577
0.406196 0.850981 0.010511
0.558591 0.845521 0.001382
0.711181 0.840187 0.000000
0.863962 0.834975 0.000000
1.000000 0.829882 0.000000
0.000000 1.000000 0.016284
0.000000 1.000000 0.007195
0.088487 0.999815 0.000000
0.241146 0.994526 0.000000
0.393996 0.989357 0.000000
0.547032 0.984306 0.000000
0.700251 0.979368 0.000000
0.853651 0.974542 0.000000
1.000000 0.969824 0.000000
0.000000 0.000000 0.421964
0.134995 0.000000 0.409097
0.277921 0.000000 0.397367
0.421834 0.000000 0.386363
0.566528 0.000000 0.375877
0.711876 0.000000 0.365782
0.857791 0.000000 0.355994
1.000000 0.000000 0.346448
1.000000 0.000000 0.337097
0.000000 0.098821 0.382493
0.093738 0.087562 0.372162
0.239301 0.076852 0.362187
0.385407 0.066617 0.352493
0.531998 0.056797 0.343023
0.679032 0.047351 0.333734
0.826473 0.038243 0.324589
0.974293 0.029444 0.315562
1.000000 0.020931 0.306627
0.000000 0.219246 0.349022
0.059844 0.209567 0.339623
0.207030 0.200248 0.330390
0.354612 0.191255 0.321291
0.502563 0.182563 0.312299
0.650862 0.174149 0.303393
0.799489 0.165993 0.294552
0.948427 0.158080 0.285761
1.000000 0.150394 0.277005
0.000000 0.344307 0.318006
0.030879 0.335719 0.309048
0.179300 0.327400 0.300168
0.328041 0.319335 0.291347
0.477089 0.311506 0.282570
0.626430 0.303900 0.273824
0.776050 0.296505 0.265095
0.925940 0.289311 0.256374
1.000000 0.282307 0.247651
0.000000 0.472708 0.288147
0.005791 0.464962 0.279383
0.155234 0.457434 0.270645
0.304954 0.450113 0.261920
0.454939 0.442989 0.253199
0.605181 0.436052 0.244473
0.755671 0.429294 0.235733
0.906401 0.422707 0.226971
1.000000 0.416284 0.218180
0.000000 0.603748 0.258745
0.000000 0.596692 0.250023
0.134306 0.589821 0.241293
0.284884 0.583126 0.232546
0.435700 0.576600 0.223774
0.586747 0.570235 0.214971
0.738019 0.564026 0.206131
0.889510 0.557966 0.197248
1.000000 0.552051 0.188317
0.000000 0.736981 0.229355
0.000000 0.730514 0.220573
0.116159 0.724207 0.211757
0.267512 0.718053 0.202902
0.419081 0.712046 0.194003
0.570863 0.706183 0.185053
0.722852 0.700458 0.176048
0.875043 0.694866 0.166984
1.000000 0.689403 0.157857
0.000000 0.872099 0.199668
0.000000 0.866145 0.190750
0.100538 0.860333 0.181781
0.252601 0.854657 0.172755
0.404865 0.849112 0.163669
0.557327 0.843696 0.154517
0.709982 0.838404 0.145297
0.862827 0.833232 0.136005
1.000000 0.828178 0.126637
0.000000 1.000000 0.169454
0.000000 1.000000 0.160345
0.087246 0.998005 0.151169
0.239970 0.992757 0.141923
0.392884 0.987629 0.132603
0.545982 0.982616 0.123207
0.699263 0.977717 0.113731
0.852723 0.972928 0.104173
1.000000 0.968246 0.094529
0.000000 0.000000 0.573673
0.130341 0.000000 0.561264
0.273633 0.000000 0.549811
0.417829 0.000000 0.539001
0.562757 0.000000 0.528660
0.708306 0.000000 0.518677
0.854399 0.000000 0.508978
1.000000 0.000000 0.499503
1.000000 0.000000 0.490209
0.000000 0.094930 0.535188
0.090044 0.083868 0.524989
0.235798 0.073326 0.515117
0.382075 0.063238 0.505505
0.528821 0.053549 0.496100
0.675997 0.044222 0.486864
0.823569 0.035221 0.477762
0.971512 0.026522 0.468768
1.000000 0.018101 0.459860
0.000000 0.215916 0.502059
0.056719 0.206364 0.492720
0.204043 0.197159 0.483536
0.351753 0.188271 0.474476
0.499825 0.179675 0.465516
0.648237 0.171351 0.456634
0.796971 0.163279 0.447812
0.946012 0.155445 0.439034
1.000000 0.147834 0.430287
0.000000 0.341359 0.471204
0.028183 0.332864 0.462274
0.176715 0.324634 0.453416
0.325562 0.316650 0.444612
0.474711 0.308899 0.435847
0.624147 0.301366 0.427108
0.773860 0.294040 0.418383
0.923839 0.286911 0.409663
1.000000 0.279970 0.400937
0.000000 0.470052 0.441417
0.003447 0.462382 0.432663
0.152986 0.454925 0.423931
0.302797 0.447673 0.415209
0.452871 0.440613 0.406487
0.603198 0.433737 0.397757
0.753770 0.427038 0.389010
0.904580 0.420507 0.380239
1.000000 0.414139 0.371437
0.000000 0.601330 0.412034
0.000000 0.594339 0.403310
0.132353 0.587528 0.394575
0.283013 0.580891 0.385820
0.433908 0.574420 0.377038
0.585032 0.568109 0.368223
0.736379 0.561951 0.359370
0.887943 0.555942 0.350471
1.000000 0.550075 0.341522
0.000000 0.734767 0.382626
0.000000 0.728354 0.373833
0.114471 0.722100 0.365005
0.265898 0.715997 0.356135
0.417540 0.710039 0.347219
0.569393 0.704223 0.338251
0.721451 0.698544 0.329227
0.873710 0.692996 0.320142
1.000000 0.687577 0.310992
0.000000 0.870061 0.352895
0.000000 0.864156 0.343960
0.099093 0.858390 0.334972
0.251225 0.852759 0.325926
0.403557 0.847259 0.316818
0.556084 0.841885 0.307644
0.708804 0.836634 0.298400
0.861713 0.831503 0.289082
1.000000 0.826488 0.279688
0.000000 1.000000 0.322618
0.000000 1.000000 0.313486
0.086027 0.996209 0.304287
0.238816 0.991002 0.295016
0.391793 0.985914 0.285671
0.544953 0.980940 0.276248
0.698295 0.976078 0.266744
0.851816 0.971326 0.257157
1.000000 0.966680 0.247483
0.000000 0.000000 0.725570
0.125824 0.000000 0.713537
0.269449 0.000000 0.702329
0.413909 0.000000 0.691693
0.559058 0.000000 0.681484
0.704799 0.000000 0.671605
0.851063 0.000000 0.661987
0.997798 0.000000 0.652578
1.000000 0.000000 0.643338
0.000000 0.091109 0.687932
0.086417 0.080233 0.677853
0.232356 0.069852 0.668076
0.378797 0.059905 0.658540
0.525693 0.050343 0.649197
0.673007 0.041130 0.640009
0.820708 0.032235 0.630947
0.968771 0.023632 0.621984
1.000000 0.015301 0.613100
0.000000 0.212631 0.655118
0.053643 0.203200 0.645835
0.201101 0.194106 0.636697
0.348937 0.185320 0.627673
0.497126 0.176819 0.618742
0.645649 0.168582 0.609882
0.794489 0.160593 0.601077
0.943631 0.152836 0.592311
1.000000 0.145298 0.583572
0.000000 0.338443 0.624412
0.025525 0.330041 0.615509
0.174166 0.321896 0.606671
0.323117 0.313993 0.597882
0.472365 0.306317 0.589127
0.621897 0.298855 0.580394
0.771701 0.291598 0.571672
0.921769 0.284533 0.562950
1.000000 0.277653 0.554220
0.000000 0.467422 0.594691
0.001137 0.459826 0.585946
0.150769 0.452440 0.577218
0.300671 0.445254 0.568497
0.450831 0.438258 0.559773
0.601242 0.431443 0.551038
0.751896 0.424802 0.542284
0.902786 0.418327 0.533503
1.000000 0.412012 0.524689
0.000000 0.598935 0.565322
0.000000 0.592006 0.556595
0.130427 0.585255 0.547854
0.281168 0.578675 0.539091
0.432142 0.572259 0.530299
0.583342 0.566001 0.521471
0.734764 0.559894 0.512603
0.886400 0.553933 0.503688
1.000000 0.548114 0.494721
0.000000 0.732571 0.535894
0.000000 0.726213 0.527089
0.112809 0.720010 0.518248
0.264309 0.713957 0.509363
0.416023 0.708049 0.500429
0.567946 0.702279 0.491443
0.720073 0.696645 0.482398
0.872400 0.691142 0.473292
1.000000 0.685765 0.464119
0.000000 0.868040 0.506116
0.000000 0.862182 0.497164
0.097672 0.856463 0.488157
0.249872 0.850877 0.479090
0.402271 0.845420 0.469960
0.554864 0.840088 0.460762
0.707649 0.834878 0.451494
0.860620 0.829787 0.442150
1.000000 0.824810 0.432730
0.000000 1.000000 0.475774
0.000000 0.999714 0.466620
0.084831 0.994428 0.457396
0.237684 0.989261 0.448101
0.390723 0.984212 0.438730
0.543946 0.979277 0.429280
0.697349 0.974452 0.419748
0.850929 0.969736 0.410132
1.000000 0.965126 0.400428
0.000000 0.000000 0.877618
0.121430 0.000000 0.865904
0.265360 0.000000 0.854911
0.410067 0.000000 0.844433
0.555426 0.000000 0.834346
0.701352 0.000000 0.824562
0.847781 0.000000 0.815021
0.994666 0.000000 0.805673
1.000000 0.000000 0.796482
0.000000 0.087356 0.840721
0.082856 0.076656 0.830752
0.228971 0.066428 0.821063
0.375571 0.056616 0.811597
0.522613 0.047177 0.802311
0.670061 0.038075 0.793169
0.817888 0.029282 0.784143
0.966069 0.020774 0.775209
1.000000 0.012531 0.766348
0.000000 0.209389 0.808197
0.050613 0.200076 0.798967
0.198202 0.191089 0.789870
0.346161 0.182402 0.780881
0.494466 0.173993 0.771976
0.643098 0.165842 0.763136
0.792042 0.157933 0.754346
0.941283 0.150252 0.745591
1.000000 0.142785 0.736857
0.000000 0.335560 0.777630
0.022905 0.327246 0.768751
0.171653 0.319185 0.759931
0.320707 0.311361 0.751155
0.470052 0.303759 0.742409
0.619678 0.296368 0.733681
0.769573 0.289177 0.724960
0.919727 0.282177 0.716237
1.000000 0.275357 0.707502
0.000000 0.464818 0.747968
0.000000 0.457295 0.739230
0.148584 0.449978 0.730506
0.298574 0.442857 0.721785
0.448821 0.435923 0.713059
0.599315 0.429168 0.704318
0.750050 0.422584 0.695555
0.901018 0.416164 0.686764
1.000000 0.409902 0.677938
0.000000 0.596562 0.718609
0.000000 0.589694 0.709879
0.128530 0.583002 0.701131
0.279350 0.576478 0.692358
0.430402 0.570117 0.683555
0.581678 0.563910 0.674714
0.733173 0.557854 0.665831
0.884882 0.551941 0.656899
1.000000 0.546169 0.647913
0.000000 0.730394 0.689157
0.000000 0.724089 0.680341
0.111172 0.717938 0.671485
0.262745 0.711935 0.662585
0.414531 0.706074 0.653634
0.566523 0.700351 0.644628
0.718719 0.694762 0.635563
0.871113 0.689302 0.626434
1.000000 0.683967 0.617238
0.000000 0.866035 0.659332
0.000000 0.860225 0.650362
0.096274 0.854551 0.641335
0.248542 0.849009 0.632247
0.401007 0.843595 0.623094
0.553666 0.838305 0.613873
0.706514 0.833136 0.604579
0.859549 0.828084 0.595210
1.000000 0.823146 0.585762
0.000000 1.000000 0.628922
0.000000 0.997905 0.619745
0.083656 0.992660 0.610498
0.236573 0.987533 0.601177
0.389675 0.982523 0.591780
0.542959 0.977626 0.582302
0.696422 0.972839 0.572742
0.850062 0.968159 0.563096
1.000000 0.963584 0.553362
0.000000 0.000000 1.000000
0.117149 0.000000 1.000000
0.261360 0.000000 1.000000
0.406300 0.000000 0.997219
0.551860 0.000000 0.987243
0.697963 0.000000 0.977547
0.844552 0.000000 0.968076
0.991583 0.000000 0.958786
1.000000 0.000000 0.949641
0.000000 0.083665 0.993550
0.079356 0.073133 0.983684
0.225642 0.063052 0.974076
0.372396 0.053371 0.964675
0.519580 0.044049 0.955441
0.667160 0.035055 0.946342
0.815109 0.026361 0.937350
0.963406 0.017945 0.928443
1.000000 0.009788 0.919602
0.000000 0.206187 0.961296
0.047629 0.196989 0.952114
0.195346 0.188106 0.943057
0.343425 0.179516 0.934098
0.491843 0.171197 0.925217
0.640583 0.163130 0.916396
0.789629 0.155300 0.907620
0.938968 0.147693 0.898873
1.000000 0.140297 0.890145
0.000000 0.332707 0.930857
0.020322 0.324481 0.922000
0.169176 0.316502 0.913197
0.318330 0.308755 0.904432
0.467772 0.301226 0.895694
0.617490 0.293904 0.886969
0.767474 0.286779 0.878249
0.917714 0.279841 0.869522
1.000000 0.273082 0.860782
0.000000 0.462239 0.901249
0.000000 0.454787 0.892516
0.146428 0.447538 0.883794
0.296507 0.440482 0.875073
0.446839 0.433610 0.866342
0.597416 0.426914 0.857595
0.748230 0.420386 0.848823
0.899276 0.414020 0.840021
1.000000 0.407810 0.831181
0.000000 0.594209 0.871896
0.000000 0.587402 0.863160
0.126660 0.580768 0.854405
0.277559 0.574300 0.845623
0.428688 0.567992 0.836807
0.580039 0.561837 0.827953
0.731607 0.555830 0.819053
0.883387 0.549966 0.810103
1.000000 0.544240 0.801099
0.000000 0.728235 0.842417
0.000000 0.721984 0.833588
0.109559 0.715883 0.824718
0.261206 0.709929 0.815801
0.413062 0.704115 0.806832
0.565124 0.698438 0.797806
0.717387 0.692893 0.788720
0.869848 0.687476 0.779569
1.000000 0.682183 0.770349
0.000000 0.864046 0.812542
0.000000 0.858283 0.803553
0.094899 0.852654 0.794506
0.247235 0.847156 0.785396
0.399766 0.841785 0.776220
0.552490 0.836537 0.766975
0.705402 0.831407 0.757656
0.858499 0.826394 0.748260
1.000000 0.821494 0.738785
0.000000 1.000000 0.782063
0.000000 0.996110 0.772863
0.082503 0.990906 0.763591
0.235483 0.985819 0.754244
0.388647 0.980848 0.744820
0.541992 0.975988 0.735315
0.695516 0.971238 0.725726
0.849216 0.966594 0.716051
1.000000 0.962053 0.706286
0.000000 0.000000 1.000000
0.112970 0.000000 1.000000
0.257444 0.000000 1.000000
0.402605 0.000000 1.000000
0.548356 0.000000 1.000000
0.694630 0.000000 1.000000
0.841373 0.000000 1.000000
0.988547 0.000000 1.000000
1.000000 0.000000 1.000000
0.000000 0.080034 1.000000
0.075917 0.069661 1.000000
0.222367 0.059721 1.000000
0.369271 0.050167 1.000000
0.516592 0.040960 1.000000
0.664300 0.032070 1.000000
0.812370 0.023473 1.000000
0.960780 0.015147 1.000000
1.000000 0.007074 1.000000
0.000000 0.203026 1.000000
0.044689 0.193938 1.000000
0.192532 0.185158 1.000000
0.340728 0.176662 1.000000
0.489257 0.168430 1.000000
0.638103 0.160445 1.000000
0.787250 0.152692 1.000000
0.936685 0.145158 1.000000
1.000000 0.137831 1.000000
0.000000 0.329885 1.000000
0.017776 0.321745 1.000000
0.166733 0.313846 1.000000
0.315986 0.306174 1.000000
0.465523 0.298717 1.000000
0.615333 0.291463 1.000000
0.765405 0.284402 1.000000
0.915730 0.277526 1.000000
1.000000 0.270825 1.000000
0.000000 0.459685 1.000000
0.000000 0.452303 1.000000
0.144304 0.445120 1.000000
0.294469 0.438128 1.000000
0.444885 0.431316 1.000000
0.595543 0.424678 1.000000
0.746437 0.418206 1.000000
0.897560 0.411894 0.993273
1.000000 0.405736 0.984420
0.000000 0.591877 1.000000
0.000000 0.585130 1.000000
0.124817 0.578553 1.000000
0.275795 0.572140 0.998883
0.426999 0.565885 0.990055
0.578425 0.559781 0.981185
0.730066 0.553823 0.972269
0.881917 0.548006 0.963302
1.000000 0.542325 0.954278
0.000000 0.726095 0.995673
0.000000 0.719895 0.986831
0.107972 0.713845 0.977945
0.259690 0.707939 0.969011
0.411617 0.702172 0.960023
0.563748 0.696541 0.950978
0.716078 0.691039 0.941870
0.868605 0.685665 0.932696
1.000000 0.680413 0.923452
0.000000 0.862074 0.965745
0.000000 0.856357 0.956737
0.093548 0.850773 0.947669
0.245950 0.845318 0.938538
0.398547 0.839989 0.929339
0.551335 0.834781 0.920069
0.704311 0.829692 0.910724
0.857470 0.824718 0.901302
1.000000 0.819856 0.891798
0.000000 0.999614 0.935197
0.000000 0.994329 0.925972
0.081371 0.989165 0.916675
0.234414 0.984118 0.907303
0.387640 0.979185 0.897851
0.541047 0.974363 0.888318
0.694630 0.969649 0.878700
0.848389 0.965040 0.868995
1.000000 0.960535 0.859200
