asset_packs/oak_lichen_evening/mood/grade_33.cube
TITLE "oak_lichen_evening mood grade"
# Generated by construction_code_v2/gen_asset_packs.py. Domain: display-referred sRGB in, sRGB out.
LUT_3D_SIZE 5
DOMAIN_MIN 0.0 0.0 0.0
DOMAIN_MAX 1.0 1.0 1.0
0.011616 0.004370 0.000000
0.291507 0.000000 0.000000
0.578308 0.000000 0.000000
0.868325 0.000000 0.000000
1.000000 0.000000 0.000000
0.000000 0.229518 0.000000
0.216268 0.209746 0.000000
0.511021 0.191422 0.000000
0.807259 0.174305 0.000000
1.000000 0.158226 0.000000
0.000000 0.480838 0.000000
0.162171 0.465106 0.000000
0.461324 0.450249 0.000000
0.761542 0.436181 0.000000
1.000000 0.422829 0.000000
0.000000 0.743740 0.000000
0.121378 0.730634 0.000000
0.423852 0.718167 0.000000
0.727195 0.706292 0.000000
1.000000 0.694970 0.000000
0.000000 1.000000 0.000000
0.091035 1.000000 0.000000
0.396285 0.992855 0.000000
0.702290 0.982710 0.000000
1.000000 0.973017 0.000000
0.000000 0.000000 0.270505
0.282321 0.000000 0.245005
0.570374 0.000000 0.223139
0.861241 0.000000 0.203038
1.000000 0.000000 0.184004
0.000000 0.222622 0.196009
0.210062 0.203374 0.177259
0.505342 0.185483 0.159092
0.802042 0.168735 0.141298
1.000000 0.152980 0.123726
0.000000 0.475391 0.134882
0.157514 0.459967 0.117360
0.457038 0.445387 0.099911
0.757600 0.431569 0.082453
1.000000 0.418447 0.064919
0.000000 0.739215 0.076081
0.117873 0.726331 0.058505
0.420647 0.714070 0.040780
0.724276 0.702387 0.022862
1.000000 0.691244 0.004714
0.000000 1.000000 0.016284
0.088487 0.999815 0.000000
0.393996 0.989357 0.000000
0.700251 0.979368 0.000000
1.000000 0.969824 0.000000
0.000000 0.000000 0.573673
0.273633 0.000000 0.549811
0.562757 0.000000 0.528660
0.854399 0.000000 0.508978
1.000000 0.000000 0.490209
0.000000 0.215916 0.502059
0.204043 0.197159 0.483536
0.499825 0.179675 0.465516
0.796971 0.163279 0.447812
1.000000 0.147834 0.430287
0.000000 0.470052 0.441417
0.152986 0.454925 0.423931
0.452871 0.440613 0.406487
0.753770 0.427038 0.389010
1.000000 0.414139 0.371437
0.000000 0.734767 0.382626
0.114471 0.722100 0.365005
0.417540 0.710039 0.347219
0.721451 0.698544 0.329227
1.000000 0.687577 0.310992
0.000000 1.000000 0.322618
0.086027 0.996209 0.304287
0.391793 0.985914 0.285671
0.698295 0.976078 0.266744
1.000000 0.966680 0.247483
0.000000 0.000000 0.877618
0.265360 0.000000 0.854911
0.555426 0.000000 0.834346
0.847781 0.000000 0.815021
1.000000 0.000000 0.796482
0.000000 0.209389 0.808197
0.198202 0.191089 0.789870
0.494466 0.173993 0.771976
0.792042 0.157933 0.754346
1.000000 0.142785 0.736857
0.000000 0.464818 0.747968
0.148584 0.449978 0.730506
0.448821 0.435923 0.713059
0.750050 0.422584 0.695555
1.000000 0.409902 0.677938
0.000000 0.730394 0.689157
0.111172 0.717938 0.671485
0.414531 0.706074 0.653634
0.718719 0.694762 0.635563
1.000000 0.683967 0.617238
0.000000 1.000000 0.628922
0.083656 0.992660 0.610498
0.389675 0.982523 0.591780
0.696422 0.972839 0.572742
1.000000 0.963584 0.553362
0.000000 0.000000 1.000000
0.257444 0.000000 1.000000
0.548356 0.000000 1.000000
0.841373 0.000000 1.000000
1.000000 0.000000 1.000000
0.000000 0.203026 1.000000
0.192532 0.185158 1.000000
0.489257 0.168430 1.000000
0.787250 0.152692 1.000000
1.000000 0.137831 1.000000
0.000000 0.459685 1.000000
0.144304 0.445120 1.000000
0.444885 0.431316 1.000000
0.746437 0.418206 1.000000
1.000000 0.405736 0.984420
0.000000 0.726095 0.995673
0.107972 0.713845 0.977945
0.411617 0.702172 0.960023
0.716078 0.691039 0.941870
1.000000 0.680413 0.923452
0.000000 0.999614 0.935197
0.081371 0.989165 0.916675
0.387640 0.979185 0.897851
0.694630 0.969649 0.878700
1.000000 0.960535 0.859200
