asset_packs/shrine_cedar_shimenawa/mood/grade_33.cube
TITLE "shrine_cedar_shimenawa mood grade"
# Generated by construction_code_v2/gen_asset_packs.py. Domain: display-referred sRGB in, sRGB out.
LUT_3D_SIZE 9
DOMAIN_MIN 0.0 0.0 0.0
DOMAIN_MAX 1.0 1.0 1.0
0.005282 0.008982 0.011940
0.093301 0.000000 0.000000
0.185411 0.000000 0.000000
0.279690 0.000000 0.000000
0.375574 0.000000 0.000000
0.472762 0.000000 0.000000
0.571061 0.000000 0.000000
0.670339 0.000000 0.000000
0.770493 0.000000 0.000000
0.000000 0.081028 0.000000
0.074411 0.077193 0.000000
0.172022 0.074576 0.000000
0.270691 0.073012 0.000000
0.370298 0.072379 0.000000
0.470751 0.072586 0.000000
0.571978 0.073560 0.000000
0.673919 0.075242 0.000000
0.776527 0.077584 0.000000
0.000000 0.172679 0.000000
0.070369 0.172361 0.000000
0.171111 0.172855 0.000000
0.272605 0.174093 0.000000
0.374794 0.176021 0.000000
0.477633 0.178592 0.000000
0.581083 0.181768 0.000000
0.685109 0.185515 0.000000
0.789683 0.189802 0.000000
0.000000 0.274718 0.000000
0.075754 0.276885 0.000000
0.178820 0.279681 0.000000
0.282483 0.283068 0.000000
0.386713 0.287015 0.000000
0.491479 0.291493 0.000000
0.596758 0.296476 0.000000
0.702527 0.301944 0.000000
0.808766 0.307875 0.000000
0.000000 0.384442 0.000000
0.088387 0.388585 0.000000
0.193343 0.393250 0.000000
0.298803 0.398412 0.000000
0.404745 0.404051 0.000000
0.511150 0.410146 0.000000
0.618001 0.416681 0.002583
0.725282 0.423639 0.007908
0.832977 0.431005 0.013568
0.000911 0.500411 0.000000
0.107024 0.506218 0.000000
0.213594 0.512475 0.000000
0.320603 0.519166 0.004482
0.428036 0.526274 0.009930
0.535879 0.533786 0.015708
0.644119 0.541689 0.021803
0.752744 0.549970 0.028203
0.861743 0.558618 0.034895
0.023261 0.621706 0.006426
0.130845 0.628963 0.011996
0.238834 0.636619 0.017891
0.347216 0.644660 0.024098
0.455978 0.653076 0.030606
0.565110 0.661856 0.037403
0.674601 0.670989 0.044479
0.784443 0.680465 0.051825
0.894625 0.690276 0.059432
0.050362 0.747682 0.026433
0.159260 0.756231 0.033047
0.268524 0.765140 0.039947
0.378144 0.774399 0.047123
0.488111 0.783999 0.054564
0.598416 0.793930 0.062264
0.709050 0.804184 0.070213
0.820007 0.814755 0.078404
0.931278 0.825634 0.086830
0.081733 0.877855 0.049801
0.191824 0.887576 0.057338
0.302249 0.897626 0.065130
0.413002 0.907997 0.073168
0.524074 0.918680 0.081445
0.635459 0.929670 0.089955
0.747149 0.940959 0.098689
0.859138 0.952541 0.107643
0.971421 0.964409 0.116810
0.000376 0.004009 0.106909
0.090320 0.000000 0.096432
0.183262 0.000000 0.088873
0.278131 0.000000 0.083159
0.374484 0.000000 0.078850
0.472067 0.000000 0.075691
0.570712 0.000000 0.073514
0.670297 0.000000 0.072196
0.770730 0.000000 0.071646
0.000000 0.079576 0.081444
0.073472 0.076177 0.077577
0.171458 0.073934 0.074792
0.270457 0.072697 0.072940
0.370361 0.072359 0.071911
0.471084 0.072833 0.071622
0.572559 0.074054 0.072005
0.674732 0.075966 0.073005
0.777556 0.078522 0.074575
0.000000 0.172475 0.072475
0.070533 0.172441 0.071724
0.171537 0.173195 0.071687
0.273272 0.174673 0.072300
0.375687 0.176824 0.073513
0.478738 0.179605 0.075281
0.582387 0.182978 0.077568
0.686603 0.186912 0.080340
0.791356 0.191377 0.083571
0.000000 0.275381 0.072675
0.076726 0.277766 0.074094
0.179999 0.280766 0.076055
0.283858 0.284347 0.078522
0.388272 0.288477 0.081465
0.493216 0.293129 0.084856
0.598663 0.298280 0.088671
0.704594 0.303907 0.092889
0.810988 0.309992 0.097490
0.000000 0.385789 0.079540
0.090012 0.390112 0.082649
0.195142 0.394948 0.086197
0.300767 0.400274 0.090161
0.406869 0.406070 0.094521
0.513428 0.412317 0.099257
0.620426 0.418997 0.104353
0.727849 0.426095 0.109793
0.835683 0.433598 0.115563
0.002935 0.502331 0.091703
0.109205 0.508293 0.096202
0.215925 0.514699 0.101071
0.323080 0.521533 0.106294
0.430654 0.528780 0.111856
0.538634 0.536427 0.117743
0.647006 0.544459 0.123943
0.755759 0.552866 0.130443
0.864882 0.561637 0.137233
0.025790 0.624125 0.108281
0.133513 0.631519 0.113963
0.241637 0.639307 0.119965
0.350149 0.647477 0.126275
0.459038 0.656018 0.132882
0.568293 0.664918 0.139775
0.677905 0.674169 0.146944
0.787863 0.683760 0.154379
0.898160 0.693683 0.162073
0.053342 0.750544 0.128647
0.162366 0.759217 0.135359
0.271752 0.768246 0.142353
0.381490 0.777622 0.149620
0.491573 0.787335 0.157151
0.601991 0.797376 0.164936
0.712735 0.807739 0.172968
0.823800 0.818415 0.181240
0.935177 0.829397 0.189744
0.085122 0.881119 0.152332
0.195327 0.890953 0.159956
0.305865 0.901112 0.167832
0.416727 0.911590 0.175952
0.527906 0.922378 0.184309
0.639395 0.933470 0.192896
0.751187 0.944860 0.201706
0.863277 0.956539 0.210733
0.975658 0.968504 0.219970
0.000000 0.000048 0.202882
0.087665 0.000000 0.193616
0.181332 0.000000 0.186753
0.276741 0.000000 0.181554
0.373535 0.000000 0.177658
0.471495 0.000000 0.174849
0.570471 0.000000 0.172975
0.670353 0.000000 0.171927
0.771057 0.000000 0.171621
0.000000 0.078280 0.179998
0.072666 0.075294 0.176519
0.171011 0.073407 0.174064
0.270328 0.072486 0.172503
0.370518 0.072432 0.171734
0.471504 0.073167 0.171680
0.573222 0.074628 0.172278
0.675620 0.076764 0.173476
0.778656 0.079530 0.175231
0.000000 0.172371 0.172135
0.070788 0.172612 0.171635
0.172047 0.173618 0.171825
0.274019 0.175330 0.172647
0.376654 0.177700 0.174053
0.479912 0.180686 0.176001
0.583757 0.184253 0.178456
0.688158 0.188370 0.181388
0.793088 0.193010 0.184768
0.000000 0.276119 0.173094
0.077770 0.278718 0.174701
0.181245 0.281919 0.176838
0.285296 0.285690 0.179470
0.389893 0.290000 0.182568
0.495010 0.294824 0.186105
0.600624 0.300139 0.190059
0.706714 0.305923 0.194409
0.813262 0.312159 0.199137
0.000000 0.387198 0.180545
0.091697 0.391698 0.183806
0.196998 0.396703 0.187498
0.302787 0.402191 0.191598
0.409046 0.408142 0.196088
0.515756 0.414537 0.200948
0.622900 0.421361 0.206162
0.730464 0.428598 0.211716
0.838434 0.436235 0.217596
0.005013 0.504305 0.193189
0.111438 0.510420 0.197815
0.218307 0.516973 0.202806
0.325606 0.523949 0.208146
0.433319 0.531333 0.213820
0.541434 0.539112 0.219814
0.649936 0.547273 0.226117
0.758816 0.555805 0.232717
0.868063 0.564696 0.239603
0.028367 0.626591 0.210174
0.136228 0.634120 0.215966
0.244485 0.642039 0.222074
0.353126 0.650337 0.228486
0.462141 0.659001 0.235191
0.571518 0.668021 0.242179
0.681248 0.677388 0.249439
0.791322 0.687093 0.256963
0.901732 0.697127 0.264743
0.056365 0.753449 0.230894
0.165513 0.762244 0.237703
0.275020 0.771392 0.244791
0.384876 0.780883 0.252149
0.495074 0.790708 0.259767
0.605603 0.800860 0.267637
0.716457 0.811330 0.275751
0.827629 0.822111 0.284102
0.939110 0.833196 0.292683
0.088550 0.884422 0.254892
0.198869 0.894367 0.262603
0.309518 0.904635 0.270563
0.420488 0.915219 0.278764
0.531773 0.926112 0.287200
0.643366 0.937305 0.295863
0.755260 0.948794 0.304747
0.867449 0.960571 0.313846
0.979928 0.972631 0.323154
0.000000 0.000000 0.299382
0.085286 0.000000 0.291066
0.179599 0.000000 0.284823
0.275510 0.000000 0.280097
0.372720 0.000000 0.276591
0.471039 0.000000 0.274113
0.570334 0.000000 0.272531
0.670504 0.000000 0.271744
0.771471 0.000000 0.271673
0.000000 0.077133 0.278691
0.071987 0.074538 0.275578
0.170675 0.072992 0.273440
0.270299 0.072375 0.272157
0.370767 0.072597 0.271638
0.472008 0.073585 0.271812
0.573962 0.075280 0.272620
0.676582 0.077634 0.274012
0.779825 0.080606 0.275947
0.000000 0.172363 0.271884
0.071133 0.172871 0.271625
0.172639 0.174123 0.272036
0.274841 0.176063 0.273061
0.377692 0.178647 0.274656
0.481153 0.181834 0.276780
0.585190 0.185591 0.279400
0.689774 0.189888 0.282486
0.794879 0.194700 0.286013
0.000000 0.276932 0.273578
0.078883 0.279739 0.275369
0.182558 0.283137 0.277678
0.286797 0.287094 0.280471
0.391574 0.291582 0.283721
0.496862 0.296575 0.287402
0.602640 0.302051 0.291493
0.708887 0.307991 0.295973
0.815586 0.314376 0.300825
0.000000 0.388668 0.281603
0.093441 0.393342 0.285012
0.198910 0.398514 0.288845
0.304861 0.404161 0.293080
0.411275 0.410265 0.297697
0.518134 0.416808 0.302680
0.625423 0.423773 0.308011
0.733126 0.431148 0.313677
0.841230 0.438917 0.319664
0.007144 0.506331 0.294718
0.113721 0.512597 0.299470
0.220739 0.519295 0.304581
0.328180 0.526412 0.310036
0.436031 0.533931 0.315820
0.544278 0.541841 0.321921
0.652910 0.550129 0.328326
0.761916 0.558784 0.335024
0.871284 0.567796 0.342005
0.030991 0.629103 0.312104
0.138988 0.636766 0.318005
0.247377 0.644815 0.324218
0.356146 0.653238 0.330731
0.465285 0.662025 0.337533
0.574783 0.671164 0.344615
0.684631 0.680647 0.351966
0.794820 0.690464 0.359577
0.905342 0.700608 0.367441
0.059431 0.756396 0.333175
0.168702 0.765311 0.340080
0.278328 0.774577 0.347260
0.388302 0.784183 0.354707
0.498613 0.794120 0.362411
0.609253 0.804380 0.370365
0.720216 0.814957 0.378561
0.831494 0.825842 0.386991
0.943079 0.837028 0.395649
0.092017 0.887762 0.357482
0.202449 0.897818 0.365279
0.313208 0.908195 0.373321
0.424286 0.918884 0.381603
0.535676 0.929880 0.390117
0.647372 0.941174 0.398856
0.759367 0.952761 0.407814
0.871655 0.964635 0.416984
0.984230 0.976790 0.426362
0.000000 0.000000 0.396268
0.083150 0.000000 0.388750
0.178049 0.000000 0.383066
0.274428 0.000000 0.378781
0.372032 0.000000 0.375642
0.470696 0.000000 0.373481
0.570298 0.000000 0.372179
0.670746 0.000000 0.371643
0.771969 0.000000 0.371800
0.000000 0.076125 0.377515
0.071430 0.073902 0.374749
0.170448 0.072683 0.372913
0.270367 0.072360 0.371899
0.371105 0.072850 0.371623
0.472594 0.074084 0.372018
0.574779 0.076008 0.373029
0.677615 0.078576 0.374610
0.781061 0.081749 0.376722
0.000000 0.172448 0.371717
0.071563 0.173216 0.371692
0.173312 0.174707 0.372317
0.275739 0.176871 0.373541
0.378801 0.179663 0.375319
0.482461 0.183047 0.377615
0.586687 0.186991 0.380397
0.691451 0.191466 0.383636
0.796727 0.196447 0.387307
0.000000 0.277817 0.374126
0.080066 0.280829 0.376097
0.183936 0.284420 0.378574
0.288361 0.288560 0.381525
0.393313 0.293222 0.384924
0.498770 0.298381 0.388747
0.604710 0.304017 0.392972
0.711113 0.310110 0.397580
0.817961 0.316643 0.402554
0.000000 0.390198 0.382712
0.095243 0.395044 0.386268
0.200878 0.400379 0.390239
0.306988 0.406184 0.394606
0.413555 0.412438 0.399349
0.520562 0.419127 0.404452
0.627993 0.426233 0.409899
0.735834 0.433743 0.415675
0.844072 0.441643 0.421768
0.009327 0.508410 0.396290
0.116056 0.514824 0.401166
0.223219 0.521666 0.406396
0.330801 0.528921 0.411964
0.438788 0.536574 0.417857
0.547167 0.544614 0.424063
0.655927 0.553028 0.430568
0.765057 0.561805 0.437364
0.874547 0.570936 0.444438
0.033662 0.631662 0.414073
0.141794 0.639457 0.420081
0.250313 0.647634 0.426397
0.359209 0.656182 0.433009
0.468471 0.665089 0.439907
0.578089 0.674346 0.447081
0.688054 0.683944 0.454522
0.798356 0.693873 0.462220
0.908989 0.704126 0.470168
0.062539 0.759384 0.435488
0.171932 0.768419 0.442488
0.281677 0.777801 0.449760
0.391766 0.787521 0.457295
0.502190 0.797568 0.465085
0.612941 0.807937 0.473122
0.724011 0.818619 0.481398
0.835394 0.829607 0.489906
0.947082 0.840894 0.498640
0.095522 0.891141 0.460102
0.206066 0.901307 0.467983
0.316934 0.911790 0.476107
0.428119 0.922584 0.484469
0.539614 0.933682 0.493060
0.651412 0.945077 0.501874
0.763507 0.956762 0.510905
0.875893 0.968732 0.520146
0.988565 0.980981 0.529593
0.000000 0.000000 0.493468
0.081231 0.000000 0.486642
0.176669 0.000000 0.481469
0.273486 0.000000 0.477596
0.371466 0.000000 0.474805
0.470460 0.000000 0.472948
0.570359 0.000000 0.471915
0.671078 0.000000 0.471622
0.772549 0.000000 0.472001
0.000000 0.075249 0.476463
0.070989 0.073381 0.474027
0.170324 0.072478 0.472481
0.270530 0.072439 0.471726
0.371529 0.073188 0.471685
0.473261 0.074663 0.472295
0.575672 0.076810 0.473504
0.678719 0.079588 0.475269
0.782365 0.082958 0.477553
0.000000 0.172624 0.471632
0.072078 0.173644 0.471835
0.174062 0.175369 0.472668
0.276709 0.177751 0.474085
0.379979 0.180748 0.476043
0.483834 0.184325 0.478507
0.588246 0.188452 0.481447
0.693186 0.193102 0.484836
0.798631 0.198250 0.488648
0.000000 0.278772 0.474737
0.081316 0.281985 0.476883
0.185378 0.285766 0.479524
0.289985 0.290086 0.482630
0.395111 0.294919 0.486176
0.500734 0.300243 0.490137
0.606833 0.306036 0.494495
0.713389 0.312280 0.499229
0.820386 0.318958 0.504323
0.000000 0.391787 0.483871
0.097102 0.396802 0.487571
0.202901 0.402299 0.491679
0.309168 0.408258 0.496176
0.415886 0.414662 0.501043
0.523039 0.421494 0.506264
0.630610 0.428738 0.511824
0.738588 0.436382 0.517709
0.846958 0.444413 0.523907
0.011563 0.510539 0.497906
0.118441 0.517100 0.502903
0.225748 0.524084 0.508250
0.333468 0.531476 0.513930
0.441590 0.539262 0.519930
0.550100 0.547430 0.526239
0.658987 0.555969 0.532844
0.768240 0.564867 0.539735
0.877849 0.574116 0.546903
0.036380 0.634265 0.516078
0.144644 0.642192 0.522192
0.253292 0.650496 0.528610
0.362314 0.659167 0.535320
0.471698 0.668194 0.542313
0.581434 0.677568 0.549579
0.691515 0.687279 0.557108
0.801931 0.697319 0.564891
0.912674 0.707680 0.572922
0.065689 0.762413 0.537834
0.175202 0.771567 0.544927
0.285065 0.781065 0.552290
0.395269 0.790896 0.559912
0.505804 0.801054 0.567787
0.616665 0.811530 0.575906
0.727842 0.822317 0.584262
0.839329 0.833407 0.592847
0.951120 0.844794 0.601656
0.099066 0.894557 0.562750
0.209721 0.904832 0.570715
0.320698 0.915421 0.578921
0.431989 0.926319 0.587361
0.543587 0.937519 0.596028
0.655487 0.949013 0.604917
0.767681 0.960795 0.614020
0.880165 0.972861 0.623331
0.992932 0.985204 0.632847
0.000000 0.000000 0.590932
0.079509 0.000000 0.584722
0.175446 0.000000 0.580021
0.272678 0.000000 0.576535
0.371017 0.000000 0.574076
0.470329 0.000000 0.572509
0.570515 0.000000 0.571736
0.671496 0.000000 0.571678
0.773210 0.000000 0.572273
0.000000 0.074499 0.575529
0.070660 0.072972 0.573408
0.170300 0.072372 0.572140
0.270783 0.072609 0.571636
0.372038 0.073610 0.571822
0.474006 0.075319 0.572641
0.576637 0.077685 0.574043
0.679891 0.080667 0.575989
0.783733 0.084231 0.578441
0.000000 0.172888 0.571627
0.072675 0.174153 0.572049
0.174889 0.176106 0.573086
0.277752 0.178701 0.574691
0.381224 0.181899 0.576825
0.485272 0.185667 0.579454
0.589866 0.189974 0.582549
0.694980 0.194795 0.586084
0.800591 0.200107 0.590036
0.000000 0.279798 0.575408
0.082632 0.283207 0.577726
0.186882 0.287174 0.580528
0.291669 0.291671 0.583786
0.396966 0.296673 0.587476
0.502753 0.302159 0.591574
0.609009 0.308107 0.596061
0.715717 0.314500 0.600919
0.822859 0.321322 0.606132
0.000000 0.393435 0.585081
0.099018 0.398616 0.588921
0.204978 0.404272 0.593164
0.311400 0.410384 0.597788
0.418267 0.416935 0.602777
0.525564 0.423908 0.608115
0.633275 0.431290 0.613787
0.741387 0.439067 0.619780
0.849887 0.447226 0.626081
0.013850 0.512719 0.599563
0.120875 0.519426 0.604681
0.228324 0.526549 0.610142
0.336182 0.534076 0.615932
0.444437 0.541993 0.622039
0.553076 0.550289 0.628449
0.662089 0.558951 0.635153
0.771464 0.567969 0.642139
0.881192 0.577334 0.649398
0.039142 0.636914 0.618119
0.147538 0.644970 0.624338
0.256315 0.653400 0.630856
0.365460 0.662193 0.637664
0.474965 0.671339 0.644750
0.584820 0.680828 0.652106
0.695015 0.690652 0.659723
0.805543 0.700802 0.667591
0.916395 0.711270 0.675704
0.068880 0.765483 0.640212
0.178513 0.774754 0.647398
0.288493 0.784366 0.654850
0.398810 0.794310 0.662559
0.509457 0.804577 0.670517
0.620425 0.815159 0.678717
0.731709 0.826049 0.687152
0.843300 0.837241 0.695814
0.955192 0.848728 0.704697
0.102648 0.898011 0.665428
0.213413 0.908393 0.673475
0.324497 0.919088 0.681761
0.435893 0.930089 0.690279
0.547595 0.941389 0.699022
0.659595 0.952982 0.707984
0.771889 0.964861 0.717159
0.884469 0.977022 0.726540
0.997332 0.989457 0.736123
0.000000 0.000000 0.688628
0.077969 0.000000 0.682974
0.174372 0.000000 0.678712
0.271998 0.000000 0.675592
0.370680 0.000000 0.673449
0.470299 0.000000 0.672162
0.570762 0.000000 0.671639
0.671999 0.000000 0.671810
0.773949 0.000000 0.672613
0.000000 0.073870 0.674706
0.070438 0.072669 0.672887
0.170374 0.072362 0.671887
0.271126 0.072866 0.671624
0.372629 0.074114 0.672032
0.474827 0.076051 0.673054
0.577674 0.078630 0.674645
0.681132 0.081814 0.676766
0.785166 0.085568 0.679384
0.000000 0.173238 0.671698
0.073351 0.174742 0.672335
0.175791 0.176918 0.673569
0.278864 0.179722 0.675358
0.382536 0.183116 0.677663
0.486772 0.187070 0.680454
0.591545 0.191555 0.683701
0.696831 0.196545 0.687380
0.802606 0.202019 0.691469
0.000000 0.280891 0.676139
0.084014 0.284493 0.678625
0.188449 0.288643 0.681585
0.293412 0.293314 0.684992
0.398878 0.298483 0.688823
0.504826 0.304128 0.693055
0.611238 0.310229 0.697670
0.718094 0.316770 0.702651
0.825380 0.323733 0.707980
0.000000 0.395140 0.686339
0.100989 0.400484 0.690318
0.207108 0.406297 0.694692
0.313683 0.412560 0.699442
0.420698 0.419256 0.704551
0.528137 0.426370 0.710004
0.635985 0.433888 0.715787
0.744231 0.441795 0.721886
0.852861 0.450081 0.728289
0.016187 0.514949 0.701261
0.123358 0.521799 0.706498
0.230947 0.529061 0.712072
0.338942 0.536722 0.717971
0.447329 0.544769 0.724182
0.556096 0.553190 0.730694
0.665232 0.561974 0.737494
0.774729 0.571111 0.744574
0.884575 0.580592 0.751923
0.041950 0.639607 0.720197
0.150477 0.647792 0.726519
0.259380 0.656346 0.733136
0.368649 0.665260 0.740040
0.478273 0.674524 0.747219
0.588244 0.684127 0.754664
0.698553 0.694063 0.762367
0.809192 0.704322 0.770320
0.920153 0.714896 0.778514
0.072112 0.768593 0.742622
0.181864 0.777981 0.749899
0.291959 0.787707 0.757439
0.402389 0.797761 0.765234
0.513146 0.808135 0.773275
0.624222 0.818823 0.781556
0.735611 0.829817 0.790068
0.847305 0.841109 0.798806
0.959298 0.852695 0.807763
0.106268 0.901501 0.768133
0.217142 0.911990 0.776263
0.328333 0.922790 0.784628
0.439833 0.933894 0.793224
0.551637 0.945294 0.802042
0.663738 0.956985 0.811076
0.776129 0.968960 0.820322
0.888806 0.981214 0.829772
1.000000 0.993742 0.839422
0.000000 0.000000 0.786530
0.076597 0.000000 0.781385
0.173438 0.000000 0.777534
0.271439 0.000000 0.774762
0.370450 0.000000 0.772921
0.470365 0.000000 0.771903
0.571099 0.000000 0.771623
0.672584 0.000000 0.772014
0.774765 0.000000 0.773022
0.000000 0.073356 0.773990
0.070320 0.072469 0.772460
0.170541 0.072446 0.771719
0.271555 0.073210 0.771691
0.373300 0.074697 0.772312
0.475723 0.076857 0.773532
0.578782 0.079646 0.775308
0.682439 0.083027 0.777601
0.786662 0.086967 0.780380
0.000000 0.173670 0.771845
0.074106 0.175408 0.772690
0.176765 0.177801 0.774117
0.280046 0.180810 0.776085
0.383912 0.184398 0.778558
0.488334 0.188535 0.781507
0.593284 0.193194 0.784903
0.698738 0.198351 0.788724
0.804675 0.203984 0.792947
0.000000 0.282051 0.776928
0.085459 0.285842 0.779578
0.190076 0.290172 0.782693
0.295213 0.295015 0.786246
0.400845 0.300348 0.790216
0.506953 0.306150 0.794580
0.613517 0.312402 0.799322
0.720521 0.319088 0.804422
0.827950 0.326191 0.809867
0.000000 0.396901 0.787645
0.103014 0.402407 0.791760
0.209290 0.408375 0.796264
0.316017 0.414787 0.801138
0.423177 0.421626 0.806365
0.530757 0.428879 0.811932
0.638742 0.436530 0.817823
0.747119 0.444567 0.824027
0.855877 0.452979 0.830531
0.018574 0.517228 0.803001
0.125889 0.524220 0.808353
0.233618 0.531619 0.814040
0.341747 0.539412 0.820046
0.450264 0.547587 0.826360
0.559158 0.556133 0.832971
0.668418 0.565038 0.839868
0.778034 0.574293 0.847040
0.887996 0.583889 0.854479
0.044803 0.642345 0.822310
0.153459 0.650656 0.828733
0.262487 0.659334 0.835449
0.371878 0.668367 0.842447
0.481621 0.677747 0.849718
0.591708 0.687465 0.857252
0.702130 0.697511 0.865040
0.812879 0.707878 0.873076
0.923948 0.718558 0.881350
0.075385 0.771743 0.845063
0.185254 0.781247 0.852431
0.295464 0.791085 0.860058
0.406006 0.801248 0.867938
0.516872 0.811730 0.876061
0.628055 0.822523 0.884421
0.739548 0.833618 0.893011
0.851345 0.845011 0.901823
0.963438 0.856695 0.910853
0.109925 0.905028 0.870867
0.220907 0.915624 0.879077
0.332204 0.926527 0.887522
0.443808 0.937732 0.896194
0.555713 0.949232 0.905086
0.667914 0.961020 0.914193
0.780403 0.973091 0.923509
0.893175 0.985438 0.933027
1.000000 0.998058 0.942744
