asset_packs/shrine_cedar_shimenawa/mood/grade_33.cube
TITLE "shrine_cedar_shimenawa mood grade"
# Generated by construction_code_v2/gen_asset_packs.py. Domain: display-referred sRGB in, sRGB out.
LUT_3D_SIZE 5
DOMAIN_MIN 0.0 0.0 0.0
DOMAIN_MAX 1.0 1.0 1.0
0.005282 0.008982 0.011940
0.185411 0.000000 0.000000
0.375574 0.000000 0.000000
0.571061 0.000000 0.000000
0.770493 0.000000 0.000000
0.000000 0.172679 0.000000
0.171111 0.172855 0.000000
0.374794 0.176021 0.000000
0.581083 0.181768 0.000000
0.789683 0.189802 0.000000
0.000000 0.384442 0.000000
0.193343 0.393250 0.000000
0.404745 0.404051 0.000000
0.618001 0.416681 0.002583
0.832977 0.431005 0.013568
0.023261 0.621706 0.006426
0.238834 0.636619 0.017891
0.455978 0.653076 0.030606
0.674601 0.670989 0.044479
0.894625 0.690276 0.059432
0.081733 0.877855 0.049801
0.302249 0.897626 0.065130
0.524074 0.918680 0.081445
0.747149 0.940959 0.098689
0.971421 0.964409 0.116810
0.000000 0.000048 0.202882
0.181332 0.000000 0.186753
0.373535 0.000000 0.177658
0.570471 0.000000 0.172975
0.771057 0.000000 0.171621
0.000000 0.172371 0.172135
0.172047 0.173618 0.171825
0.376654 0.177700 0.174053
0.583757 0.184253 0.178456
0.793088 0.193010 0.184768
0.000000 0.387198 0.180545
0.196998 0.396703 0.187498
0.409046 0.408142 0.196088
0.622900 0.421361 0.206162
0.838434 0.436235 0.217596
0.028367 0.626591 0.210174
0.244485 0.642039 0.222074
0.462141 0.659001 0.235191
0.681248 0.677388 0.249439
0.901732 0.697127 0.264743
0.088550 0.884422 0.254892
0.309518 0.904635 0.270563
0.531773 0.926112 0.287200
0.755260 0.948794 0.304747
0.979928 0.972631 0.323154
0.000000 0.000000 0.396268
0.178049 0.000000 0.383066
0.372032 0.000000 0.375642
0.570298 0.000000 0.372179
0.771969 0.000000 0.371800
0.000000 0.172448 0.371717
0.173312 0.174707 0.372317
0.378801 0.179663 0.375319
0.586687 0.186991 0.380397
0.796727 0.196447 0.387307
0.000000 0.390198 0.382712
0.200878 0.400379 0.390239
0.413555 0.412438 0.399349
0.627993 0.426233 0.409899
0.844072 0.441643 0.421768
0.033662 0.631662 0.414073
0.250313 0.647634 0.426397
0.468471 0.665089 0.439907
0.688054 0.683944 0.454522
0.908989 0.704126 0.470168
0.095522 0.891141 0.460102
0.316934 0.911790 0.476107
0.539614 0.933682 0.493060
0.763507 0.956762 0.510905
0.988565 0.980981 0.529593
0.000000 0.000000 0.590932
0.175446 0.000000 0.580021
0.371017 0.000000 0.574076
0.570515 0.000000 0.571736
0.773210 0.000000 0.572273
0.000000 0.172888 0.571627
0.174889 0.176106 0.573086
0.381224 0.181899 0.576825
0.589866 0.189974 0.582549
0.800591 0.200107 0.590036
0.000000 0.393435 0.585081
0.204978 0.404272 0.593164
0.418267 0.416935 0.602777
0.633275 0.431290 0.613787
0.849887 0.447226 0.626081
0.039142 0.636914 0.618119
0.256315 0.653400 0.630856
0.474965 0.671339 0.644750
0.695015 0.690652 0.659723
0.916395 0.711270 0.675704
0.102648 0.898011 0.665428
0.324497 0.919088 0.681761
0.547595 0.941389 0.699022
0.771889 0.964861 0.717159
0.997332 0.989457 0.736123
0.000000 0.000000 0.786530
0.173438 0.000000 0.777534
0.370450 0.000000 0.772921
0.571099 0.000000 0.771623
0.774765 0.000000 0.773022
0.000000 0.173670 0.771845
0.176765 0.177801 0.774117
0.383912 0.184398 0.778558
0.593284 0.193194 0.784903
0.804675 0.203984 0.792947
0.000000 0.396901 0.787645
0.209290 0.408375 0.796264
0.423177 0.421626 0.806365
0.638742 0.436530 0.817823
0.855877 0.452979 0.830531
0.044803 0.642345 0.822310
0.262487 0.659334 0.835449
0.481621 0.677747 0.849718
0.702130 0.697511 0.865040
0.923948 0.718558 0.881350
0.109925 0.905028 0.870867
0.332204 0.926527 0.887522
0.555713 0.949232 0.905086
0.780403 0.973091 0.923509
1.000000 0.998058 0.942744
