asset_packs/shrine_cedar_shimenawa/mood/grade_33.cube
TITLE "shrine_cedar_shimenawa mood grade"
# Generated by construction_code_v2/gen_asset_packs.py. Domain: display-referred sRGB in, sRGB out.
LUT_3D_SIZE 33
DOMAIN_MIN 0.0 0.0 0.0
DOMAIN_MAX 1.0 1.0 1.0
0.005282 0.008982 0.011940
0.026528 0.005179 0.008095
0.048456 0.002058 0.004927
0.070745 0.000000 0.002115
0.093301 0.000000 0.000000
0.116073 0.000000 0.000000
0.139029 0.000000 0.000000
0.162148 0.000000 0.000000
0.185411 0.000000 0.000000
0.208807 0.000000 0.000000
0.232325 0.000000 0.000000
0.255955 0.000000 0.000000
0.279690 0.000000 0.000000
0.303525 0.000000 0.000000
0.327454 0.000000 0.000000
0.351472 0.000000 0.000000
0.375574 0.000000 0.000000
0.399757 0.000000 0.000000
0.424018 0.000000 0.000000
0.448354 0.000000 0.000000
0.472762 0.000000 0.000000
0.497238 0.000000 0.000000
0.521782 0.000000 0.000000
0.546390 0.000000 0.000000
0.571061 0.000000 0.000000
0.595793 0.000000 0.000000
0.620585 0.000000 0.000000
0.645434 0.000000 0.000000
0.670339 0.000000 0.000000
0.695298 0.000000 0.000000
0.720312 0.000000 0.000000
0.745377 0.000000 0.000000
0.770493 0.000000 0.000000
0.000000 0.023360 0.001160
0.017466 0.020948 0.000000
0.040309 0.018740 0.000000
0.063326 0.016706 0.000000
0.086499 0.014827 0.000000
0.109813 0.013088 0.000000
0.133254 0.011476 0.000000
0.156813 0.009983 0.000000
0.180483 0.008599 0.000000
0.204255 0.007317 0.000000
0.228125 0.006133 0.000000
0.252086 0.005040 0.000000
0.276135 0.004033 0.000000
0.300268 0.003110 0.000000
0.324480 0.002267 0.000000
0.348768 0.001499 0.000000
0.373130 0.000804 0.000000
0.397563 0.000180 0.000000
0.422064 0.000000 0.000000
0.446632 0.000000 0.000000
0.471263 0.000000 0.000000
0.495957 0.000000 0.000000
0.520711 0.000000 0.000000
0.545523 0.000000 0.000000
0.570393 0.000000 0.000000
0.595318 0.000000 0.000000
0.620297 0.000000 0.000000
0.645329 0.000000 0.000000
0.670413 0.000000 0.000000
0.695548 0.000000 0.000000
0.720732 0.000000 0.000000
0.745964 0.000000 0.000000
0.771243 0.000000 0.000000
0.000000 0.041005 0.000000
0.010870 0.039178 0.000000
0.034231 0.037487 0.000000
0.057716 0.035919 0.000000
0.081316 0.034466 0.000000
0.105024 0.033121 0.000000
0.128833 0.031875 0.000000
0.152736 0.030724 0.000000
0.176730 0.029663 0.000000
0.200810 0.028688 0.000000
0.224972 0.027794 0.000000
0.249212 0.026978 0.000000
0.273528 0.026238 0.000000
0.297916 0.025569 0.000000
0.322374 0.024970 0.000000
0.346899 0.024438 0.000000
0.371490 0.023971 0.000000
0.396145 0.023567 0.000000
0.420860 0.023224 0.000000
0.445636 0.022940 0.000000
0.470469 0.022714 0.000000
0.495359 0.022544 0.000000
0.520304 0.022429 0.000000
0.545303 0.022367 0.000000
0.570354 0.022357 0.000000
0.595456 0.022398 0.000000
0.620609 0.022489 0.000000
0.645811 0.022628 0.000000
0.671060 0.022815 0.000000
0.696357 0.023049 0.000000
0.721700 0.023328 0.000000
0.747088 0.023652 0.000000
0.772520 0.024020 0.000000
0.000000 0.060378 0.000000
0.005834 0.058964 0.000000
0.029579 0.057656 0.000000
0.053423 0.056445 0.000000
0.077360 0.055328 0.000000
0.101385 0.054299 0.000000
0.125495 0.053353 0.000000
0.149686 0.052488 0.000000
0.173954 0.051700 0.000000
0.198297 0.050986 0.000000
0.222710 0.050343 0.000000
0.247193 0.049769 0.000000
0.271743 0.049261 0.000000
0.296357 0.048817 0.000000
0.321034 0.048435 0.000000
0.345772 0.048114 0.000000
0.370568 0.047852 0.000000
0.395423 0.047646 0.000000
0.420333 0.047496 0.000000
0.445297 0.047400 0.000000
0.470315 0.047358 0.000000
0.495385 0.047366 0.000000
0.520506 0.047425 0.000000
0.545677 0.047534 0.000000
0.570896 0.047691 0.000000
0.596163 0.047895 0.000000
0.621476 0.048145 0.000000
0.646836 0.048441 0.000000
0.672240 0.048781 0.000000
0.697688 0.049165 0.000000
0.723180 0.049592 0.000000
0.748714 0.050061 0.000000
0.774290 0.050572 0.000000
0.000000 0.081028 0.000000
0.001995 0.079943 0.000000
0.026052 0.078945 0.000000
0.050192 0.078029 0.000000
0.074411 0.077193 0.000000
0.098706 0.076432 0.000000
0.123075 0.075744 0.000000
0.147514 0.075126 0.000000
0.172022 0.074576 0.000000
0.196595 0.074092 0.000000
0.221233 0.073671 0.000000
0.245932 0.073312 0.000000
0.270691 0.073012 0.000000
0.295509 0.072770 0.000000
0.320384 0.072585 0.000000
0.345314 0.072455 0.000000
0.370298 0.072379 0.000000
0.395335 0.072355 0.000000
0.420424 0.072382 0.000000
0.445563 0.072459 0.000000
0.470751 0.072586 0.000000
0.495988 0.072760 0.000000
0.521272 0.072981 0.000000
0.546602 0.073248 0.000000
0.571978 0.073560 0.000000
0.597398 0.073916 0.000000
0.622862 0.074316 0.000000
0.648370 0.074758 0.000000
0.673919 0.075242 0.000000
0.699510 0.075768 0.000000
0.725142 0.076334 0.000000
0.750815 0.076939 0.000000
0.776527 0.077584 0.000000
0.000000 0.102716 0.000000
0.000000 0.101907 0.000000
0.023468 0.101173 0.000000
0.047863 0.100511 0.000000
0.072327 0.099918 0.000000
0.096859 0.099393 0.000000
0.121456 0.098931 0.000000
0.146116 0.098533 0.000000
0.170837 0.098196 0.000000
0.195618 0.097917 0.000000
0.220457 0.097696 0.000000
0.245352 0.097532 0.000000
0.270302 0.097421 0.000000
0.295305 0.097364 0.000000
0.320361 0.097359 0.000000
0.345468 0.097404 0.000000
0.370625 0.097500 0.000000
0.395832 0.097643 0.000000
0.421086 0.097835 0.000000
0.446386 0.098073 0.000000
0.471733 0.098356 0.000000
0.497126 0.098684 0.000000
0.522562 0.099056 0.000000
0.548042 0.099472 0.000000
0.573565 0.099929 0.000000
0.599130 0.100429 0.000000
0.624736 0.100969 0.000000
0.650382 0.101550 0.000000
0.676069 0.102170 0.000000
0.701795 0.102829 0.000000
0.727560 0.103526 0.000000
0.753363 0.104262 0.000000
0.779204 0.105034 0.000000
0.000000 0.125287 0.000000
0.000000 0.124719 0.000000
0.021705 0.124217 0.000000
0.046325 0.123779 0.000000
0.071007 0.123403 0.000000
0.095751 0.123088 0.000000
0.120553 0.122830 0.000000
0.145412 0.122630 0.000000
0.170327 0.122485 0.000000
0.195297 0.122394 0.000000
0.220320 0.122356 0.000000
0.245394 0.122370 0.000000
0.270520 0.122433 0.000000
0.295695 0.122546 0.000000
0.320919 0.122708 0.000000
0.346190 0.122916 0.000000
0.371508 0.123170 0.000000
0.396871 0.123470 0.000000
0.422279 0.123815 0.000000
0.447732 0.124203 0.000000
0.473227 0.124634 0.000000
0.498766 0.125106 0.000000
0.524346 0.125621 0.000000
0.549967 0.126176 0.000000
0.575628 0.126771 0.000000
0.601329 0.127405 0.000000
0.627069 0.128078 0.000000
0.652848 0.128790 0.000000
0.678665 0.129539 0.000000
0.704519 0.130324 0.000000
0.730411 0.131147 0.000000
0.756338 0.132005 0.000000
0.782302 0.132899 0.000000
0.000000 0.148635 0.000000
0.000000 0.148281 0.000000
0.020672 0.147987 0.000000
0.045495 0.147751 0.000000
0.070375 0.147571 0.000000
0.095310 0.147446 0.000000
0.120299 0.147374 0.000000
0.145341 0.147355 0.000000
0.170434 0.147387 0.000000
0.195578 0.147469 0.000000
0.220771 0.147600 0.000000
0.246012 0.147778 0.000000
0.271300 0.148003 0.000000
0.296635 0.148274 0.000000
0.322015 0.148591 0.000000
0.347439 0.148951 0.000000
0.372907 0.149355 0.000000
0.398419 0.149801 0.000000
0.423972 0.150289 0.000000
0.449567 0.150818 0.000000
0.475203 0.151388 0.000000
0.500879 0.151997 0.000000
0.526594 0.152646 0.000000
0.552349 0.153333 0.000000
0.578141 0.154058 0.000000
0.603972 0.154820 0.000000
0.629840 0.155620 0.000000
0.655744 0.156455 0.000000
0.681685 0.157327 0.000000
0.707661 0.158234 0.000000
0.733673 0.159175 0.000000
0.759720 0.160151 0.000000
0.785801 0.161161 0.000000
0.000000 0.172679 0.000000
0.000000 0.172519 0.000000
0.020300 0.172414 0.000000
0.045308 0.172361 0.000000
0.070369 0.172361 0.000000
0.095481 0.172411 0.000000
0.120642 0.172511 0.000000
0.145853 0.172659 0.000000
0.171111 0.172855 0.000000
0.196417 0.173097 0.000000
0.221768 0.173384 0.000000
0.247164 0.173717 0.000000
0.272605 0.174093 0.000000
0.298088 0.174512 0.000000
0.323615 0.174974 0.000000
0.349184 0.175477 0.000000
0.374794 0.176021 0.000000
0.400444 0.176605 0.000000
0.426135 0.177229 0.000000
0.451864 0.177891 0.000000
0.477633 0.178592 0.000000
0.503439 0.179331 0.000000
0.529284 0.180107 0.000000
0.555165 0.180920 0.000000
0.581083 0.181768 0.000000
0.607036 0.182653 0.000000
0.633026 0.183572 0.000000
0.659050 0.184527 0.000000
0.685109 0.185515 0.000000
0.711203 0.186537 0.000000
0.737330 0.187593 0.000000
0.763490 0.188681 0.000000
0.789683 0.189802 0.000000
0.000000 0.197355 0.000000
0.000000 0.197373 0.000000
0.020534 0.197442 0.000000
0.045714 0.197559 0.000000
0.070942 0.197725 0.000000
0.096217 0.197937 0.000000
0.121539 0.198196 0.000000
0.146907 0.198500 0.000000
0.172319 0.198849 0.000000
0.197776 0.199241 0.000000
0.223275 0.199675 0.000000
0.248817 0.200152 0.000000
0.274401 0.200670 0.000000
0.300026 0.201229 0.000000
0.325691 0.201828 0.000000
0.351396 0.202466 0.000000
0.377140 0.203142 0.000000
0.402922 0.203857 0.000000
0.428742 0.204609 0.000000
0.454600 0.205399 0.000000
0.480495 0.206225 0.000000
0.506426 0.207086 0.000000
0.532392 0.207984 0.000000
0.558395 0.208916 0.000000
0.584432 0.209882 0.000000
0.610503 0.210883 0.000000
0.636609 0.211918 0.000000
0.662748 0.212985 0.000000
0.688921 0.214086 0.000000
0.715126 0.215219 0.000000
0.741363 0.216384 0.000000
0.767633 0.217580 0.000000
0.793934 0.218808 0.000000
0.000000 0.222614 0.000000
0.000000 0.222797 0.000000
0.021329 0.223026 0.000000
0.046668 0.223302 0.000000
0.072052 0.223622 0.000000
0.097480 0.223986 0.000000
0.122953 0.224394 0.000000
0.148468 0.224844 0.000000
0.174025 0.225336 0.000000
0.199624 0.225869 0.000000
0.225263 0.226442 0.000000
0.250943 0.227055 0.000000
0.276662 0.227708 0.000000
0.302420 0.228398 0.000000
0.328216 0.229127 0.000000
0.354050 0.229893 0.000000
0.379922 0.230695 0.000000
0.405829 0.231534 0.000000
0.431774 0.232409 0.000000
0.457753 0.233319 0.000000
0.483768 0.234264 0.000000
0.509818 0.235243 0.000000
0.535902 0.236256 0.000000
0.562020 0.237303 0.000000
0.588171 0.238382 0.000000
0.614356 0.239494 0.000000
0.640573 0.240639 0.000000
0.666822 0.241815 0.000000
0.693103 0.243023 0.000000
0.719416 0.244263 0.000000
0.745760 0.245532 0.000000
0.772135 0.246833 0.000000
0.798540 0.248163 0.000000
0.000000 0.248413 0.000000
0.000000 0.248750 0.000000
0.022647 0.249130 0.000000
0.048135 0.249553 0.000000
0.073666 0.250018 0.000000
0.099238 0.250525 0.000000
0.124852 0.251073 0.000000
0.150506 0.251661 0.000000
0.176200 0.252288 0.000000
0.201934 0.252955 0.000000
0.227706 0.253659 0.000000
0.253516 0.254401 0.000000
0.279363 0.255181 0.000000
0.305248 0.255996 0.000000
0.331169 0.256849 0.000000
0.357126 0.257736 0.000000
0.383119 0.258659 0.000000
0.409146 0.259616 0.000000
0.435209 0.260608 0.000000
0.461305 0.261633 0.000000
0.487435 0.262692 0.000000
0.513599 0.263783 0.000000
0.539795 0.264907 0.000000
0.566024 0.266064 0.000000
0.592285 0.267252 0.000000
0.618577 0.268471 0.000000
0.644902 0.269721 0.000000
0.671257 0.271002 0.000000
0.697643 0.272314 0.000000
0.724059 0.273655 0.000000
0.750506 0.275026 0.000000
0.776982 0.276427 0.000000
0.803488 0.277856 0.000000
0.000000 0.274718 0.000000
0.000000 0.275198 0.000000
0.024457 0.275720 0.000000
0.050085 0.276282 0.000000
0.075754 0.276885 0.000000
0.101463 0.277526 0.000000
0.127210 0.278207 0.000000
0.152996 0.278925 0.000000
0.178820 0.279681 0.000000
0.204681 0.280473 0.000000
0.230579 0.281303 0.000000
0.256513 0.282168 0.000000
0.282483 0.283068 0.000000
0.308489 0.284003 0.000000
0.334529 0.284973 0.000000
0.360604 0.285977 0.000000
0.386713 0.287015 0.000000
0.412855 0.288085 0.000000
0.439030 0.289189 0.000000
0.465238 0.290325 0.000000
0.491479 0.291493 0.000000
0.517752 0.292692 0.000000
0.544056 0.293923 0.000000
0.570391 0.295184 0.000000
0.596758 0.296476 0.000000
0.623155 0.297799 0.000000
0.649582 0.299151 0.000000
0.676040 0.300533 0.000000
0.702527 0.301944 0.000000
0.729043 0.303384 0.000000
0.755589 0.304853 0.000000
0.782163 0.306350 0.000000
0.808766 0.307875 0.000000
0.000000 0.301497 0.000000
0.001008 0.302114 0.000000
0.026730 0.302770 0.000000
0.052492 0.303464 0.000000
0.078292 0.304196 0.000000
0.104129 0.304965 0.000000
0.130004 0.305771 0.000000
0.155915 0.306613 0.000000
0.181862 0.307491 0.000000
0.207845 0.308405 0.000000
0.233864 0.309353 0.000000
0.259916 0.310335 0.000000
0.286004 0.311351 0.000000
0.312125 0.312401 0.000000
0.338279 0.313483 0.000000
0.364466 0.314599 0.000000
0.390686 0.315746 0.000000
0.416939 0.316926 0.000000
0.443223 0.318136 0.000000
0.469539 0.319378 0.000000
0.495885 0.320651 0.000000
0.522263 0.321954 0.000000
0.548671 0.323288 0.000000
0.575110 0.324651 0.000000
0.601578 0.326043 0.000000
0.628076 0.327465 0.000000
0.654603 0.328915 0.000000
0.681159 0.330394 0.000000
0.707743 0.331902 0.000000
0.734356 0.333437 0.000000
0.760997 0.335000 0.000000
0.787666 0.336591 0.000000
0.814363 0.338209 0.000000
0.000000 0.328726 0.000000
0.003592 0.329472 0.000000
0.029443 0.330254 0.000000
0.055331 0.331074 0.000000
0.081256 0.331929 0.000000
0.107216 0.332820 0.000000
0.133212 0.333746 0.000000
0.159243 0.334706 0.000000
0.185308 0.335701 0.000000
0.211408 0.336729 0.000000
0.237541 0.337791 0.000000
0.263707 0.338886 0.000000
0.289907 0.340013 0.000000
0.316139 0.341172 0.000000
0.342403 0.342363 0.000000
0.368698 0.343585 0.000000
0.395025 0.344838 0.000000
0.421383 0.346122 0.000000
0.447772 0.347436 0.000000
0.474191 0.348780 0.000000
0.500641 0.350154 0.000000
0.527120 0.351557 0.000000
0.553628 0.352990 0.000000
0.580166 0.354451 0.000000
0.606732 0.355940 0.000000
0.633327 0.357458 0.000000
0.659950 0.359003 0.000000
0.686602 0.360576 0.000000
0.713281 0.362177 0.000000
0.739988 0.363805 0.000389
0.766722 0.365459 0.001651
0.793483 0.367140 0.002934
0.820270 0.368848 0.004239
0.000000 0.356381 0.000000
0.006601 0.357249 0.000000
0.032575 0.358153 0.000000
0.058583 0.359091 0.000000
0.084627 0.360064 0.000000
0.110705 0.361071 0.000000
0.136816 0.362112 0.000000
0.162962 0.363186 0.000000
0.189140 0.364292 0.000000
0.215351 0.365431 0.000000
0.241595 0.366602 0.000000
0.267871 0.367804 0.000000
0.294178 0.369038 0.000000
0.320516 0.370302 0.000000
0.346885 0.371597 0.000000
0.373285 0.372922 0.000000
0.399716 0.374277 0.000000
0.426176 0.375662 0.000000
0.452665 0.377075 0.000000
0.479185 0.378518 0.000000
0.505733 0.379990 0.000000
0.532310 0.381489 0.000000
0.558915 0.383017 0.000000
0.585548 0.384573 0.000000
0.612210 0.386156 0.000000
0.638899 0.387766 0.000000
0.665616 0.389404 0.000846
0.692360 0.391068 0.002115
0.719130 0.392759 0.003406
0.745928 0.394476 0.004719
0.772752 0.396219 0.006054
0.799602 0.397988 0.007409
0.826478 0.399783 0.008786
0.000000 0.384442 0.000000
0.010015 0.385427 0.000000
0.036106 0.386446 0.000000
0.062230 0.387499 0.000000
0.088387 0.388585 0.000000
0.114577 0.389703 0.000000
0.140801 0.390854 0.000000
0.167056 0.392036 0.000000
0.193343 0.393250 0.000000
0.219661 0.394494 0.000000
0.246011 0.395770 0.000000
0.272392 0.397076 0.000000
0.298803 0.398412 0.000000
0.325244 0.399778 0.000000
0.351715 0.401173 0.000000
0.378215 0.402597 0.000000
0.404745 0.404051 0.000000
0.431303 0.405532 0.000000
0.457891 0.407042 0.000000
0.484506 0.408580 0.000000
0.511150 0.410146 0.000000
0.537822 0.411739 0.000000
0.564521 0.413359 0.000050
0.591247 0.415007 0.001306
0.618001 0.416681 0.002583
0.644782 0.418381 0.003882
0.671589 0.420108 0.005203
0.698422 0.421860 0.006545
0.725282 0.423639 0.007908
0.752167 0.425442 0.009292
0.779078 0.427272 0.010697
0.806015 0.429126 0.012122
0.832977 0.431005 0.013568
0.000000 0.412891 0.000000
0.013817 0.413988 0.000000
0.040019 0.415118 0.000000
0.066254 0.416280 0.000000
0.092521 0.417474 0.000000
0.118819 0.418699 0.000000
0.145149 0.419955 0.000000
0.171510 0.421242 0.000000
0.197902 0.422559 0.000000
0.224324 0.423906 0.000000
0.250776 0.425282 0.000000
0.277257 0.426688 0.000000
0.303769 0.428123 0.000000
0.330309 0.429587 0.000000
0.356878 0.431079 0.000000
0.383476 0.432599 0.000000
0.410102 0.434147 0.000000
0.436756 0.435723 0.000000
0.463437 0.437326 0.000000
0.490146 0.438956 0.000505
0.516883 0.440613 0.001768
0.543646 0.442297 0.003053
0.570436 0.444007 0.004360
0.597253 0.445743 0.005689
0.624096 0.447505 0.007038
0.650965 0.449292 0.008409
0.677860 0.451106 0.009801
0.704781 0.452944 0.011213
0.731727 0.454807 0.012646
0.758698 0.456696 0.014099
0.785694 0.458608 0.015572
0.812715 0.460546 0.017064
0.839761 0.462507 0.018577
0.000000 0.441711 0.000000
0.017990 0.442917 0.000000
0.044300 0.444153 0.000000
0.070641 0.445420 0.000000
0.097013 0.446718 0.000000
0.123416 0.448046 0.000000
0.149849 0.449404 0.000000
0.176312 0.450791 0.000000
0.202804 0.452207 0.000000
0.229326 0.453653 0.000000
0.255877 0.455127 0.000000
0.282456 0.456629 0.000000
0.309064 0.458159 0.000000
0.335700 0.459718 0.000000
0.362365 0.461303 0.000000
0.389056 0.462916 0.000000
0.415775 0.464556 0.000962
0.442522 0.466223 0.002233
0.469295 0.467916 0.003527
0.496095 0.469636 0.004841
0.522921 0.471381 0.006178
0.549774 0.473153 0.007535
0.576652 0.474950 0.008914
0.603556 0.476772 0.010313
0.630486 0.478619 0.011732
0.657441 0.480492 0.013173
0.684422 0.482389 0.014633
0.711427 0.484311 0.016113
0.738457 0.486257 0.017613
0.765512 0.488227 0.019132
0.792591 0.490222 0.020671
0.819694 0.492240 0.022229
0.846821 0.494281 0.023806
0.000000 0.470889 0.000000
0.022520 0.472198 0.000000
0.048934 0.473537 0.000000
0.075378 0.474905 0.000000
0.101852 0.476303 0.000000
0.128355 0.477730 0.000000
0.154887 0.479186 0.000000
0.181449 0.480670 0.000000
0.208038 0.482183 0.000000
0.234657 0.483723 0.000000
0.261303 0.485292 0.000000
0.287977 0.486887 0.000000
0.314679 0.488510 0.000165
0.341408 0.490160 0.001422
0.368164 0.491836 0.002702
0.394947 0.493539 0.004003
0.421757 0.495268 0.005325
0.448592 0.497023 0.006669
0.475454 0.498804 0.008035
0.502342 0.500610 0.009421
0.529256 0.502442 0.010827
0.556195 0.504298 0.012254
0.583159 0.506180 0.013702
0.610149 0.508086 0.015169
0.637163 0.510017 0.016657
0.664202 0.511972 0.018164
0.691266 0.513951 0.019690
0.718353 0.515954 0.021236
0.745465 0.517980 0.022801
0.772601 0.520030 0.024384
0.799761 0.522104 0.025987
0.826944 0.524201 0.027608
0.854150 0.526320 0.029247
0.000911 0.500411 0.000000
0.027396 0.501819 0.000000
0.053909 0.503257 0.000000
0.080452 0.504723 0.000000
0.107024 0.506218 0.000000
0.133624 0.507741 0.000000
0.160253 0.509291 0.000000
0.186909 0.510869 0.000000
0.213594 0.512475 0.000000
0.240305 0.514108 0.000620
0.267044 0.515767 0.001886
0.293810 0.517453 0.003173
0.320603 0.519166 0.004482
0.347422 0.520904 0.005812
0.374267 0.522668 0.007164
0.401139 0.524458 0.008537
0.428036 0.526274 0.009930
0.454959 0.528115 0.011344
0.481907 0.529980 0.012779
0.508881 0.531871 0.014234
0.535879 0.533786 0.015708
0.562903 0.535726 0.017203
0.589951 0.537689 0.018717
0.617023 0.539677 0.020251
0.644119 0.541689 0.021803
0.671240 0.543724 0.023375
0.698385 0.545783 0.024966
0.725553 0.547865 0.026575
0.752744 0.549970 0.028203
0.779959 0.552098 0.029849
0.807198 0.554249 0.031513
0.834459 0.556422 0.033195
0.861743 0.558618 0.034895
0.006021 0.530264 0.000000
0.032603 0.531769 0.000000
0.059214 0.533302 0.000000
0.085853 0.534863 0.000000
0.112519 0.536451 0.000000
0.139214 0.538066 0.000000
0.165935 0.539709 0.001078
0.192684 0.541378 0.002352
0.219460 0.543074 0.003647
0.246262 0.544795 0.004964
0.273091 0.546543 0.006302
0.299946 0.548317 0.007661
0.326827 0.550116 0.009042
0.353733 0.551941 0.010443
0.380665 0.553791 0.011864
0.407623 0.555666 0.013306
0.434606 0.557565 0.014768
0.461613 0.559489 0.016250
0.488645 0.561438 0.017752
0.515702 0.563410 0.019273
0.542783 0.565407 0.020814
0.569889 0.567427 0.022373
0.597018 0.569471 0.023952
0.624171 0.571538 0.025549
0.651348 0.573628 0.027165
0.678548 0.575742 0.028800
0.705772 0.577878 0.030453
0.733018 0.580037 0.032123
0.760288 0.582219 0.033812
0.787580 0.584423 0.035519
0.814895 0.586650 0.037243
0.842233 0.588898 0.038985
0.869592 0.591168 0.040743
0.011456 0.560438 0.000000
0.038133 0.562036 0.000000
0.064837 0.563661 0.000280
0.091569 0.565313 0.001539
0.118327 0.566992 0.002821
0.145113 0.568697 0.004124
0.171925 0.570429 0.005448
0.198763 0.572186 0.006794
0.225627 0.573969 0.008161
0.252518 0.575778 0.009549
0.279434 0.577612 0.010958
0.306375 0.579471 0.012387
0.333342 0.581354 0.013836
0.360334 0.583263 0.015306
0.387350 0.585196 0.016795
0.414391 0.587153 0.018304
0.441457 0.589134 0.019832
0.468547 0.591139 0.021379
0.495661 0.593168 0.022946
0.522799 0.595221 0.024531
0.549961 0.597296 0.026136
0.577146 0.599395 0.027758
0.604355 0.601517 0.029399
0.631587 0.603662 0.031059
0.658842 0.605829 0.032736
0.686120 0.608019 0.034431
0.713420 0.610231 0.036144
0.740744 0.612466 0.037875
0.768089 0.614722 0.039623
0.795457 0.617000 0.041388
0.822847 0.619300 0.043170
0.850259 0.621622 0.044970
0.877693 0.623965 0.046786
0.017206 0.590921 0.002003
0.043974 0.592610 0.003293
0.070769 0.594325 0.004604
0.097591 0.596066 0.005936
0.124439 0.597832 0.007290
0.151313 0.599625 0.008664
0.178212 0.601443 0.010060
0.205138 0.603286 0.011476
0.232088 0.605154 0.012912
0.259064 0.607046 0.014369
0.286065 0.608964 0.015845
0.313090 0.610906 0.017342
0.340141 0.612872 0.018858
0.367215 0.614862 0.020393
0.394314 0.616875 0.021947
0.421437 0.618913 0.023521
0.448583 0.620974 0.025113
0.475754 0.623058 0.026724
0.502948 0.625165 0.028354
0.530165 0.627295 0.030001
0.557405 0.629448 0.031667
0.584669 0.631624 0.033351
0.611955 0.633822 0.035053
0.639264 0.636042 0.036772
0.666595 0.638285 0.038509
0.693949 0.640549 0.040264
0.721325 0.642835 0.042035
0.748723 0.645143 0.043824
0.776143 0.647473 0.045629
0.803584 0.649823 0.047451
0.831048 0.652195 0.049290
0.858533 0.654589 0.051145
0.886039 0.657003 0.053017
0.023261 0.621706 0.006426
0.050118 0.623482 0.007788
0.077001 0.625284 0.009170
0.103910 0.627111 0.010573
0.130845 0.628963 0.011996
0.157805 0.630840 0.013440
0.184790 0.632742 0.014904
0.211799 0.634668 0.016388
0.238834 0.636619 0.017891
0.265893 0.638593 0.019414
0.292976 0.640592 0.020957
0.320084 0.642614 0.022518
0.347216 0.644660 0.024098
0.374371 0.646730 0.025698
0.401550 0.648822 0.027315
0.428752 0.650938 0.028951
0.455978 0.653076 0.030606
0.483227 0.655238 0.032278
0.510498 0.657421 0.033969
0.537793 0.659628 0.035677
0.565110 0.661856 0.037403
0.592449 0.664106 0.039146
0.619811 0.666379 0.040906
0.647195 0.668673 0.042684
0.674601 0.670989 0.044479
0.702029 0.673326 0.046290
0.729479 0.675684 0.048119
0.756950 0.678064 0.049964
0.784443 0.680465 0.051825
0.811957 0.682887 0.053702
0.839492 0.685329 0.055596
0.867048 0.687793 0.057506
0.894625 0.690276 0.059432
0.029612 0.652782 0.011089
0.056555 0.654643 0.012520
0.083524 0.656529 0.013971
0.110518 0.658440 0.015442
0.137537 0.660375 0.016933
0.164581 0.662335 0.018444
0.191649 0.664318 0.019974
0.218741 0.666325 0.021523
0.245857 0.668356 0.023091
0.272998 0.670411 0.024678
0.300161 0.672489 0.026284
0.327349 0.674590 0.027909
0.354560 0.676714 0.029552
0.381794 0.678861 0.031213
0.409051 0.681030 0.032892
0.436331 0.683222 0.034589
0.463634 0.685436 0.036303
0.490959 0.687673 0.038035
0.518307 0.689931 0.039785
0.545677 0.692211 0.041552
0.573069 0.694513 0.043336
0.600483 0.696837 0.045136
0.627918 0.699182 0.046954
0.655376 0.701548 0.048788
0.682855 0.703936 0.050639
0.710356 0.706344 0.052506
0.737877 0.708774 0.054390
0.765420 0.711224 0.056290
0.792984 0.713695 0.058205
0.820569 0.716186 0.060137
0.848174 0.718697 0.062084
0.875800 0.721229 0.064047
0.903447 0.723781 0.066025
0.036251 0.684142 0.015983
0.063278 0.686086 0.017481
0.090331 0.688054 0.018998
0.117408 0.690046 0.020535
0.144509 0.692062 0.022092
0.171634 0.694102 0.023667
0.198783 0.696165 0.025261
0.225955 0.698251 0.026874
0.253151 0.700360 0.028505
0.280370 0.702493 0.030154
0.307613 0.704648 0.031822
0.334878 0.706825 0.033507
0.362167 0.709026 0.035211
0.389478 0.711248 0.036932
0.416811 0.713492 0.038670
0.444167 0.715759 0.040426
0.471545 0.718047 0.042199
0.498945 0.720357 0.043989
0.526367 0.722688 0.045796
0.553811 0.725041 0.047620
0.581276 0.727415 0.049460
0.608763 0.729810 0.051317
0.636271 0.732226 0.053190
